;FLAVOR:Marlin
;TIME:7378
;Filament used: 5.36908m
;Layer height: 0.2
;MINX:74
;MINY:48.558
;MINZ:0.2
;MAXX:146
;MAXY:171.881
;MAXZ:13
;Generated with Cura_SteamEngine 4.12.1
M140 S60
M105
M190 S60
M104 S200
M105
M109 S200
M82 ;absolute extrusion mode
; Ender 3 Custom Start G-code
G92 E0 ; Reset Extruder
G28 ; Home all axes
G1 Z2.0 F3000 ; Move Z Axis up little to prevent scratching of Heat Bed
G1 X0.1 Y20 Z0.3 F5000.0 ; Move to start position
G1 X0.1 Y200.0 Z0.3 F1500.0 E15 ; Draw the first line
G1 X0.4 Y200.0 Z0.3 F5000.0 ; Move to side a little
G1 X0.4 Y20 Z0.3 F1500.0 E30 ; Draw the second line
G92 E0 ; Reset Extruder
G1 Z2.0 F3000 ; Move Z Axis up little to prevent scratching of Heat Bed
G1 X5 Y20 Z0.3 F5000.0 ; Move over to prevent blob squish
G92 E0
G92 E0
G1 F1500 E-6.5
;LAYER_COUNT:65
;LAYER:0
M107
G0 F6000 X75.996 Y53.261 Z0.2
;TYPE:SKIRT
G1 F1500 E0
G1 F1200 X76.566 Y52.516 E0.0312
G1 X77.198 Y51.822 E0.06242
G1 X77.886 Y51.185 E0.0936
G1 X78.626 Y50.609 E0.12479
G1 X79.412 Y50.097 E0.15599
G1 X80.239 Y49.655 E0.18718
G1 X81.101 Y49.285 E0.21838
G1 X81.991 Y48.989 E0.24958
G1 X82.903 Y48.771 E0.28077
G1 X83.83 Y48.63 E0.31195
G1 X84.701 Y48.571 E0.34099
G1 X85.022 Y48.562 E0.35167
G1 X85.33 Y48.558 E0.36191
G1 X134.293 Y48.558 E1.99043
G1 X135.149 Y48.569 E2.0189
G1 X136.085 Y48.623 E2.05009
G1 X137.013 Y48.755 E2.08126
G1 X137.927 Y48.967 E2.11247
G1 X138.819 Y49.256 E2.14365
G1 X139.684 Y49.619 E2.17486
G1 X140.514 Y50.055 E2.20604
G1 X141.305 Y50.56 E2.23725
G1 X142.049 Y51.131 E2.26845
G1 X142.742 Y51.763 E2.29964
G1 X143.379 Y52.451 E2.33083
G1 X143.954 Y53.192 E2.36202
G1 X144.465 Y53.978 E2.3932
G1 X144.907 Y54.806 E2.42442
G1 X145.276 Y55.668 E2.45561
G1 X145.571 Y56.558 E2.48679
G1 X145.789 Y57.47 E2.51798
G1 X145.929 Y58.398 E2.54919
G1 X145.987 Y59.259 E2.5779
G1 X145.996 Y59.579 E2.58854
G1 X146 Y59.888 E2.59882
G1 X146 Y109.597 E4.25215
G1 X145.996 Y110.618 E4.28611
G1 X146 Y111.201 E4.3055
G1 X145.999 Y160.281 E5.93791
G1 X145.99 Y161.008 E5.96209
G1 X145.939 Y161.945 E5.9933
G1 X145.807 Y162.873 E6.02448
G1 X145.598 Y163.787 E6.05566
G1 X145.311 Y164.68 E6.08686
G1 X144.949 Y165.546 E6.11808
G1 X144.515 Y166.377 E6.14926
G1 X144.011 Y167.168 E6.18045
G1 X143.442 Y167.913 E6.21163
G1 X142.811 Y168.608 E6.24285
G1 X142.124 Y169.246 E6.27404
G1 X141.385 Y169.823 E6.30522
G1 X140.599 Y170.335 E6.33642
G1 X139.773 Y170.778 E6.3676
G1 X138.911 Y171.15 E6.39882
G1 X138.022 Y171.446 E6.42999
G1 X137.11 Y171.666 E6.46119
G1 X136.183 Y171.807 E6.49238
G1 X135.299 Y171.868 E6.52185
G1 X134.978 Y171.877 E6.53253
G1 X134.67 Y171.881 E6.54277
G1 X85.565 Y171.88 E8.17601
G1 X84.867 Y171.871 E8.19923
G1 X83.931 Y171.819 E8.23041
G1 X83.002 Y171.687 E8.26162
G1 X82.088 Y171.477 E8.29281
G1 X81.195 Y171.19 E8.32401
G1 X80.33 Y170.827 E8.35521
G1 X79.499 Y170.393 E8.38639
G1 X78.708 Y169.889 E8.41759
G1 X77.963 Y169.319 E8.44879
G1 X77.269 Y168.688 E8.47998
G1 X76.632 Y168.001 E8.51114
G1 X76.055 Y167.261 E8.54235
G1 X75.543 Y166.475 E8.57355
G1 X75.1 Y165.648 E8.60476
G1 X74.729 Y164.787 E8.63594
G1 X74.433 Y163.897 E8.66714
G1 X74.214 Y162.985 E8.69833
G1 X74.073 Y162.058 E8.72952
G1 X74.013 Y161.169 E8.75915
G1 X74.004 Y160.836 E8.77023
G1 X74 Y160.539 E8.78011
G1 X74 Y110.842 E10.43304
G1 X74.004 Y109.821 E10.467
G1 X74 Y109.238 E10.48639
G1 X74.001 Y60.083 E12.12129
G1 X74.01 Y59.418 E12.14341
G1 X74.063 Y58.482 E12.17459
G1 X74.195 Y57.553 E12.2058
G1 X74.406 Y56.639 E12.237
G1 X74.694 Y55.747 E12.26818
G1 X75.057 Y54.882 E12.29938
G1 X75.492 Y54.051 E12.33058
G1 X75.996 Y53.261 E12.36174
G0 F6000 X76.392 Y53.393
G1 F1200 X76.961 Y52.669 E12.39237
G1 X77.589 Y51.997 E12.42296
G1 X78.274 Y51.381 E12.4536
G1 X79.01 Y50.828 E12.48422
G1 X79.791 Y50.34 E12.51485
G1 X80.611 Y49.922 E12.54546
G1 X81.465 Y49.577 E12.5761
G1 X82.345 Y49.307 E12.60671
G1 X83.245 Y49.115 E12.63732
G1 X84.159 Y49.001 E12.66796
G1 X84.712 Y48.971 E12.68638
G1 X85.033 Y48.962 E12.69706
G1 X85.33 Y48.958 E12.70694
G1 X134.293 Y48.958 E14.33545
G1 X135.143 Y48.969 E14.36373
G1 X136.062 Y49.022 E14.39434
G1 X136.973 Y49.155 E14.42496
G1 X137.869 Y49.366 E14.45558
G1 X138.743 Y49.654 E14.48619
G1 X139.59 Y50.017 E14.51684
G1 X140.401 Y50.452 E14.54745
G1 X141.171 Y50.956 E14.57806
G1 X141.895 Y51.525 E14.60868
G1 X142.567 Y52.155 E14.63932
G1 X143.182 Y52.84 E14.66994
G1 X143.735 Y53.576 E14.70056
G1 X144.222 Y54.357 E14.73117
G1 X144.639 Y55.178 E14.7618
G1 X144.984 Y56.032 E14.79243
G1 X145.253 Y56.912 E14.82304
G1 X145.445 Y57.813 E14.85368
G1 X145.558 Y58.726 E14.88427
G1 X145.587 Y59.27 E14.90239
G1 X145.596 Y59.59 E14.91304
G1 X145.6 Y59.888 E14.92295
G1 X145.6 Y109.595 E16.57622
G1 X145.596 Y110.62 E16.61031
G1 X145.6 Y111.203 E16.6297
G1 X145.599 Y160.276 E18.26187
G1 X145.59 Y161.003 E18.28606
G1 X145.539 Y161.922 E18.31667
G1 X145.408 Y162.834 E18.34731
G1 X145.198 Y163.73 E18.37792
G1 X144.912 Y164.605 E18.40854
G1 X144.551 Y165.452 E18.43916
G1 X144.117 Y166.264 E18.46979
G1 X143.615 Y167.036 E18.50041
G1 X143.047 Y167.761 E18.53105
G1 X142.419 Y168.434 E18.56166
G1 X141.735 Y169.05 E18.59228
G1 X141 Y169.604 E18.62289
G1 X140.22 Y170.093 E18.65351
G1 X139.4 Y170.512 E18.68414
G1 X138.547 Y170.858 E18.71475
G1 X137.667 Y171.129 E18.74538
G1 X136.767 Y171.322 E18.77599
G1 X135.853 Y171.437 E18.80663
G1 X135.288 Y171.468 E18.82545
G1 X134.967 Y171.477 E18.83613
G1 X134.67 Y171.481 E18.84601
G1 X85.57 Y171.48 E20.47909
G1 X84.872 Y171.471 E20.5023
G1 X83.953 Y171.419 E20.53292
G1 X83.042 Y171.288 E20.56353
G1 X82.146 Y171.078 E20.59414
G1 X81.271 Y170.791 E20.62477
G1 X80.424 Y170.429 E20.6554
G1 X79.612 Y169.995 E20.68603
G1 X78.841 Y169.493 E20.71663
G1 X78.116 Y168.925 E20.74726
G1 X77.443 Y168.296 E20.7779
G1 X76.828 Y167.612 E20.80849
G1 X76.274 Y166.877 E20.8391
G1 X75.786 Y166.096 E20.86973
G1 X75.367 Y165.276 E20.90036
G1 X75.021 Y164.423 E20.93098
G1 X74.751 Y163.543 E20.96159
G1 X74.558 Y162.642 E20.99224
G1 X74.444 Y161.729 E21.02284
G1 X74.413 Y161.158 E21.04186
G1 X74.404 Y160.825 E21.05294
G1 X74.4 Y160.539 E21.06245
G1 X74.4 Y110.844 E22.71532
G1 X74.404 Y109.819 E22.74941
G1 X74.4 Y109.236 E22.7688
G1 X74.401 Y60.089 E24.40344
G1 X74.41 Y59.424 E24.42556
G1 X74.462 Y58.504 E24.4562
G1 X74.594 Y57.593 E24.48682
G1 X74.805 Y56.697 E24.51744
G1 X75.092 Y55.822 E24.54807
G1 X75.455 Y54.976 E24.57868
G1 X75.889 Y54.164 E24.60931
G1 X76.392 Y53.393 E24.63993
G0 F6000 X76.788 Y53.529
G1 F1200 X77.355 Y52.825 E24.66999
G1 X77.981 Y52.175 E24.70001
G1 X78.662 Y51.582 E24.73004
G1 X79.394 Y51.052 E24.7601
G1 X80.169 Y50.589 E24.79012
G1 X80.982 Y50.196 E24.82016
G1 X81.827 Y49.876 E24.85021
G1 X82.696 Y49.633 E24.88022
G1 X83.584 Y49.467 E24.91027
G1 X84.723 Y49.371 E24.94829
G1 X85.044 Y49.362 E24.95897
G1 X85.33 Y49.358 E24.96848
G1 X134.293 Y49.358 E26.597
G1 X135.137 Y49.369 E26.62507
G1 X136.039 Y49.422 E26.65512
G1 X136.932 Y49.554 E26.68515
G1 X137.81 Y49.765 E26.71518
G1 X138.666 Y50.053 E26.74522
G1 X139.493 Y50.415 E26.77525
G1 X140.285 Y50.85 E26.8053
G1 X141.036 Y51.352 E26.83534
G1 X141.739 Y51.919 E26.86538
G1 X142.389 Y52.546 E26.89542
G1 X142.981 Y53.228 E26.92546
G1 X143.511 Y53.959 E26.95549
G1 X143.973 Y54.735 E26.98553
G1 X144.366 Y55.548 E27.01556
G1 X144.684 Y56.393 E27.04559
G1 X144.927 Y57.263 E27.07563
G1 X145.092 Y58.151 E27.10567
G1 X145.187 Y59.281 E27.14339
G1 X145.196 Y59.601 E27.15404
G1 X145.2 Y59.888 E27.16359
G1 X145.2 Y109.594 E28.81681
G1 X145.196 Y110.623 E28.85104
G1 X145.2 Y111.206 E28.87043
G1 X145.199 Y160.271 E30.50234
G1 X145.19 Y160.998 E30.52652
G1 X145.139 Y161.9 E30.55657
G1 X145.008 Y162.794 E30.58662
G1 X144.799 Y163.672 E30.61664
G1 X144.513 Y164.529 E30.64669
G1 X144.152 Y165.357 E30.67673
G1 X143.72 Y166.149 E30.70674
G1 X143.219 Y166.901 E30.73679
G1 X142.653 Y167.605 E30.76684
G1 X142.028 Y168.256 E30.79685
G1 X141.347 Y168.85 E30.82691
G1 X140.616 Y169.381 E30.85696
G1 X139.842 Y169.845 E30.88697
G1 X139.029 Y170.239 E30.91702
G1 X138.185 Y170.559 E30.94704
G1 X137.315 Y170.804 E30.9771
G1 X136.428 Y170.97 E31.00712
G1 X135.277 Y171.068 E31.04554
G1 X134.956 Y171.077 E31.05622
G1 X134.67 Y171.081 E31.06573
G1 X85.575 Y171.08 E32.69864
G1 X84.877 Y171.071 E32.72186
G1 X83.976 Y171.02 E32.75187
G1 X83.082 Y170.888 E32.78193
G1 X82.204 Y170.679 E32.81195
G1 X81.347 Y170.392 E32.84201
G1 X80.52 Y170.031 E32.87202
G1 X79.727 Y169.598 E32.90207
G1 X78.976 Y169.097 E32.9321
G1 X78.272 Y168.531 E32.96214
G1 X77.621 Y167.905 E32.99218
G1 X77.028 Y167.224 E33.02221
G1 X76.498 Y166.493 E33.05225
G1 X76.034 Y165.718 E33.08229
G1 X75.64 Y164.905 E33.11234
G1 X75.32 Y164.061 E33.14236
G1 X75.076 Y163.191 E33.17241
G1 X74.91 Y162.303 E33.20246
G1 X74.813 Y161.148 E33.24101
G1 X74.804 Y160.815 E33.25209
G1 X74.8 Y160.539 E33.26127
G1 X74.8 Y110.845 E34.9141
G1 X74.804 Y109.816 E34.94832
G1 X74.8 Y109.233 E34.96772
G1 X74.801 Y60.094 E36.60208
G1 X74.81 Y59.429 E36.6242
G1 X74.862 Y58.527 E36.65426
G1 X74.994 Y57.634 E36.68428
G1 X75.204 Y56.756 E36.71431
G1 X75.491 Y55.899 E36.74437
G1 X75.853 Y55.072 E36.77439
G1 X76.286 Y54.28 E36.80441
G1 X76.788 Y53.529 E36.83446
G1 F1500 E30.33446
;MESH:bearing.stl
G0 F6000 X89.305 Y64.099
G0 X88.093 Y63.283
G0 X88.096 Y64.935
G0 X88.386 Y65.637
G0 X88.921 Y66.172
G0 X89.488 Y66.406
G0 X90.407 Y66.621
;TYPE:WALL-INNER
G1 F1500 E36.83446
G1 F1200 X90.805 Y66.501 E36.84828
G1 X91.169 Y66.306 E36.86202
G1 X91.489 Y66.043 E36.8758
G1 X91.749 Y65.723 E36.88951
G1 X91.944 Y65.36 E36.90321
G1 X92.062 Y64.965 E36.91693
G1 X92.103 Y64.556 E36.9306
G1 X92.062 Y64.146 E36.9443
G1 X91.943 Y63.753 E36.95796
G1 X91.747 Y63.387 E36.97177
G1 X91.487 Y63.071 E36.98538
G1 X91.168 Y62.81 E36.99909
G1 X90.805 Y62.615 E37.01279
G1 X90.41 Y62.496 E37.02651
G1 X89.998 Y62.455 E37.04028
G1 X89.586 Y62.496 E37.05405
G1 X89.192 Y62.616 E37.06775
G1 X88.829 Y62.811 E37.08146
G1 X88.513 Y63.071 E37.09507
G1 X88.252 Y63.389 E37.10875
G1 X88.056 Y63.753 E37.1225
G1 X87.938 Y64.148 E37.13621
G1 X87.897 Y64.558 E37.14992
G1 X87.938 Y64.967 E37.16359
G1 X88.056 Y65.363 E37.17733
G1 X88.252 Y65.727 E37.19108
G1 X88.513 Y66.044 E37.20474
G1 X88.831 Y66.306 E37.21845
G1 X89.195 Y66.501 E37.23218
G1 X89.59 Y66.62 E37.2459
G1 X90 Y66.661 E37.25961
G1 X90.407 Y66.621 E37.27321
G0 F6000 X90.329 Y66.227
;TYPE:WALL-OUTER
G1 F1200 X90.651 Y66.13 E37.28439
G1 X90.945 Y65.972 E37.29549
G1 X91.204 Y65.759 E37.30665
G1 X91.415 Y65.5 E37.31776
G1 X91.572 Y65.207 E37.32881
G1 X91.668 Y64.887 E37.33993
G1 X91.701 Y64.556 E37.35099
G1 X91.668 Y64.224 E37.36209
G1 X91.572 Y63.907 E37.3731
G1 X91.413 Y63.611 E37.38428
G1 X91.203 Y63.355 E37.39529
G1 X90.945 Y63.144 E37.40638
G1 X90.651 Y62.986 E37.41748
G1 X90.332 Y62.89 E37.42856
G1 X89.998 Y62.857 E37.43972
G1 X89.665 Y62.89 E37.45085
G1 X89.347 Y62.987 E37.46191
G1 X89.053 Y63.145 E37.47301
G1 X88.797 Y63.355 E37.48402
G1 X88.586 Y63.612 E37.49508
G1 X88.428 Y63.907 E37.50621
G1 X88.332 Y64.226 E37.51729
G1 X88.299 Y64.558 E37.52839
G1 X88.332 Y64.889 E37.53945
G1 X88.428 Y65.209 E37.55057
G1 X88.586 Y65.503 E37.56167
G1 X88.797 Y65.76 E37.57273
G1 X89.055 Y65.972 E37.58383
G1 X89.349 Y66.13 E37.59493
G1 X89.668 Y66.226 E37.60601
G1 X90 Y66.259 E37.61711
G1 X90.329 Y66.227 E37.6281
G0 F6000 X90.414 Y66.658
G1 F1500 E31.1281
G0 F6000 X91.625 Y66.178
G0 X90.587 Y65.147
G0 X129.413 Y65.147
G0 X128.38 Y66.18
G0 X130 Y66.661
;TYPE:WALL-INNER
G1 F1500 E37.6281
G1 F1200 X130.41 Y66.62 E37.64181
G1 X130.805 Y66.501 E37.65553
G1 X131.169 Y66.306 E37.66926
G1 X131.489 Y66.043 E37.68304
G1 X131.749 Y65.723 E37.69675
G1 X131.944 Y65.36 E37.71046
G1 X132.062 Y64.965 E37.72417
G1 X132.103 Y64.556 E37.73784
G1 X132.062 Y64.144 E37.75161
G1 X131.942 Y63.751 E37.76528
G1 X131.748 Y63.388 E37.77897
G1 X131.484 Y63.069 E37.79274
G1 X131.165 Y62.809 E37.80643
G1 X130.803 Y62.615 E37.82009
G1 X130.408 Y62.496 E37.83381
G1 X129.998 Y62.455 E37.84752
G1 X129.586 Y62.496 E37.86129
G1 X129.192 Y62.616 E37.87499
G1 X128.829 Y62.811 E37.88869
G1 X128.513 Y63.071 E37.9023
G1 X128.252 Y63.389 E37.91598
G1 X128.056 Y63.753 E37.92973
G1 X127.938 Y64.148 E37.94345
G1 X127.897 Y64.558 E37.95715
G1 X127.938 Y64.967 E37.97082
G1 X128.056 Y65.363 E37.98457
G1 X128.252 Y65.727 E37.99832
G1 X128.515 Y66.045 E38.01204
G1 X128.831 Y66.306 E38.02567
G1 X129.195 Y66.501 E38.03941
G1 X129.59 Y66.62 E38.05313
G1 X130 Y66.661 E38.06683
G0 F6000 X130 Y66.259
;TYPE:WALL-OUTER
G1 F1200 X130.332 Y66.226 E38.07793
G1 X130.651 Y66.13 E38.08901
G1 X130.945 Y65.972 E38.10011
G1 X131.204 Y65.759 E38.11126
G1 X131.415 Y65.5 E38.12238
G1 X131.572 Y65.207 E38.13343
G1 X131.668 Y64.887 E38.14454
G1 X131.701 Y64.556 E38.15561
G1 X131.668 Y64.223 E38.16674
G1 X131.571 Y63.905 E38.1778
G1 X131.414 Y63.612 E38.18885
G1 X131.201 Y63.354 E38.19998
G1 X130.942 Y63.143 E38.21109
G1 X130.649 Y62.986 E38.22215
G1 X130.33 Y62.89 E38.23323
G1 X129.998 Y62.857 E38.24432
G1 X129.665 Y62.89 E38.25545
G1 X129.347 Y62.987 E38.26651
G1 X129.053 Y63.145 E38.27761
G1 X128.797 Y63.355 E38.28862
G1 X128.586 Y63.612 E38.29968
G1 X128.428 Y63.907 E38.31081
G1 X128.332 Y64.226 E38.32189
G1 X128.299 Y64.558 E38.33299
G1 X128.332 Y64.889 E38.34406
G1 X128.428 Y65.209 E38.35517
G1 X128.586 Y65.503 E38.36627
G1 X128.799 Y65.761 E38.3774
G1 X129.055 Y65.972 E38.38843
G1 X129.349 Y66.13 E38.39953
G1 X129.668 Y66.226 E38.41061
G1 X130 Y66.259 E38.42171
G0 F6000 X130 Y66.699
G1 F1500 E31.92171
G0 F6000 X130 Y65.39
G0 X129.998 Y103.726
G0 X129.998 Y102.264
G0 X128.627 Y103.185
G0 X128.206 Y103.815
G0 X128.058 Y104.558
G0 X128.206 Y105.301
G0 X128.627 Y105.93
G0 X129.59 Y106.62
;TYPE:WALL-INNER
G1 F1500 E38.42171
G1 F1200 X130 Y106.661 E38.43541
G1 X130.407 Y106.621 E38.44901
G1 X130.805 Y106.501 E38.46284
G1 X131.169 Y106.306 E38.47658
G1 X131.488 Y106.044 E38.4903
G1 X131.749 Y105.723 E38.50407
G1 X131.944 Y105.36 E38.51777
G1 X132.062 Y104.965 E38.53148
G1 X132.103 Y104.556 E38.54515
G1 X132.062 Y104.144 E38.55892
G1 X131.942 Y103.75 E38.57262
G1 X131.747 Y103.387 E38.58633
G1 X131.487 Y103.07 E38.59996
G1 X131.165 Y102.809 E38.61375
G1 X130.805 Y102.615 E38.62735
G1 X130.41 Y102.496 E38.64107
G1 X129.998 Y102.455 E38.65484
G1 X129.59 Y102.496 E38.66848
G1 X129.193 Y102.616 E38.68228
G1 X128.829 Y102.811 E38.69601
G1 X128.513 Y103.071 E38.70962
G1 X128.252 Y103.389 E38.7233
G1 X128.056 Y103.753 E38.73706
G1 X127.938 Y104.148 E38.75077
G1 X127.897 Y104.558 E38.76447
G1 X127.938 Y104.967 E38.77814
G1 X128.056 Y105.363 E38.79189
G1 X128.252 Y105.727 E38.80564
G1 X128.513 Y106.044 E38.81929
G1 X128.831 Y106.306 E38.833
G1 X129.195 Y106.501 E38.84673
G1 X129.59 Y106.62 E38.86045
G0 F6000 X129.668 Y106.226
;TYPE:WALL-OUTER
G1 F1200 X130 Y106.259 E38.87155
G1 X130.329 Y106.227 E38.88254
G1 X130.651 Y106.13 E38.89373
G1 X130.945 Y105.972 E38.90483
G1 X131.203 Y105.76 E38.91594
G1 X131.415 Y105.5 E38.9271
G1 X131.572 Y105.207 E38.93815
G1 X131.668 Y104.887 E38.94926
G1 X131.701 Y104.556 E38.96033
G1 X131.668 Y104.223 E38.97146
G1 X131.571 Y103.905 E38.98251
G1 X131.413 Y103.611 E38.99362
G1 X131.203 Y103.355 E39.00463
G1 X130.942 Y103.143 E39.01581
G1 X130.651 Y102.986 E39.02681
G1 X130.332 Y102.89 E39.03789
G1 X129.998 Y102.857 E39.04905
G1 X129.668 Y102.89 E39.06008
G1 X129.347 Y102.987 E39.07124
G1 X129.053 Y103.145 E39.08234
G1 X128.797 Y103.355 E39.09335
G1 X128.586 Y103.612 E39.10441
G1 X128.428 Y103.907 E39.11554
G1 X128.332 Y104.226 E39.12662
G1 X128.299 Y104.558 E39.13772
G1 X128.332 Y104.889 E39.14878
G1 X128.428 Y105.209 E39.15989
G1 X128.586 Y105.503 E39.17099
G1 X128.797 Y105.76 E39.18205
G1 X129.055 Y105.972 E39.19316
G1 X129.349 Y106.13 E39.20426
G1 X129.668 Y106.226 E39.21534
G0 F6000 X129.583 Y106.657
G1 F1500 E32.71534
G0 F6000 X128.627 Y105.93
G0 X127.706 Y104.558
G0 X129.168 Y104.556
G0 X112.998 Y91.796
G0 X113.558 Y93.145
G0 X110 Y93.661
;TYPE:WALL-INNER
G1 F1500 E39.21534
G1 F1200 X111.775 Y93.485 E39.27467
G1 X113.484 Y92.968 E39.33405
G1 X115.057 Y92.126 E39.3934
G1 X116.436 Y90.994 E39.45274
G1 X117.568 Y89.615 E39.51208
G1 X118.41 Y88.042 E39.57142
G1 X118.928 Y86.333 E39.63081
