;FLAVOR:Marlin
;TIME:22634
;Filament used: 22.2983m
;Layer height: 0.2
;MINX:64.335
;MINY:64.337
;MINZ:0.24
;MAXX:155.665
;MAXY:155.664
;MAXZ:33.69
;Generated with Cura_SteamEngine 4.12.1
M140 S80
M105
M190 S80
M104 S220
M105
M109 S220
M82 ;absolute extrusion mode
; Ender 3 Custom Start G-code
G92 E0 ; Reset Extruder
G28 ; Home all axes
G29 ; ABL
G1 Z2.0 F3000 ; Move Z Axis up little to prevent scratching of Heat Bed
G1 X0.1 Y20 Z0.3 F5000.0 ; Move to start position
G1 X0.1 Y200.0 Z0.3 F1500.0 E15 ; Draw the first line
G1 X0.4 Y200.0 Z0.3 F5000.0 ; Move to side a little
G1 X0.4 Y20 Z0.3 F1500.0 E30 ; Draw the second line
G92 E0 ; Reset Extruder
G1 Z2.0 F3000 ; Move Z Axis up little to prevent scratching of Heat Bed
G1 X5 Y20 Z0.3 F5000.0 ; Move over to prevent blob squish
G92 E0
G92 E0
G1 F1500 E-6.5
;LAYER_COUNT:163
;LAYER:-6
M107
G0 F9000 X69.655 Y69.814 Z0.24
;TYPE:SUPPORT-INTERFACE
G1 F1500 E0
G1 F1350 X69.812 Y69.658 E0.01767
G1 X70.508 Y69.012 E0.09347
G1 X70.647 Y68.893 E0.10807
G1 X71.338 Y68.339 E0.17877
G1 X71.477 Y68.235 E0.19263
G1 X72.192 Y67.743 E0.26191
G1 X72.376 Y67.626 E0.27932
G1 X73.132 Y67.183 E0.34926
G1 X73.274 Y67.106 E0.36216
G1 X74.106 Y66.697 E0.43616
G1 X74.219 Y66.647 E0.44602
G1 X75.069 Y66.304 E0.51919
G1 X75.242 Y66.242 E0.53386
G1 X76.08 Y65.973 E0.60411
G1 X76.244 Y65.927 E0.61771
G1 X77.116 Y65.715 E0.68935
G1 X77.278 Y65.682 E0.70254
G1 X78.171 Y65.534 E0.7748
G1 X78.348 Y65.511 E0.78905
G1 X79.242 Y65.428 E0.86072
G1 X79.384 Y65.421 E0.87206
G1 X80.125 Y65.4 E0.93124
G1 X139.886 Y65.401 E5.70162
G1 X140.887 Y65.437 E5.78158
G1 X141.01 Y65.446 E5.79142
G1 X141.927 Y65.548 E5.86507
G1 X142.102 Y65.573 E5.87918
G1 X142.991 Y65.737 E5.95134
G1 X143.114 Y65.765 E5.96141
G1 X144.008 Y65.999 E6.03518
G1 X144.171 Y66.048 E6.04877
G1 X145.013 Y66.334 E6.11975
G1 X145.179 Y66.398 E6.13395
G1 X145.982 Y66.739 E6.20359
G1 X146.171 Y66.827 E6.22023
G1 X146.965 Y67.235 E6.29149
G1 X147.082 Y67.302 E6.30225
G1 X147.861 Y67.776 E6.37504
G1 X148.012 Y67.876 E6.3895
G1 X148.726 Y68.387 E6.45959
G1 X148.874 Y68.5 E6.47445
G1 X149.566 Y69.077 E6.54637
G1 X149.674 Y69.173 E6.55791
G1 X150.186 Y69.655 E6.61404
G1 X150.305 Y69.774 E6.62747
G1 X150.988 Y70.508 E6.7075
G1 X151.107 Y70.647 E6.72211
G1 X151.661 Y71.338 E6.79281
G1 X151.765 Y71.477 E6.80667
G1 X152.257 Y72.192 E6.87595
G1 X152.374 Y72.376 E6.89335
G1 X152.814 Y73.125 E6.96269
G1 X152.887 Y73.259 E6.97488
G1 X153.292 Y74.082 E7.04809
G1 X153.353 Y74.219 E7.06007
G1 X153.695 Y75.064 E7.13283
G1 X153.754 Y75.23 E7.1469
G1 X154.025 Y76.072 E7.2175
G1 X154.072 Y76.238 E7.23127
G1 X154.283 Y77.107 E7.30266
G1 X154.317 Y77.27 E7.31595
G1 X154.465 Y78.162 E7.38813
G1 X154.489 Y78.348 E7.4031
G1 X154.57 Y79.232 E7.47396
G1 X154.579 Y79.384 E7.48611
G1 X154.6 Y80.117 E7.54465
G1 X154.6 Y139.869 E12.31431
G1 X154.564 Y140.875 E12.39466
G1 X154.554 Y141.01 E12.40547
G1 X154.452 Y141.927 E12.47912
G1 X154.427 Y142.102 E12.49323
G1 X154.265 Y142.98 E12.5645
G1 X154.235 Y143.114 E12.57546
G1 X154.004 Y143.999 E12.64847
G1 X153.952 Y144.171 E12.66282
G1 X153.666 Y145.013 E12.7338
G1 X153.602 Y145.179 E12.748
G1 X153.261 Y145.982 E12.81764
G1 X153.18 Y146.157 E12.83303
G1 X152.776 Y146.943 E12.90358
G1 X152.698 Y147.082 E12.9163
G1 X152.224 Y147.861 E12.98909
G1 X152.124 Y148.012 E13.00355
G1 X151.613 Y148.726 E13.07363
G1 X151.5 Y148.874 E13.0885
G1 X150.923 Y149.566 E13.16042
G1 X150.827 Y149.674 E13.17195
G1 X150.345 Y150.186 E13.22809
G1 X150.188 Y150.342 E13.24575
G1 X149.503 Y150.978 E13.32037
G1 X149.355 Y151.105 E13.33593
G1 X148.662 Y151.661 E13.40686
G1 X148.523 Y151.765 E13.42071
G1 X147.808 Y152.257 E13.49
G1 X147.624 Y152.374 E13.5074
G1 X146.868 Y152.817 E13.57735
G1 X146.726 Y152.894 E13.59024
G1 X145.898 Y153.301 E13.66389
G1 X145.781 Y153.353 E13.67411
G1 X144.926 Y153.698 E13.7477
G1 X144.763 Y153.756 E13.76151
G1 X143.92 Y154.027 E13.8322
G1 X143.756 Y154.073 E13.84579
G1 X142.884 Y154.285 E13.91743
G1 X142.722 Y154.318 E13.93063
G1 X141.829 Y154.466 E14.00288
G1 X141.652 Y154.489 E14.01713
G1 X140.758 Y154.572 E14.0888
G1 X140.616 Y154.579 E14.10015
G1 X139.875 Y154.6 E14.15932
G1 X80.114 Y154.599 E18.9297
G1 X79.113 Y154.563 E19.00966
G1 X78.99 Y154.554 E19.0195
G1 X78.073 Y154.452 E19.09315
G1 X77.898 Y154.427 E19.10727
G1 X77.009 Y154.263 E19.17943
G1 X76.886 Y154.235 E19.1895
G1 X75.992 Y154.001 E19.26326
G1 X75.829 Y153.952 E19.27685
G1 X74.987 Y153.666 E19.34783
G1 X74.821 Y153.602 E19.36203
G1 X74.018 Y153.261 E19.43167
G1 X73.829 Y153.173 E19.44832
G1 X73.035 Y152.765 E19.51957
G1 X72.918 Y152.698 E19.53034
G1 X72.139 Y152.224 E19.60313
G1 X71.988 Y152.124 E19.61758
G1 X71.274 Y151.613 E19.68767
G1 X71.126 Y151.5 E19.70253
G1 X70.434 Y150.923 E19.77446
G1 X70.326 Y150.827 E19.78599
G1 X69.814 Y150.345 E19.84212
G1 X69.654 Y150.184 E19.86024
G1 X69.01 Y149.49 E19.93582
G1 X68.893 Y149.353 E19.9502
G1 X68.343 Y148.667 E20.02038
G1 X68.227 Y148.511 E20.0359
G1 X67.743 Y147.808 E20.10403
G1 X67.626 Y147.624 E20.12144
G1 X67.183 Y146.868 E20.19138
G1 X67.106 Y146.726 E20.20428
G1 X66.697 Y145.894 E20.27828
G1 X66.647 Y145.781 E20.28814
G1 X66.298 Y144.917 E20.36253
G1 X66.242 Y144.759 E20.37591
G1 X65.97 Y143.911 E20.447
G1 X65.928 Y143.761 E20.45943
G1 X65.712 Y142.873 E20.53238
G1 X65.683 Y142.73 E20.54403
G1 X65.533 Y141.824 E20.61733
G1 X65.511 Y141.652 E20.63117
G1 X65.428 Y140.753 E20.70324
G1 X65.421 Y140.616 E20.71419
G1 X65.4 Y139.883 E20.77273
G1 X65.4 Y80.131 E25.54239
G1 X65.436 Y79.125 E25.62275
G1 X65.446 Y78.99 E25.63355
G1 X65.547 Y78.075 E25.70703
G1 X65.573 Y77.9 E25.72116
G1 X65.735 Y77.02 E25.79258
G1 X65.765 Y76.886 E25.80354
G1 X65.996 Y76 E25.87663
G1 X66.048 Y75.829 E25.8909
G1 X66.334 Y74.987 E25.96188
G1 X66.398 Y74.821 E25.97608
G1 X66.739 Y74.018 E26.04572
G1 X66.82 Y73.843 E26.06112
G1 X67.235 Y73.035 E26.13362
G1 X67.302 Y72.918 E26.14439
G1 X67.776 Y72.139 E26.21718
G1 X67.876 Y71.988 E26.23163
G1 X68.392 Y71.267 E26.30241
G1 X68.5 Y71.126 E26.31659
G1 X69.077 Y70.434 E26.38851
G1 X69.173 Y70.326 E26.40004
G1 X69.655 Y69.814 E26.45617
G0 F9000 X70.4 Y69.112
G1 F1350 X70.4 Y150.892 E32.98421
G0 F9000 X72 Y152.131
G1 F1350 X72 Y67.875 E39.70988
G0 F9000 X73.6 Y66.945
G1 F1350 X73.6 Y153.055 E46.58356
G0 F9000 X75.2 Y153.738
G1 F1350 X75.2 Y66.257 E53.56667
G0 F9000 X76.8 Y65.791
G1 F1350 X76.8 Y154.212 E60.62481
G0 F9000 X78.4 Y154.488
G1 F1350 X78.4 Y65.506 E67.72774
G0 F9000 X80 Y65.403
G1 F1350 X80 Y154.594 E74.84735
G0 F9000 X81.6 Y154.599
G1 F1350 X81.6 Y65.401 E81.96752
G0 F9000 X83.2 Y65.401
G1 F1350 X83.2 Y154.599 E89.08769
G0 F9000 X84.8 Y154.599
G1 F1350 X84.8 Y65.401 E96.20786
G0 F9000 X86.4 Y65.401
G1 F1350 X86.4 Y154.599 E103.32803
G0 F9000 X88 Y154.599
G1 F1350 X88 Y65.401 E110.4482
G0 F9000 X89.6 Y65.401
G1 F1350 X89.6 Y154.599 E117.56837
G0 F9000 X91.2 Y154.599
G1 F1350 X91.2 Y65.401 E124.68854
G0 F9000 X92.8 Y65.401
G1 F1350 X92.8 Y154.599 E131.80871
G0 F9000 X94.4 Y154.599
G1 F1350 X94.4 Y65.401 E138.92888
G0 F9000 X96 Y65.401
G1 F1350 X96 Y154.599 E146.04905
G0 F9000 X97.6 Y154.599
G1 F1350 X97.6 Y65.401 E153.16922
G0 F9000 X99.2 Y65.401
G1 F1350 X99.2 Y154.599 E160.28939
G0 F9000 X100.8 Y154.599
G1 F1350 X100.8 Y65.401 E167.40956
G0 F9000 X102.4 Y65.401
G1 F1350 X102.4 Y154.599 E174.52973
G0 F9000 X104 Y154.599
G1 F1350 X104 Y65.401 E181.6499
G0 F9000 X105.6 Y65.401
G1 F1350 X105.6 Y154.599 E188.77007
G0 F9000 X107.2 Y154.599
G1 F1350 X107.2 Y65.401 E195.89024
G0 F9000 X108.8 Y65.401
G1 F1350 X108.8 Y154.599 E203.01041
G0 F9000 X110.4 Y154.599
G1 F1350 X110.4 Y65.401 E210.13058
G0 F9000 X112 Y65.401
G1 F1350 X112 Y154.599 E217.25076
G0 F9000 X113.6 Y154.599
G1 F1350 X113.6 Y65.401 E224.37093
G0 F9000 X115.2 Y65.401
G1 F1350 X115.2 Y154.599 E231.4911
G0 F9000 X116.8 Y154.599
G1 F1350 X116.8 Y65.401 E238.61127
G0 F9000 X118.4 Y65.401
G1 F1350 X118.4 Y154.599 E245.73144
G0 F9000 X120 Y154.599
G1 F1350 X120 Y65.401 E252.85161
G0 F9000 X121.6 Y65.401
G1 F1350 X121.6 Y154.599 E259.97178
G0 F9000 X123.2 Y154.599
G1 F1350 X123.2 Y65.401 E267.09195
G0 F9000 X124.8 Y65.401
G1 F1350 X124.8 Y154.599 E274.21212
G0 F9000 X126.4 Y154.599
G1 F1350 X126.4 Y65.401 E281.33229
G0 F9000 X128 Y65.401
G1 F1350 X128 Y154.599 E288.45246
G0 F9000 X129.6 Y154.599
G1 F1350 X129.6 Y65.401 E295.57263
G0 F9000 X131.2 Y65.401
G1 F1350 X131.2 Y154.599 E302.6928
G0 F9000 X132.8 Y154.599
G1 F1350 X132.8 Y65.401 E309.81297
G0 F9000 X134.4 Y65.401
G1 F1350 X134.4 Y154.599 E316.93314
G0 F9000 X136 Y154.599
G1 F1350 X136 Y65.401 E324.05331
G0 F9000 X137.6 Y65.401
G1 F1350 X137.6 Y154.599 E331.17348
G0 F9000 X139.2 Y154.599
G1 F1350 X139.2 Y65.401 E338.29365
G0 F9000 X140.8 Y65.434
G1 F1350 X140.8 Y154.569 E345.40879
G0 F9000 X142.4 Y154.372
G1 F1350 X142.4 Y65.628 E352.49272
G0 F9000 X144 Y65.997
G1 F1350 X144 Y154.002 E359.51766
G0 F9000 X145.6 Y153.427
G1 F1350 X145.6 Y66.577 E366.4504
G0 F9000 X147.2 Y67.374
G1 F1350 X147.2 Y152.623 E373.25534
G0 F9000 X148.8 Y151.551
G1 F1350 X148.8 Y68.444 E379.8893
G0 F9000 X150.4 Y69.877
G1 F1350 X150.4 Y150.128 E386.29528
G0 F9000 X152 Y148.186
G1 F1350 X152 Y71.819 E392.39123
G0 F9000 X153.6 Y74.83
G1 F1350 X153.6 Y145.184 E398.00719
G1 F1500 E391.50719
G0 F9000 X154.58 Y145.599
G0 X153.71 Y147.453
G0 X152.996 Y148.622
G0 X151.726 Y150.266
G0 X150.207 Y151.776
G0 X149.137 Y152.634
G0 X147.385 Y153.747
G0 X146.19 Y154.335
G0 X144.225 Y155.047
G0 X142.916 Y155.366
G0 X140.839 Y155.632
G0 X79.06 Y155.626
G0 X77.734 Y155.479
G0 X75.707 Y155.027
G0 X74.417 Y154.587
G0 X72.537 Y153.705
G0 X71.378 Y152.996
G0 X69.734 Y151.726
G0 X68.212 Y150.194
G0 X68.8 Y149.237
G1 F1500 E398.00719
G1 F1350 X68.8 Y70.766 E404.27108
G0 F9000 X67.2 Y73.103
G1 F1350 X67.2 Y146.897 E410.16164
G1 F1500 E403.66164
G0 F9000 X66.164 Y147.222
G0 X65.306 Y145.303
G0 X65.074 Y144.579
G0 X64.634 Y142.915
G0 X65.6 Y142.228
G1 F1500 E410.16164
G1 F1350 X65.6 Y77.753 E415.30831
G1 F1500 E408.80831
G0 F300 X65.6 Y77.753 Z0.54
G0 F9000 X64.492 Y77.931
G0 X64.336 Y80.106
G0 X64.368 Y140.839
G0 X64.634 Y142.915
G0 X64.953 Y144.225
G0 X65.665 Y146.19
G0 X66.697 Y145.893
;TIME_ELAPSED:246.287344
;LAYER:-5
;TYPE:SUPPORT
G1 F1500 E415.30831
G1 F1350 X66.646 Y145.78 E415.32068
G1 X66.297 Y144.916 E415.41366
G1 X66.242 Y144.758 E415.43035
G1 X65.97 Y143.91 E415.51921
G1 X65.927 Y143.76 E415.53478
G1 X65.91 Y143.692 E415.54178
G1 X76.298 Y154.079 E417.00757
G1 X76.885 Y154.234 E417.06815
G1 X77.008 Y154.261 E417.08071
G1 X77.897 Y154.426 E417.17093
G1 X78.073 Y154.451 E417.18867
G1 X78.085 Y154.452 E417.18987
G1 X65.548 Y141.915 E418.95898
G1 X65.533 Y141.822 E418.96838
G1 X65.511 Y141.651 E418.98558
G1 X65.427 Y140.751 E419.07577
G1 X65.421 Y140.615 E419.08935
G1 X65.413 Y140.367 E419.11411
G1 X79.627 Y154.58 E421.11979
G1 X80.114 Y154.598 E421.16842
G1 X81.059 Y154.598 E421.26271
G1 X65.399 Y138.938 E423.47251
G1 X65.399 Y137.524 E423.61359
G1 X82.473 Y154.598 E426.02292
G1 X83.887 Y154.598 E426.16401
G1 X65.399 Y136.11 E428.77287
G1 X65.399 Y134.696 E428.91396
G1 X85.301 Y154.598 E431.72234
G1 X86.716 Y154.598 E431.86353
G1 X65.399 Y133.281 E434.87159
G1 X65.399 Y131.867 E435.01268
G1 X88.13 Y154.598 E438.22027
G1 X89.544 Y154.598 E438.36136
G1 X65.399 Y130.453 E441.76848
G1 X65.399 Y129.039 E441.90957
G1 X90.958 Y154.598 E445.51622
G1 X92.372 Y154.598 E445.65731
G1 X65.399 Y127.624 E449.46356
G1 X65.399 Y126.21 E449.60465
G1 X93.787 Y154.598 E453.61051
G1 X95.201 Y154.598 E453.7516
G1 X65.399 Y124.796 E457.95698
G1 X65.399 Y123.382 E458.09807
G1 X96.615 Y154.598 E462.50298
G1 X98.029 Y154.598 E462.64407
G1 X65.399 Y121.968 E467.24852
G1 X65.399 Y120.553 E467.38971
G1 X99.443 Y154.598 E472.19375
G1 X100.858 Y154.598 E472.33494
G1 X65.399 Y119.139 E477.33859
G1 X65.399 Y117.725 E477.47968
G1 X102.272 Y154.598 E482.68286
G1 X103.686 Y154.598 E482.82395
G1 X65.399 Y116.311 E488.22666
G1 X65.399 Y114.897 E488.36775
G1 X105.1 Y154.598 E493.96999
G1 X106.515 Y154.598 E494.11118
G1 X65.399 Y113.482 E499.91309
G1 X65.399 Y112.068 E500.05418
G1 X107.929 Y154.598 E506.05562
G1 X109.343 Y154.598 E506.19671
G1 X65.399 Y110.654 E512.39768
G1 X65.399 Y109.24 E512.53877
G1 X110.758 Y154.598 E518.93935
G1 X112.172 Y154.598 E519.08044
G1 X65.399 Y107.826 E525.68054
G1 X65.399 Y106.411 E525.82173
G1 X113.586 Y154.598 E532.62144
G1 X115.001 Y154.598 E532.76263
G1 X65.399 Y104.997 E539.76193
G1 X65.399 Y103.583 E539.90302
G1 X116.415 Y154.598 E547.10186
G1 X117.829 Y154.598 E547.24295
G1 X65.399 Y102.169 E554.64132
G1 X65.399 Y100.754 E554.78251
G1 X119.243 Y154.598 E562.38048
G1 X120.657 Y154.598 E562.52157
G1 X65.399 Y99.34 E570.31907
G1 X65.399 Y97.926 E570.46016
G1 X122.072 Y154.598 E578.45726
G1 X123.486 Y154.598 E578.59835
G1 X65.399 Y96.512 E586.79498
G1 X65.399 Y95.098 E586.93607
G1 X124.9 Y154.598 E595.33224
G1 X126.314 Y154.598 E595.47333
G1 X65.399 Y93.683 E604.06909
G1 X65.399 Y92.269 E604.21018
G1 X127.728 Y154.598 E613.00547
G1 X129.143 Y154.598 E613.14666
G1 X65.399 Y90.855 E622.14156
G1 X65.399 Y89.441 E622.28265
G1 X130.557 Y154.598 E631.47708
G1 X131.971 Y154.598 E631.61817
G1 X65.399 Y88.027 E641.01212
G1 X65.399 Y86.612 E641.15331
G1 X133.385 Y154.598 E650.74687
G1 X134.8 Y154.598 E650.88806
G1 X65.399 Y85.198 E660.68122
G1 X65.399 Y83.784 E660.82231
G1 X136.214 Y154.598 E670.815
G1 X137.628 Y154.598 E670.95609
G1 X65.399 Y82.37 E681.14831
G1 X65.399 Y80.955 E681.2895
G1 X139.042 Y154.598 E691.68133
G1 X139.874 Y154.599 E691.76434
G1 X140.441 Y154.583 E691.82094
G1 X65.42 Y79.562 E702.40721
G1 X65.436 Y79.124 E702.45095
G1 X65.445 Y78.989 E702.46445
G1 X65.526 Y78.254 E702.53823
G1 X141.748 Y154.475 E713.29391
G1 X141.829 Y154.465 E713.30205
G1 X142.721 Y154.316 E713.39229
G1 X142.884 Y154.284 E713.40886
G1 X142.953 Y154.267 E713.41595
G1 X65.73 Y77.044 E724.31295
G1 X65.735 Y77.019 E724.3155
G1 X65.765 Y76.885 E724.3292
G1 X65.996 Y75.999 E724.42056
G1 X66.019 Y75.919 E724.42886
G1 X144.075 Y153.975 E735.44341
G1 X144.762 Y153.755 E735.51539
G1 X144.926 Y153.697 E735.53274
G1 X145.129 Y153.614 E735.55463
G1 X66.38 Y74.865 E746.66696
G1 X66.398 Y74.819 E746.67189
G1 X66.738 Y74.017 E746.75881
G1 X66.803 Y73.874 E746.77448
G1 X146.119 Y153.19 E757.96683
G1 X146.726 Y152.893 E758.03426
G1 X146.868 Y152.816 E758.05037
G1 X147.051 Y152.708 E758.07158
G1 X67.286 Y72.943 E769.32728
G1 X67.301 Y72.917 E769.33027
G1 X67.775 Y72.138 E769.42126
G1 X67.822 Y72.065 E769.42992
G1 X147.928 Y152.171 E780.73375
G1 X148.522 Y151.764 E780.80559
G1 X148.662 Y151.66 E780.823
G1 X148.756 Y151.584 E780.83506
G1 X68.411 Y71.239 E792.1726
G1 X68.5 Y71.125 E792.18704
G1 X69.05 Y70.464 E792.27284
G1 X149.533 Y150.948 E803.62993
G1 X150.188 Y150.34 E803.7191
G1 X150.264 Y150.264 E803.72983
G1 X69.734 Y69.734 E815.09348
G1 X69.811 Y69.658 E815.10427
G1 X70.465 Y69.051 E815.19331
G1 X150.948 Y149.534 E826.55033
G1 X151.499 Y148.874 E826.63611
G1 X151.587 Y148.759 E826.65056
G1 X71.243 Y68.414 E837.98804
G1 X71.337 Y68.339 E838.00004
G1 X71.476 Y68.235 E838.01736
G1 X72.069 Y67.827 E838.08918
G1 X152.176 Y147.933 E849.39308
G1 X152.223 Y147.86 E849.40174
G1 X152.697 Y147.081 E849.49273
G1 X152.712 Y147.055 E849.49572
G1 X72.947 Y67.291 E860.75135
G1 X73.131 Y67.182 E860.77269
G1 X73.273 Y67.105 E860.78881
G1 X73.879 Y66.808 E860.85615
G1 X153.195 Y146.124 E872.04849
G1 X153.26 Y145.981 E872.06417
G1 X153.601 Y145.179 E872.15112
G1 X153.618 Y145.133 E872.15602
G1 X74.869 Y66.384 E883.26835
G1 X75.067 Y66.303 E883.2897
G1 X75.241 Y66.242 E883.3081
G1 X75.923 Y66.023 E883.37957
G1 X153.978 Y144.079 E894.39404
G1 X154.002 Y143.998 E894.40247
G1 X154.234 Y143.114 E894.49366
G1 X154.263 Y142.979 E894.50744
G1 X154.268 Y142.955 E894.50989
G1 X77.045 Y65.731 E905.40696
G1 X77.114 Y65.714 E905.41405
G1 X77.276 Y65.681 E905.43055
G1 X78.169 Y65.533 E905.52087
G1 X78.251 Y65.523 E905.52911
G1 X154.471 Y141.743 E916.28457
G1 X154.553 Y141.009 E916.35827
G1 X154.562 Y140.874 E916.37177
G1 X154.579 Y140.437 E916.4154
G1 X79.557 Y65.415 E927.00182
G1 X80.124 Y65.399 E927.05842
G1 X80.956 Y65.4 E927.14143
G1 X154.599 Y139.043 E937.53326
