;FLAVOR:Marlin
;TIME:10973
;Filament used: 9.78999m
;Layer height: 0.2
;MINX:71.041
;MINY:64.94
;MINZ:0.24
;MAXX:148.96
;MAXY:134.635
;MAXZ:64.49
;Generated with Cura_SteamEngine 4.12.1
M140 S60
M105
M190 S60
M104 S200
M105
M109 S200
M82 ;absolute extrusion mode
; Ender 3 Custom Start G-code
G92 E0 ; Reset Extruder
G28 ; Home all axes
G1 Z2.0 F3000 ; Move Z Axis up little to prevent scratching of Heat Bed
G1 X0.1 Y20 Z0.3 F5000.0 ; Move to start position
G1 X0.1 Y200.0 Z0.3 F1500.0 E15 ; Draw the first line
G1 X0.4 Y200.0 Z0.3 F5000.0 ; Move to side a little
G1 X0.4 Y20 Z0.3 F1500.0 E30 ; Draw the second line
G92 E0 ; Reset Extruder
G1 Z2.0 F3000 ; Move Z Axis up little to prevent scratching of Heat Bed
G1 X5 Y20 Z0.3 F5000.0 ; Move over to prevent blob squish
G92 E0
G92 E0
G1 F1500 E-6.5
;LAYER_COUNT:317
;LAYER:-6
M107
G0 F9000 X94.729 Y78.163 Z0.24
;TYPE:SUPPORT-INTERFACE
G1 F1500 E0
G1 F1125 X95.322 Y77.47 E0.07281
G1 X95.428 Y77.356 E0.08523
G1 X96.055 Y76.724 E0.1563
G1 X96.175 Y76.612 E0.1694
G1 X96.862 Y76.013 E0.24216
G1 X96.983 Y75.915 E0.25459
G1 X97.698 Y75.379 E0.32592
G1 X97.849 Y75.274 E0.3406
G1 X98.608 Y74.787 E0.41258
G1 X98.744 Y74.706 E0.42522
G1 X99.528 Y74.279 E0.49648
G1 X99.682 Y74.204 E0.51016
G1 X100.508 Y73.831 E0.5825
G1 X100.663 Y73.767 E0.59589
G1 X101.513 Y73.456 E0.66814
G1 X101.648 Y73.412 E0.67947
G1 X102.547 Y73.156 E0.75409
G1 X102.673 Y73.125 E0.76444
G1 X103.559 Y72.94 E0.83669
G1 X103.732 Y72.91 E0.85071
G1 X104.631 Y72.791 E0.9231
G1 X104.784 Y72.777 E0.93536
G1 X106.072 Y72.715 E1.03829
G1 X106.156 Y72.713 E1.045
G1 X113.901 Y72.714 E1.66324
G1 X114.902 Y72.75 E1.7432
G1 X115.025 Y72.759 E1.75304
G1 X115.942 Y72.861 E1.82669
G1 X116.117 Y72.886 E1.8408
G1 X117.006 Y73.05 E1.91296
G1 X117.129 Y73.078 E1.92303
G1 X118.023 Y73.312 E1.9968
G1 X118.186 Y73.361 E2.01039
G1 X119.028 Y73.647 E2.08137
G1 X119.194 Y73.711 E2.09557
G1 X119.997 Y74.052 E2.16521
G1 X120.186 Y74.14 E2.18185
G1 X120.98 Y74.548 E2.25311
G1 X121.097 Y74.615 E2.26387
G1 X121.876 Y75.089 E2.33666
G1 X122.027 Y75.189 E2.35112
G1 X122.741 Y75.7 E2.42121
G1 X122.889 Y75.813 E2.43607
G1 X123.58 Y76.389 E2.50788
G1 X123.693 Y76.49 E2.51998
G1 X124.342 Y77.115 E2.5919
G1 X124.462 Y77.24 E2.60573
G1 X125.058 Y77.904 E2.67696
G1 X125.161 Y78.027 E2.68976
G1 X125.718 Y78.748 E2.76249
G1 X125.809 Y78.878 E2.77516
G1 X126.546 Y80.02 E2.88365
G1 X126.674 Y80.246 E2.90438
G1 X127.098 Y81.042 E2.97638
G1 X127.176 Y81.202 E2.99059
G1 X127.548 Y82.044 E3.06407
G1 X127.597 Y82.167 E3.07463
G1 X127.913 Y83.049 E3.14942
G1 X127.951 Y83.17 E3.15955
G1 X128.197 Y84.057 E3.23302
G1 X128.23 Y84.195 E3.24435
G1 X128.409 Y85.098 E3.31783
G1 X128.435 Y85.254 E3.33046
G1 X128.549 Y86.165 E3.40374
G1 X128.562 Y86.307 E3.41513
G1 X128.607 Y87.208 E3.48714
G1 X128.61 Y87.386 E3.50135
G1 X128.59 Y88.292 E3.57369
G1 X128.58 Y88.455 E3.58672
G1 X128.496 Y89.334 E3.65721
G1 X128.472 Y89.521 E3.67226
G1 X128.323 Y90.401 E3.7435
G1 X128.29 Y90.562 E3.75662
G1 X128.076 Y91.427 E3.82775
G1 X128.03 Y91.592 E3.84142
G1 X127.754 Y92.441 E3.91269
G1 X127.694 Y92.602 E3.9264
G1 X127.355 Y93.438 E3.99841
G1 X127.286 Y93.586 E4.01145
G1 X126.666 Y94.795 E4.11991
G1 X126.632 Y94.858 E4.12562
G1 X122.751 Y101.575 E4.74486
G1 X122.231 Y102.402 E4.82284
G1 X122.141 Y102.533 E4.83553
G1 X121.617 Y103.249 E4.90636
G1 X121.499 Y103.398 E4.92153
G1 X120.931 Y104.064 E4.9914
G1 X120.811 Y104.195 E5.00558
G1 X120.162 Y104.852 E5.0793
G1 X120.069 Y104.939 E5.08946
G1 X119.379 Y105.542 E5.16261
G1 X119.248 Y105.648 E5.17606
G1 X118.544 Y106.179 E5.24645
G1 X118.381 Y106.292 E5.26229
G1 X117.622 Y106.781 E5.33436
G1 X117.516 Y106.844 E5.3442
G1 X116.702 Y107.289 E5.41825
G1 X116.55 Y107.364 E5.43178
G1 X115.744 Y107.73 E5.50244
G1 X115.575 Y107.799 E5.51702
G1 X114.759 Y108.1 E5.58644
G1 X114.57 Y108.162 E5.60232
G1 X113.715 Y108.407 E5.67332
G1 X113.54 Y108.451 E5.68772
G1 X112.692 Y108.629 E5.75689
G1 X112.503 Y108.662 E5.7722
G1 X111.626 Y108.781 E5.84285
G1 X111.457 Y108.796 E5.85639
G1 X110.139 Y108.86 E5.96173
G1 X109.882 Y108.861 E5.98224
G1 X108.881 Y108.825 E6.0622
G1 X108.758 Y108.816 E6.07204
G1 X107.841 Y108.714 E6.14569
G1 X107.666 Y108.689 E6.1598
G1 X106.777 Y108.525 E6.23196
G1 X106.654 Y108.497 E6.24203
G1 X105.76 Y108.263 E6.3158
G1 X105.597 Y108.214 E6.32939
G1 X104.755 Y107.928 E6.40037
G1 X104.589 Y107.864 E6.41457
G1 X103.786 Y107.523 E6.48421
G1 X103.597 Y107.435 E6.50085
G1 X102.803 Y107.027 E6.57211
G1 X102.686 Y106.96 E6.58287
G1 X101.898 Y106.48 E6.65653
G1 X101.756 Y106.386 E6.67012
G1 X101.042 Y105.875 E6.74021
G1 X100.894 Y105.762 E6.75507
G1 X100.203 Y105.186 E6.82688
G1 X100.09 Y105.085 E6.83898
G1 X99.441 Y104.46 E6.9109
G1 X99.321 Y104.335 E6.92473
G1 X98.718 Y103.664 E6.99674
G1 X98.621 Y103.546 E7.00894
G1 X98.074 Y102.837 E7.08042
G1 X97.961 Y102.678 E7.09599
G1 X97.263 Y101.595 E7.19884
G1 X97.206 Y101.501 E7.20761
G1 X93.372 Y94.864 E7.81945
G1 X93.326 Y94.783 E7.82689
G1 X92.893 Y93.966 E7.9007
G1 X92.802 Y93.777 E7.91744
G1 X92.445 Y92.966 E7.98818
G1 X92.387 Y92.818 E8.00086
G1 X92.084 Y91.965 E8.07312
G1 X92.038 Y91.815 E8.08565
G1 X91.798 Y90.942 E8.15792
G1 X91.758 Y90.775 E8.17163
G1 X91.585 Y89.895 E8.24322
G1 X91.561 Y89.744 E8.25542
G1 X91.449 Y88.835 E8.32853
G1 X91.436 Y88.677 E8.34118
G1 X91.392 Y87.782 E8.41271
G1 X91.389 Y87.618 E8.42581
G1 X91.411 Y86.699 E8.49919
G1 X91.419 Y86.566 E8.50982
G1 X91.508 Y85.649 E8.58337
G1 X91.531 Y85.48 E8.59698
G1 X91.68 Y84.617 E8.66689
G1 X91.718 Y84.433 E8.68189
G1 X91.932 Y83.569 E8.75294
G1 X91.981 Y83.398 E8.76714
G1 X92.254 Y82.565 E8.83711
G1 X92.32 Y82.385 E8.85241
G1 X92.655 Y81.567 E8.92297
G1 X92.736 Y81.391 E8.93844
G1 X93.324 Y80.254 E9.04062
G1 X93.447 Y80.033 E9.06081
G1 X93.486 Y79.968 E9.06686
G1 X94.004 Y79.145 E9.14448
G1 X94.098 Y79.008 E9.15775
G1 X94.606 Y78.318 E9.22614
G1 X94.729 Y78.163 E9.24194
G0 F9000 X94.4 Y78.597
G1 F1125 X94.4 Y96.643 E10.68245
G0 F9000 X96 Y99.413
G1 F1125 X96 Y76.779 E12.48919
G0 F9000 X97.6 Y75.452
G1 F1125 X97.6 Y102.117 E14.61771
G0 F9000 X99.2 Y104.2
G1 F1125 X99.2 Y74.457 E16.99192
G0 F9000 X100.8 Y73.716
G1 F1125 X100.8 Y105.683 E19.54367
G0 F9000 X102.4 Y106.785
G1 F1125 X102.4 Y73.197 E22.2248
G0 F9000 X104 Y72.874
G1 F1125 X104 Y107.613 E24.99782
G0 F9000 X105.6 Y108.214
G1 F1125 X105.6 Y72.737 E27.82975
G0 F9000 X107.2 Y72.714
G1 F1125 X107.2 Y108.603 E30.69456
G0 F9000 X108.8 Y108.819
G1 F1125 X108.8 Y72.714 E33.57662
G0 F9000 X110.4 Y72.714
G1 F1125 X110.4 Y108.848 E36.46099
G0 F9000 X112 Y108.731
G1 F1125 X112 Y72.714 E39.33603
G0 F9000 X113.6 Y72.714
G1 F1125 X113.6 Y108.436 E42.18751
G0 F9000 X115.2 Y107.938
G1 F1125 X115.2 Y72.779 E44.99405
G0 F9000 X116.8 Y73.012
G1 F1125 X116.8 Y107.236 E47.72596
G0 F9000 X118.4 Y106.279
G1 F1125 X118.4 Y73.434 E50.34779
G0 F9000 X120 Y74.054
G1 F1125 X120 Y105 E52.81804
G0 F9000 X121.6 Y103.271
G1 F1125 X121.6 Y74.922 E55.08098
G0 F9000 X123.2 Y76.073
G1 F1125 X123.2 Y100.798 E57.05463
G0 F9000 X124.8 Y98.029
G1 F1125 X124.8 Y77.617 E58.68401
G0 F9000 X126.4 Y79.794
G1 F1125 X126.4 Y95.26 E59.91857
G0 F9000 X128 Y91.685
G1 F1125 X128 Y83.347 E60.58414
G1 F1500 E54.08414
G0 F9000 X128.973 Y82.874
G0 X128.526 Y81.625
G0 X127.611 Y79.74
G0 X126.576 Y78.118
G0 X125.238 Y76.511
G0 X124.281 Y75.588
G0 X122.637 Y74.317
G0 X121.478 Y73.608
G0 X119.598 Y72.726
G0 X118.308 Y72.286
G0 X116.281 Y71.834
G0 X114.955 Y71.687
G0 X106.03 Y71.651
G0 X104.506 Y71.734
G0 X102.444 Y72.085
G0 X101.158 Y72.452
G0 X99.234 Y73.238
G0 X98.043 Y73.884
G0 X96.334 Y75.071
G0 X95.32 Y75.954
G0 X93.913 Y77.48
G0 X93.11 Y78.566
G0 X92.7 Y79.238
G0 X91.854 Y80.78
G0 X92.8 Y81.267
G1 F1500 E60.58414
G1 F1125 X92.8 Y93.772 E61.58235
G1 F1500 E55.08235
G0 F300 X92.8 Y93.772 Z0.54
G0 F9000 X91.94 Y94.44
G0 X96.213 Y101.909
G0 X97.133 Y101.376
;TIME_ELAPSED:50.596560
;LAYER:-5
;TYPE:SUPPORT
G1 F1500 E61.58235
G1 F1125 X102.757 Y107 E62.37595
G1 X102.686 Y106.959 E62.38414
G1 X101.898 Y106.478 E62.47625
G1 X101.756 Y106.384 E62.49325
G1 X101.042 Y105.874 E62.5808
G1 X100.893 Y105.761 E62.59946
G1 X100.202 Y105.184 E62.68928
G1 X100.09 Y105.083 E62.70433
G1 X99.441 Y104.458 E62.79423
G1 X99.32 Y104.334 E62.81152
G1 X98.717 Y103.663 E62.90154
G1 X98.62 Y103.545 E62.91678
G1 X98.074 Y102.835 E63.00615
G1 X97.961 Y102.677 E63.02553
G1 X97.262 Y101.594 E63.15414
G1 X97.205 Y101.5 E63.16511
G1 F1500 E56.66511
G0 F9000 X96.364 Y102.164
G0 X97.212 Y103.463
G0 X98.545 Y105.064
G0 X99.502 Y105.987
G0 X100.833 Y107.015
G0 X102.142 Y107.875
G0 X102.757 Y107
G1 F1500 E63.16511
G1 F1125 X102.803 Y107.026 E63.17039
G1 X103.597 Y107.434 E63.25946
G1 X103.786 Y107.522 E63.28026
G1 X104.588 Y107.862 E63.36718
G1 X104.755 Y107.927 E63.38506
G1 X105.275 Y108.103 E63.43984
G1 X95.199 Y98.027 E64.86167
G1 X93.371 Y94.863 E65.22628
G1 X93.326 Y94.782 E65.23552
G1 X93.277 Y94.692 E65.24575
G1 X107.185 Y108.599 E67.20825
G1 X107.666 Y108.688 E67.25706
G1 X107.84 Y108.713 E67.2746
G1 X108.757 Y108.815 E67.36666
G1 X108.82 Y108.82 E67.37297
G1 X92.148 Y92.148 E69.72556
G1 X92.083 Y91.964 E69.74504
G1 X92.037 Y91.814 E69.76069
G1 X91.797 Y90.941 E69.85103
G1 X91.757 Y90.774 E69.86817
G1 X91.651 Y90.237 E69.92278
G1 X110.267 Y108.853 E72.5497
G1 X111.456 Y108.796 E72.66848
G1 X111.61 Y108.782 E72.68391
G1 X91.431 Y88.602 E75.53145
G1 X91.391 Y87.782 E75.61337
G1 X91.388 Y87.618 E75.62973
G1 X91.399 Y87.156 E75.67585
G1 X112.84 Y108.597 E78.7014
G1 X113.539 Y108.451 E78.77265
G1 X113.714 Y108.406 E78.79068
G1 X113.985 Y108.328 E78.81882
G1 X91.489 Y85.832 E81.99325
G1 X91.506 Y85.649 E82.01159
G1 X91.53 Y85.48 E82.02862
G1 X91.679 Y84.616 E82.1161
G1 X91.68 Y84.609 E82.11681
G1 X115.059 Y107.988 E85.41584
G1 X115.574 Y107.799 E85.47058
G1 X115.742 Y107.729 E85.48874
G1 X116.067 Y107.582 E85.52433
G1 X91.958 Y83.473 E88.92637
G1 X91.98 Y83.397 E88.93426
G1 X92.253 Y82.564 E89.02173
G1 X92.309 Y82.41 E89.03808
G1 X117.016 Y107.116 E92.52444
G1 X117.515 Y106.843 E92.58119
G1 X117.62 Y106.78 E92.59341
G1 X117.908 Y106.594 E92.62762
G1 X92.725 Y81.412 E96.18114
G1 X92.735 Y81.39 E96.18355
G1 X93.206 Y80.478 E96.28597
G1 X118.75 Y106.022 E99.8905
G1 X119.247 Y105.648 E99.95257
G1 X119.378 Y105.542 E99.96938
G1 X119.541 Y105.399 E99.99102
G1 X93.726 Y79.584 E103.63379
G1 X94.002 Y79.145 E103.68554
G1 X94.097 Y79.007 E103.70225
G1 X94.294 Y78.738 E103.73552
G1 X120.284 Y104.728 E107.40299
G1 X120.81 Y104.195 E107.47771
G1 X120.93 Y104.064 E107.49544
G1 X120.978 Y104.008 E107.5028
G1 X94.914 Y77.944 E111.18071
G1 X95.321 Y77.469 E111.24312
G1 X95.426 Y77.356 E111.25851
G1 X95.583 Y77.198 E111.28074
G1 X121.624 Y103.239 E114.95541
G1 X122.139 Y102.533 E115.0426
G1 X122.218 Y102.419 E115.05644
G1 X96.3 Y76.501 E118.71375
G1 X96.861 Y76.013 E118.78794
G1 X96.982 Y75.914 E118.80354
G1 X97.065 Y75.852 E118.81388
G1 X122.764 Y101.551 E122.44029
G1 X123.282 Y100.655 E122.54355
G1 X97.881 Y75.253 E126.12798
G1 X98.606 Y74.787 E126.21398
G1 X98.743 Y74.705 E126.22991
G0 F9000 X98.746 Y74.704
G1 F1125 X123.8 Y99.758 E129.7653
G1 X124.318 Y98.862 E129.86857
G1 X99.666 Y74.21 E133.34723
G1 X99.68 Y74.203 E133.34879
G1 X100.507 Y73.831 E133.43927
G1 X100.644 Y73.774 E133.45408
G1 X124.836 Y97.966 E136.86783
G1 X125.354 Y97.07 E136.9711
G1 X101.686 Y73.401 E140.31098
G1 X102.546 Y73.155 E140.40023
G1 X102.671 Y73.124 E140.41309
G1 X102.797 Y73.099 E140.4259
G1 X125.872 Y96.173 E143.68196
G1 X126.389 Y95.276 E143.78527
G1 X103.988 Y72.875 E146.94629
G1 X104.63 Y72.79 E147.01091
G1 X104.783 Y72.776 E147.02624
G1 X105.28 Y72.753 E147.07588
G1 X126.888 Y94.361 E150.12501
G1 X127.285 Y93.586 E150.21189
G1 X127.354 Y93.438 E150.22819
G1 X127.361 Y93.42 E150.23011
G1 X106.655 Y72.713 E153.15202
G1 X108.069 Y72.713 E153.29311
G1 X127.764 Y92.408 E156.07229
G1 X128.029 Y91.592 E156.1579
G1 X128.075 Y91.427 E156.17499
G1 X128.1 Y91.33 E156.18498
G1 X109.483 Y72.713 E158.81204
G1 X110.897 Y72.713 E158.95313
G1 X128.36 Y90.176 E161.41735
G1 X128.471 Y89.521 E161.48364
G1 X128.495 Y89.334 E161.50245
G1 X128.533 Y88.935 E161.54244
G1 X112.311 Y72.713 E163.83154
G1 X113.726 Y72.713 E163.97273
G1 X128.605 Y87.592 E166.07232
G1 X128.609 Y87.386 E166.09288
G1 X128.606 Y87.208 E166.11064
G1 X128.561 Y86.307 E166.20066
G1 X128.548 Y86.164 E166.21498
G1 X128.542 Y86.116 E166.21981
G1 X115.206 Y72.779 E168.10173
G1 X115.94 Y72.86 E168.17542
G1 X116.116 Y72.886 E168.19317
G1 X116.864 Y73.024 E168.26906
G1 X128.277 Y84.437 E169.87956
G1 X128.229 Y84.195 E169.90418
G1 X128.196 Y84.057 E169.91834
G1 X127.95 Y83.17 E170.01018
G1 X127.912 Y83.048 E170.02293
G1 X127.693 Y82.438 E170.0876
G1 X118.837 Y73.582 E171.33728
G1 X119.027 Y73.646 E171.35729
G1 X119.193 Y73.71 E171.37504
G1 X119.996 Y74.051 E171.46209
G1 X120.185 Y74.14 E171.48293
G1 X120.979 Y74.548 E171.572
G1 X121.096 Y74.615 E171.58546
G1 X121.576 Y74.907 E171.64152
G1 X126.283 Y79.614 E172.30573
G0 F9000 X125.808 Y78.877
G1 F1125 X125.717 Y78.748 E172.32148
G1 X125.16 Y78.027 E172.41239
G1 X125.056 Y77.904 E172.42846
G1 X124.46 Y77.24 E172.51749
G1 X124.341 Y77.114 E172.53478
G1 X123.692 Y76.489 E172.62469
G1 X123.579 Y76.388 E172.63981
G1 X122.888 Y75.813 E172.72951
G1 X122.74 Y75.699 E172.74815
G1 X122.026 Y75.188 E172.83576
G1 X121.875 Y75.089 E172.85377
G1 X121.576 Y74.907 E172.8887
G1 F1500 E166.3887
G0 F300 X121.576 Y74.907 Z0.74
G0 F9000 X121.641 Y73.7
G0 X120.436 Y73.082
G0 X118.518 Y72.349
G0 X118.149 Y72.253
G0 X116.295 Y71.836
G0 X116.138 Y72.687
;TIME_ELAPSED:113.096693
;LAYER:-4
;TYPE:SUPPORT-INTERFACE
G1 F1500 E172.8887
G1 X115.964 Y72.662 E172.89455
G1 X115.047 Y72.56 E172.92523
G1 X114.912 Y72.55 E172.92974
G1 X113.908 Y72.514 E172.96315
G1 X106.151 Y72.513 E173.22115
G1 X106.063 Y72.515 E173.22408
G1 X104.775 Y72.577 E173.26696
G1 X104.597 Y72.593 E173.27291
G1 X103.714 Y72.71 E173.30253
G1 X103.518 Y72.744 E173.30915
G1 X103.25 Y72.8 E173.31826
G1 X116.749 Y72.8 E173.76724
G1 X117.046 Y72.855 E173.77728
G1 X117.186 Y72.886 E173.78205
G1 X118.071 Y73.118 E173.81248
G1 X118.257 Y73.173 E173.81893
G1 X118.337 Y73.2 E173.82174
G1 X101.66 Y73.2 E174.37642
G1 X101.6 Y73.217 E174.37849
G1 X101.445 Y73.268 E174.38392
G1 X100.579 Y73.585 E174.41459
G1 X100.543 Y73.6 E174.41589
G1 X119.446 Y73.6 E175.04461
G1 X120.088 Y73.872 E175.0678
G1 X120.263 Y73.954 E175.07423
G1 X120.353 Y74 E175.07759
G1 X99.645 Y74 E175.76634
G1 X99.605 Y74.018 E175.7678
G1 X99.448 Y74.096 E175.77363
G1 X98.89 Y74.4 E175.79476
G1 X121.125 Y74.4 E176.5343
G1 X121.201 Y74.443 E176.53721
G1 X121.788 Y74.8 E176.56006
G1 X98.217 Y74.8 E177.34403
G1 X97.741 Y75.105 E177.36283
G1 X97.605 Y75.2 E177.36835
G1 X122.387 Y75.2 E178.1926
G1 X122.868 Y75.544 E178.21227
G1 X122.942 Y75.6 E178.21536
G1 X97.07 Y75.6 E179.07587
G1 X96.863 Y75.755 E179.08447
G1 X96.725 Y75.867 E179.09038
G1 X96.573 Y76 E179.0971
G1 X123.427 Y76 E179.99026
G1 X123.719 Y76.244 E180.00292
G1 X123.821 Y76.335 E180.00747
G1 X123.889 Y76.4 E180.01059
G1 X96.114 Y76.4 E180.9344
G1 X96.043 Y76.461 E180.93751
G1 X95.924 Y76.572 E180.94292
G1 X95.698 Y76.8 E180.9536
G1 X124.305 Y76.8 E181.90507
G1 X124.487 Y76.976 E181.91349
G1 X124.602 Y77.096 E181.91902
G1 X124.696 Y77.2 E181.92368
G1 X95.301 Y77.2 E182.90136
G1 X95.286 Y77.215 E182.90207
G1 X95.165 Y77.346 E182.908
G1 X94.948 Y77.6 E182.91911
G1 X125.056 Y77.6 E183.92051
G1 X125.208 Y77.769 E183.92807
G1 X125.32 Y77.904 E183.9339
G1 X125.395 Y78 E183.93795
G1 X94.606 Y78 E184.962
G1 X94.577 Y78.033 E184.96346
G1 X94.45 Y78.193 E184.97026
G1 X94.298 Y78.4 E184.9788
G1 X125.703 Y78.4 E186.02333
G1 X125.876 Y78.625 E186.03277
G1 X125.979 Y78.773 E186.03877
G1 X125.997 Y78.8 E186.03985
G1 X94.004 Y78.8 E187.10394
G1 X93.941 Y78.885 E187.10746
G1 X93.83 Y79.046 E187.11396
G1 X93.733 Y79.2 E187.12002
G1 X126.255 Y79.2 E188.2017
G1 X126.514 Y79.6 E188.21755
G1 X93.482 Y79.6 E189.3162
G1 X93.316 Y79.862 E189.32652
G1 X93.235 Y80 E189.33184
G1 X126.766 Y80 E190.44709
G1 X126.85 Y80.151 E190.45283
G1 X126.983 Y80.4 E190.46222
G1 X93.024 Y80.4 E191.5917
G1 X92.818 Y80.8 E191.60667
G1 X127.196 Y80.8 E192.75008
