;FLAVOR:Marlin
;TIME:5122
;Filament used: 3.66751m
;Layer height: 0.2
;MINX:80.352
;MINY:80.352
;MINZ:0.24
;MAXX:155.515
;MAXY:139.655
;MAXZ:39.09
;Generated with Cura_SteamEngine 4.12.1
M140 S80
M105
M190 S80
M104 S220
M105
M109 S220
M82 ;absolute extrusion mode
; Ender 3 Custom Start G-code
G92 E0 ; Reset Extruder
G28 ; Home all axes
G29 ; ABL
G1 Z2.0 F3000 ; Move Z Axis up little to prevent scratching of Heat Bed
G1 X0.1 Y20 Z0.3 F5000.0 ; Move to start position
G1 X0.1 Y200.0 Z0.3 F1500.0 E15 ; Draw the first line
G1 X0.4 Y200.0 Z0.3 F5000.0 ; Move to side a little
G1 X0.4 Y20 Z0.3 F1500.0 E30 ; Draw the second line
G92 E0 ; Reset Extruder
G1 Z2.0 F3000 ; Move Z Axis up little to prevent scratching of Heat Bed
G1 X5 Y20 Z0.3 F5000.0 ; Move over to prevent blob squish
G92 E0
G92 E0
G1 F1500 E-6.5
;LAYER_COUNT:190
;LAYER:-6
M107
G0 F9000 X89.588 Y89.974 Z0.24
;TYPE:SUPPORT-INTERFACE
G1 F1500 E0
G1 F1350 X90.257 Y89.321 E0.07462
G1 X90.316 Y89.266 E0.08106
G1 X90.871 Y88.789 E0.13948
G1 X92.972 Y87.064 E0.35648
G1 X93.733 Y86.485 E0.43281
G1 X93.885 Y86.377 E0.44769
G1 X94.622 Y85.897 E0.5179
G1 X94.773 Y85.805 E0.53201
G1 X95.399 Y85.451 E0.58942
G1 X97.708 Y84.218 E0.79837
G1 X97.813 Y84.164 E0.80779
G1 X98.657 Y83.751 E0.8828
G1 X98.79 Y83.692 E0.89441
G1 X99.634 Y83.354 E0.96698
G1 X99.78 Y83.302 E0.97936
G1 X100.413 Y83.092 E1.03259
G1 X102.983 Y82.312 E1.24698
G1 X103.068 Y82.288 E1.25403
G1 X103.977 Y82.049 E1.32906
G1 X104.151 Y82.01 E1.34329
G1 X105.024 Y81.846 E1.4142
G1 X105.189 Y81.82 E1.42753
G1 X105.848 Y81.738 E1.48054
G1 X108.562 Y81.471 E1.69823
G1 X109.564 Y81.409 E1.77837
G1 X109.697 Y81.406 E1.78899
G1 X110.621 Y81.416 E1.86275
G1 X110.779 Y81.423 E1.87537
G1 X111.471 Y81.474 E1.93076
G1 X114.1 Y81.734 E2.14164
G1 X114.207 Y81.745 E2.15023
G1 X115.116 Y81.868 E2.22345
G1 X115.327 Y81.905 E2.24055
G1 X116.181 Y82.085 E2.31022
G1 X116.321 Y82.119 E2.32172
G1 X116.979 Y82.301 E2.37622
G1 X119.618 Y83.102 E2.59636
G1 X120.525 Y83.414 E2.67293
G1 X120.676 Y83.472 E2.68584
G1 X121.518 Y83.832 E2.75894
G1 X121.661 Y83.899 E2.77154
G1 X122.268 Y84.205 E2.8258
G1 X124.673 Y85.49 E3.04347
G1 X125.501 Y85.973 E3.11998
G1 X125.645 Y86.063 E3.13354
G1 X126.414 Y86.59 E3.20796
G1 X126.643 Y86.764 E3.23091
G1 X127.196 Y87.143 E3.28443
G1 X127.804 Y87.454 E3.33894
G1 X128.446 Y87.686 E3.39343
G1 X129.115 Y87.836 E3.44816
G1 X129.94 Y87.9 E3.51421
G1 X139.853 Y87.901 E4.30551
G1 X140.854 Y87.937 E4.38547
G1 X140.977 Y87.946 E4.39531
G1 X141.894 Y88.048 E4.46896
G1 X142.069 Y88.073 E4.48307
G1 X142.958 Y88.237 E4.55524
G1 X143.081 Y88.265 E4.56531
G1 X143.975 Y88.499 E4.63907
G1 X144.138 Y88.548 E4.65266
G1 X144.98 Y88.834 E4.72364
G1 X145.146 Y88.898 E4.73784
G1 X145.949 Y89.239 E4.80748
G1 X146.138 Y89.327 E4.82413
G1 X146.932 Y89.735 E4.89538
G1 X147.049 Y89.802 E4.90615
G1 X147.828 Y90.276 E4.97894
G1 X147.979 Y90.376 E4.99339
G1 X148.693 Y90.887 E5.06348
G1 X148.841 Y91 E5.07834
G1 X149.532 Y91.576 E5.15015
G1 X149.645 Y91.677 E5.16225
G1 X150.294 Y92.302 E5.23417
G1 X150.414 Y92.427 E5.24801
G1 X151.017 Y93.098 E5.32002
G1 X151.113 Y93.214 E5.33204
G1 X151.663 Y93.926 E5.40385
G1 X151.776 Y94.085 E5.41943
G1 X152.266 Y94.823 E5.49014
G1 X152.342 Y94.949 E5.50188
G1 X152.788 Y95.743 E5.57458
G1 X152.866 Y95.893 E5.58808
G1 X153.249 Y96.708 E5.65996
G1 X153.309 Y96.851 E5.67234
G1 X153.638 Y97.71 E5.74576
G1 X153.69 Y97.86 E5.75844
G1 X153.945 Y98.71 E5.82927
G1 X153.992 Y98.883 E5.84358
G1 X154.19 Y99.769 E5.91605
G1 X154.215 Y99.908 E5.92733
G1 X154.348 Y100.807 E5.99987
G1 X154.366 Y100.969 E6.01288
G1 X154.433 Y101.871 E6.08508
G1 X154.442 Y102.055 E6.09979
G1 X154.45 Y102.556 E6.13978
G1 X154.45 Y117.486 E7.33156
G1 X154.414 Y118.492 E7.41192
G1 X154.404 Y118.627 E7.42272
G1 X154.302 Y119.544 E7.49637
G1 X154.279 Y119.706 E7.50943
G1 X154.115 Y120.597 E7.58175
G1 X154.085 Y120.731 E7.59271
G1 X153.854 Y121.616 E7.66572
G1 X153.802 Y121.788 E7.68007
G1 X153.516 Y122.63 E7.75105
G1 X153.452 Y122.796 E7.76525
G1 X153.111 Y123.599 E7.83489
G1 X153.03 Y123.774 E7.85028
G1 X152.621 Y124.569 E7.92165
G1 X152.549 Y124.698 E7.93344
G1 X152.074 Y125.478 E8.00634
G1 X151.966 Y125.641 E8.02195
G1 X151.471 Y126.333 E8.08987
G1 X151.35 Y126.491 E8.10575
G1 X150.774 Y127.182 E8.17756
G1 X150.673 Y127.295 E8.18966
G1 X150.048 Y127.944 E8.26158
G1 X149.923 Y128.064 E8.27541
G1 X149.253 Y128.666 E8.34731
G1 X149.136 Y128.763 E8.35945
G1 X148.424 Y129.313 E8.43126
G1 X148.265 Y129.426 E8.44683
G1 X147.527 Y129.916 E8.51755
G1 X147.401 Y129.992 E8.52929
G1 X146.607 Y130.438 E8.60199
G1 X146.456 Y130.516 E8.61555
G1 X145.642 Y130.899 E8.68736
G1 X145.499 Y130.959 E8.69974
G1 X144.64 Y131.288 E8.77317
G1 X144.49 Y131.34 E8.78584
G1 X143.64 Y131.595 E8.85668
G1 X143.467 Y131.642 E8.87099
G1 X142.572 Y131.842 E8.9442
G1 X142.442 Y131.865 E8.95473
G1 X141.537 Y131.999 E9.02776
G1 X141.369 Y132.017 E9.04125
G1 X140.479 Y132.083 E9.11249
G1 X140.295 Y132.092 E9.12719
G1 X139.79 Y132.1 E9.16751
G1 X129.935 Y132.1 E9.95418
G1 X129.267 Y132.142 E10.00761
G1 X128.596 Y132.271 E10.06215
G1 X127.947 Y132.484 E10.11667
G1 X127.328 Y132.777 E10.17134
G1 X126.69 Y133.193 E10.23214
G1 X126.257 Y133.523 E10.2756
G1 X126.129 Y133.614 E10.28813
G1 X125.378 Y134.103 E10.35967
G1 X125.227 Y134.195 E10.37378
G1 X124.687 Y134.501 E10.42333
G1 X122.298 Y135.779 E10.6396
G1 X122.198 Y135.831 E10.6486
G1 X121.348 Y136.247 E10.72414
G1 X121.21 Y136.308 E10.73618
G1 X120.366 Y136.646 E10.80876
G1 X120.22 Y136.698 E10.82113
G1 X119.59 Y136.907 E10.87411
G1 X117.017 Y137.688 E11.08875
G1 X116.932 Y137.712 E11.0958
G1 X116.023 Y137.951 E11.17083
G1 X115.849 Y137.99 E11.18506
G1 X114.976 Y138.154 E11.25597
G1 X114.811 Y138.18 E11.2693
G1 X114.153 Y138.262 E11.32223
G1 X111.438 Y138.529 E11.54
G1 X110.436 Y138.591 E11.62014
G1 X110.303 Y138.594 E11.63076
G1 X109.379 Y138.584 E11.70452
G1 X109.221 Y138.577 E11.71715
G1 X108.529 Y138.526 E11.77253
G1 X105.9 Y138.266 E11.98342
G1 X105.793 Y138.255 E11.992
G1 X104.885 Y138.132 E12.06514
G1 X104.673 Y138.095 E12.08232
G1 X103.819 Y137.915 E12.15199
G1 X103.679 Y137.881 E12.16349
G1 X103.021 Y137.699 E12.21799
G1 X100.382 Y136.898 E12.43813
G1 X99.475 Y136.586 E12.5147
G1 X99.325 Y136.528 E12.52754
G1 X98.482 Y136.168 E12.60071
G1 X98.339 Y136.101 E12.61331
G1 X97.732 Y135.795 E12.66757
G1 X95.317 Y134.504 E12.88617
G1 X94.489 Y134.021 E12.96268
G1 X94.351 Y133.934 E12.97571
G1 X93.576 Y133.403 E13.0507
G1 X93.49 Y133.34 E13.05921
G1 X92.906 Y132.883 E13.1184
G1 X90.889 Y131.226 E13.32677
G1 X90.797 Y131.148 E13.3364
G1 X90.092 Y130.524 E13.41155
G1 X89.974 Y130.412 E13.42454
G1 X89.314 Y129.736 E13.49996
G1 X89.263 Y129.681 E13.50594
G1 X88.787 Y129.127 E13.56425
G1 X87.065 Y127.03 E13.78084
G1 X86.485 Y126.267 E13.85735
G1 X86.377 Y126.115 E13.87223
G1 X85.897 Y125.378 E13.94244
G1 X85.805 Y125.227 E13.95656
G1 X85.451 Y124.601 E14.01396
G1 X84.169 Y122.198 E14.23137
G1 X83.751 Y121.343 E14.30734
G1 X83.688 Y121.201 E14.31974
G1 X83.351 Y120.358 E14.39221
G1 X83.302 Y120.22 E14.4039
G1 X83.083 Y119.56 E14.45941
G1 X82.31 Y117.01 E14.67211
G1 X82.279 Y116.9 E14.68123
G1 X82.049 Y116.023 E14.7536
G1 X82.01 Y115.849 E14.76784
G1 X81.845 Y114.972 E14.83907
G1 X81.818 Y114.798 E14.85313
G1 X81.738 Y114.152 E14.90509
G1 X81.472 Y111.45 E15.12182
G1 X81.409 Y110.436 E15.20291
G1 X81.406 Y110.312 E15.21282
G1 X81.416 Y109.379 E15.2873
G1 X81.423 Y109.221 E15.29992
G1 X81.47 Y108.569 E15.3521
G1 X81.734 Y105.9 E15.56619
G1 X81.745 Y105.793 E15.57478
G1 X81.868 Y104.884 E15.648
G1 X81.905 Y104.673 E15.6651
G1 X82.085 Y103.819 E15.73477
G1 X82.119 Y103.679 E15.74627
G1 X82.301 Y103.021 E15.80076
G1 X83.095 Y100.403 E16.01914
G1 X83.412 Y99.479 E16.09712
G1 X83.472 Y99.324 E16.11039
G1 X83.832 Y98.482 E16.18349
G1 X83.899 Y98.339 E16.19609
G1 X84.189 Y97.761 E16.24771
G1 X85.446 Y95.409 E16.46059
G1 X85.495 Y95.318 E16.46884
G1 X85.973 Y94.499 E16.54454
G1 X86.063 Y94.355 E16.55809
G1 X86.59 Y93.586 E16.63251
G1 X86.653 Y93.5 E16.64102
G1 X87.113 Y92.911 E16.70067
G1 X88.762 Y90.903 E16.90808
G1 X88.846 Y90.804 E16.91845
G1 X89.467 Y90.102 E16.99326
G1 X89.588 Y89.974 E17.00732
G0 F9000 X89.6 Y89.962
G1 F1350 X89.6 Y130.028 E20.20556
G0 F9000 X91.2 Y131.481
G1 F1350 X91.2 Y88.518 E23.63506
G0 F9000 X92.8 Y87.205
G1 F1350 X92.8 Y132.795 E27.27425
G0 F9000 X94.4 Y133.964
G1 F1350 X94.4 Y86.041 E31.09967
G0 F9000 X96 Y85.13
G1 F1350 X96 Y134.869 E35.07005
G0 F9000 X97.6 Y135.724
G1 F1350 X97.6 Y84.275 E39.17693
G0 F9000 X99.2 Y83.527
G1 F1350 X99.2 Y136.474 E43.40339
G0 F9000 X100.8 Y137.024
G1 F1350 X100.8 Y82.974 E47.71789
G0 F9000 X102.4 Y82.488
G1 F1350 X102.4 Y137.51 E52.10999
G0 F9000 X104 Y137.953
G1 F1350 X104 Y82.043 E56.57297
G0 F9000 X105.6 Y81.768
G1 F1350 X105.6 Y138.228 E61.07985
G0 F9000 X107.2 Y138.394
G1 F1350 X107.2 Y81.604 E65.61307
G0 F9000 X108.8 Y81.456
G1 F1350 X108.8 Y138.545 E70.17016
G0 F9000 X110.4 Y138.592
G1 F1350 X110.4 Y81.414 E74.73436
G0 F9000 X112 Y81.527
G1 F1350 X112 Y138.474 E79.28011
G0 F9000 X113.6 Y138.317
G1 F1350 X113.6 Y81.685 E83.80072
G0 F9000 X115.2 Y81.883
G1 F1350 X115.2 Y138.112 E88.28917
G0 F9000 X116.8 Y137.747
G1 F1350 X116.8 Y82.252 E92.71902
G0 F9000 X118.4 Y82.733
G1 F1350 X118.4 Y137.269 E97.07232
G0 F9000 X120 Y136.771
G1 F1350 X120 Y83.234 E101.34587
G0 F9000 X121.6 Y83.871
G1 F1350 X121.6 Y136.124 E105.51693
G0 F9000 X123.2 Y135.297
G1 F1350 X123.2 Y84.703 E109.55556
G0 F9000 X124.8 Y85.565
G1 F1350 X124.8 Y134.437 E113.45674
G0 F9000 X126.4 Y133.415
G1 F1350 X126.4 Y86.581 E117.19523
G0 F9000 X128 Y87.525
G1 F1350 X128 Y132.467 E120.7827
G0 F9000 X129.6 Y132.122
G1 F1350 X129.6 Y87.874 E124.31476
G0 F9000 X131.2 Y87.901
G1 F1350 X131.2 Y132.1 E127.84292
G0 F9000 X132.8 Y132.1
G1 F1350 X132.8 Y87.901 E131.37107
G0 F9000 X134.4 Y87.901
G1 F1350 X134.4 Y132.1 E134.89923
G0 F9000 X136 Y132.1
G1 F1350 X136 Y87.901 E138.42738
G0 F9000 X137.6 Y87.901
G1 F1350 X137.6 Y132.1 E141.95554
G0 F9000 X139.2 Y132.1
G1 F1350 X139.2 Y87.901 E145.48369
G0 F9000 X140.8 Y87.936
G1 F1350 X140.8 Y132.06 E149.00586
G0 F9000 X142.4 Y131.872
G1 F1350 X142.4 Y88.135 E152.49714
G0 F9000 X144 Y88.507
G1 F1350 X144 Y131.487 E155.92799
G0 F9000 X145.6 Y130.917
G1 F1350 X145.6 Y89.091 E159.26672
G0 F9000 X147.2 Y89.894
G1 F1350 X147.2 Y130.105 E162.47654
G0 F9000 X148.8 Y129.023
G1 F1350 X148.8 Y90.969 E165.51417
G0 F9000 X150.4 Y92.413
G1 F1350 X150.4 Y127.579 E168.32127
G0 F9000 X152 Y125.59
G1 F1350 X152 Y94.423 E170.80916
G0 F9000 X153.6 Y97.611
G1 F1350 X153.6 Y122.383 E172.78657
G1 F1500 E166.28657
G0 F9000 X154.519 Y122.985
G0 X153.982 Y124.249
G0 X152.976 Y126.043
G0 X152.187 Y127.149
G0 X150.795 Y128.703
G0 X149.794 Y129.599
G0 X148.09 Y130.819
G0 X146.936 Y131.466
G0 X145.009 Y132.287
G0 X143.728 Y132.673
G0 X115.158 Y139.203
G0 X110.472 Y139.655
G0 X108.429 Y139.585
G0 X104.479 Y139.142
G0 X102.729 Y138.723
G0 X98.916 Y137.512
G0 X97.232 Y136.734
G0 X93.765 Y134.823
G0 X92.239 Y133.713
G0 X89.232 Y131.176
G0 X88.516 Y130.4
G0 X87.178 Y128.844
G0 X88 Y128.168
G1 F1500 E172.78657
G1 F1350 X88 Y91.83 E175.68722
G0 F9000 X86.4 Y93.863
G1 F1350 X86.4 Y126.147 E178.26427
G0 F9000 X84.8 Y123.38
G1 F1350 X84.8 Y96.617 E180.40061
G0 F9000 X83.2 Y100.096
G1 F1350 X83.2 Y119.912 E181.98241
G1 F1500 E175.48241
G0 F9000 X82.098 Y119.969
G0 X80.966 Y116.057
G0 X80.805 Y115.047
G0 X80.542 Y112.854
G0 X81.6 Y112.75
G1 F1500 E181.98241
G1 F1350 X81.6 Y107.254 E182.42112
G1 F1500 E175.92112
G0 F300 X81.6 Y107.254 Z0.54
G0 F9000 X80.54 Y107.151
G0 X80.352 Y109.343
G0 X80.408 Y111.502
G0 X80.797 Y115.158
G0 X81.289 Y117.312
G0 X82.359 Y120.743
G0 X83.274 Y122.785
G0 X84.666 Y125.34
G0 X85.485 Y126.695
G0 X86.376 Y126.114
;TIME_ELAPSED:115.252679
;LAYER:-5
;TYPE:SUPPORT
G1 F1500 E182.42112
G1 F1350 X86.484 Y126.266 E182.43973
G1 X87.065 Y127.029 E182.53542
G1 X88.787 Y129.126 E182.80617
G1 X89.263 Y129.679 E182.87897
G1 X89.313 Y129.735 E182.88646
G1 X89.974 Y130.41 E182.98073
G1 X90.092 Y130.523 E182.99703
G1 X90.796 Y131.147 E183.0909
G1 X90.889 Y131.225 E183.10301
G1 X92.905 Y132.882 E183.36339
G1 X93.49 Y133.339 E183.43747
G1 X93.576 Y133.402 E183.4481
G1 X94.3 Y133.898 E183.53567
G1 X86.114 Y125.712 E184.6908
G1 X85.896 Y125.377 E184.73069
G1 X85.805 Y125.226 E184.74828
G1 X85.451 Y124.6 E184.82003
G1 X84.346 Y122.53 E185.05417
G1 X97.47 Y135.654 E186.9061
G1 X97.732 Y135.794 E186.93575
G1 X98.339 Y136.1 E187.00357
G1 X98.481 Y136.167 E187.01924
G1 X99.325 Y136.527 E187.1108
G1 X99.475 Y136.585 E187.12684
G1 X99.994 Y136.763 E187.18159
G1 X83.228 Y119.998 E189.54738
G1 X83.082 Y119.559 E189.59355
G1 X82.595 Y117.95 E189.76128
G1 X102.047 Y137.402 E192.50617
G1 X103.02 Y137.698 E192.60765
G1 X103.678 Y137.88 E192.67577
G1 X103.818 Y137.914 E192.69015
G1 X104.013 Y137.955 E192.71003
G1 X82.039 Y115.98 E195.81087
G1 X82.01 Y115.848 E195.82435
G1 X81.844 Y114.971 E195.91342
G1 X81.817 Y114.797 E195.93099
G1 X81.753 Y114.28 E195.98297
G1 X105.716 Y138.243 E199.3644
G1 X105.792 Y138.254 E199.37207
G1 X105.899 Y138.265 E199.3828
G1 X107.29 Y138.402 E199.52226
G1 X81.595 Y112.708 E203.14804
G1 X81.472 Y111.449 E203.27426
G1 X81.453 Y111.151 E203.30405
G1 X108.849 Y138.548 E207.16999
G1 X109.221 Y138.575 E207.20721
G1 X109.378 Y138.583 E207.2229
G1 X110.303 Y138.592 E207.3152
G0 F9000 X110.307 Y138.592
G1 F1350 X81.412 Y109.697 E211.39259
G1 X81.416 Y109.378 E211.42443
G1 X81.422 Y109.22 E211.4402
G1 X81.47 Y108.567 E211.50554
G1 X81.49 Y108.36 E211.52629
G1 X111.638 Y138.508 E215.7805
G1 X112.925 Y138.381 E215.90954
G1 X81.617 Y107.073 E220.32743
G1 X81.734 Y105.899 E220.44516
G1 X81.745 Y105.792 E220.45589
G1 X81.745 Y105.786 E220.45649
G1 X114.211 Y138.253 E225.03786
G1 X114.81 Y138.179 E225.09808
G1 X114.975 Y138.153 E225.11475
G1 X115.438 Y138.066 E225.16176
G1 X81.928 Y104.556 E229.89038
G1 X82.084 Y103.818 E229.96565
G1 X82.119 Y103.678 E229.98005
G1 X82.194 Y103.407 E230.0081
G1 X116.587 Y137.8 E234.86133
G1 X116.932 Y137.711 E234.89688
G1 X117.016 Y137.687 E234.90559
G1 X117.685 Y137.484 E234.97535
G1 X82.514 Y102.313 E239.93836
G1 X82.843 Y101.228 E240.05149
G1 X118.769 Y137.154 E245.12104
G1 X119.59 Y136.905 E245.20664
G1 X119.848 Y136.819 E245.23378
G1 X83.18 Y100.151 E250.40803
G1 X83.411 Y99.478 E250.47903
G1 X83.471 Y99.323 E250.49561
G1 X83.56 Y99.116 E250.51809
G1 X120.881 Y136.437 E255.78449
G1 X121.21 Y136.306 E255.81982
G1 X121.348 Y136.246 E255.83484
G1 X121.855 Y135.997 E255.8912
G1 X83.997 Y98.14 E261.2333
G1 X84.189 Y97.76 E261.27578
G1 X84.482 Y97.21 E261.33796
G1 X122.787 Y135.515 E266.74321
G1 X123.709 Y135.022 E266.84754
G1 X84.975 Y96.288 E272.31332
G1 X85.446 Y95.407 E272.413
G1 X85.467 Y95.367 E272.41751
G1 X124.63 Y134.529 E277.94376
G1 X124.686 Y134.5 E277.95005
G1 X125.227 Y134.194 E278.01207
G1 X125.377 Y134.102 E278.02963
G1 X125.522 Y134.007 E278.04693
G1 X85.987 Y94.473 E283.62567
G1 X86.062 Y94.354 E283.63971
G1 X86.559 Y93.63 E283.72733
G1 X126.367 Y133.438 E289.34467
G1 X126.69 Y133.192 E289.38518
G1 X127.202 Y132.859 E289.44613
G1 X87.176 Y92.833 E295.09423
G1 X87.814 Y92.056 E295.19454
G1 X128.168 Y132.41 E300.88893
G1 X128.595 Y132.269 E300.9338
G1 X129.267 Y132.141 E301.00205
G1 X129.31 Y132.138 E301.00636
G1 X88.451 Y91.279 E306.772
G1 X88.762 Y90.902 E306.82077
G1 X88.845 Y90.803 E306.83366
G1 X89.1 Y90.514 E306.87211
G1 X130.684 Y132.098 E312.74007
G1 X132.098 Y132.098 E312.88116
G1 X89.783 Y89.783 E318.85226
G1 X90.255 Y89.321 E318.91816
G1 X90.315 Y89.265 E318.92635
G1 X90.511 Y89.097 E318.95211
G1 X133.513 Y132.098 E325.02009
G1 X134.927 Y132.099 E325.16117
G1 X91.28 Y88.451 E331.32031
G1 X92.057 Y87.814 E331.42056
G1 X136.342 Y132.099 E337.66965
G1 X137.756 Y132.099 E337.81074
G1 X92.833 Y87.177 E344.14979
G1 X92.971 Y87.063 E344.16765
G1 X93.632 Y86.561 E344.25047
G1 X139.17 Y132.099 E350.67638
G1 X139.789 Y132.1 E350.73814
G1 X140.294 Y132.091 E350.78854
G1 X140.478 Y132.083 E350.80691
G1 X140.562 Y132.076 E350.81533
G1 X94.477 Y85.991 E357.31842
G1 X94.621 Y85.897 E357.33558
G1 X94.772 Y85.804 E357.35327
