;FLAVOR:Marlin
;TIME:4870
;Filament used: 3.63555m
;Layer height: 0.2
;MINX:81.335
;MINY:81.336
;MINZ:0.24
;MAXX:138.477
;MAXY:138.665
;MAXZ:50.89
;Generated with Cura_SteamEngine 4.12.1
M140 S80
M105
M190 S80
M104 S220
M105
M109 S220
M82 ;absolute extrusion mode
; Ender 3 Custom Start G-code
G92 E0 ; Reset Extruder
G28 ; Home all axes
G29 ; ABL
G1 Z2.0 F3000 ; Move Z Axis up little to prevent scratching of Heat Bed
G1 X0.1 Y20 Z0.3 F5000.0 ; Move to start position
G1 X0.1 Y200.0 Z0.3 F1500.0 E15 ; Draw the first line
G1 X0.4 Y200.0 Z0.3 F5000.0 ; Move to side a little
G1 X0.4 Y20 Z0.3 F1500.0 E30 ; Draw the second line
G92 E0 ; Reset Extruder
G1 Z2.0 F3000 ; Move Z Axis up little to prevent scratching of Heat Bed
G1 X5 Y20 Z0.3 F5000.0 ; Move over to prevent blob squish
G92 E0
G92 E0
G1 F1500 E-6.5
;LAYER_COUNT:249
;LAYER:-6
M107
G0 F9000 X86.802 Y86.556 Z0.24
;TYPE:SUPPORT-INTERFACE
G1 F1500 E0
G1 F1350 X86.927 Y86.436 E0.01383
G1 X87.598 Y85.833 E0.08584
G1 X87.714 Y85.737 E0.09786
G1 X88.426 Y85.187 E0.16968
G1 X88.585 Y85.074 E0.18525
G1 X89.323 Y84.584 E0.25596
G1 X89.449 Y84.508 E0.26771
G1 X90.243 Y84.062 E0.34041
G1 X90.393 Y83.984 E0.3539
G1 X91.208 Y83.601 E0.42578
G1 X91.351 Y83.541 E0.43816
G1 X92.21 Y83.212 E0.51159
G1 X92.36 Y83.16 E0.52426
G1 X93.21 Y82.905 E0.5951
G1 X93.383 Y82.858 E0.60941
G1 X94.278 Y82.658 E0.68261
G1 X94.408 Y82.635 E0.69315
G1 X95.313 Y82.501 E0.76618
G1 X95.482 Y82.483 E0.77975
G1 X96.371 Y82.417 E0.85091
G1 X96.555 Y82.408 E0.86561
G1 X97.06 Y82.4 E0.90593
G1 X123.003 Y82.401 E2.97681
G1 X124.004 Y82.437 E3.05677
G1 X124.127 Y82.446 E3.06661
G1 X125.044 Y82.548 E3.14026
G1 X125.219 Y82.573 E3.15437
G1 X126.108 Y82.737 E3.22653
G1 X126.231 Y82.765 E3.2366
G1 X127.125 Y82.999 E3.31037
G1 X127.288 Y83.048 E3.32396
G1 X128.13 Y83.334 E3.39494
G1 X128.296 Y83.398 E3.40914
G1 X129.099 Y83.739 E3.47878
G1 X129.288 Y83.827 E3.49542
G1 X130.082 Y84.235 E3.56668
G1 X130.199 Y84.302 E3.57744
G1 X130.978 Y84.776 E3.65023
G1 X131.129 Y84.876 E3.66469
G1 X131.843 Y85.387 E3.73478
G1 X131.991 Y85.5 E3.74964
G1 X132.682 Y86.076 E3.82145
G1 X132.795 Y86.177 E3.83355
G1 X133.444 Y86.802 E3.90547
G1 X133.564 Y86.927 E3.9193
G1 X134.167 Y87.598 E3.99132
G1 X134.263 Y87.714 E4.00334
G1 X134.822 Y88.438 E4.07635
G1 X134.916 Y88.569 E4.08922
G1 X135.416 Y89.323 E4.16144
G1 X135.492 Y89.449 E4.17319
G1 X135.938 Y90.243 E4.24588
G1 X136.016 Y90.393 E4.25938
G1 X136.399 Y91.208 E4.33126
G1 X136.459 Y91.351 E4.34364
G1 X136.788 Y92.21 E4.41706
G1 X136.84 Y92.36 E4.42974
G1 X137.095 Y93.21 E4.50057
G1 X137.142 Y93.383 E4.51489
G1 X137.34 Y94.269 E4.58735
G1 X137.365 Y94.408 E4.59863
G1 X137.498 Y95.307 E4.67117
G1 X137.516 Y95.469 E4.68418
G1 X137.583 Y96.371 E4.75638
G1 X137.592 Y96.555 E4.77109
G1 X137.6 Y97.056 E4.81108
G1 X137.6 Y122.986 E6.88093
G1 X137.564 Y123.992 E6.96128
G1 X137.554 Y124.127 E6.97209
G1 X137.452 Y125.044 E7.04574
G1 X137.427 Y125.219 E7.05985
G1 X137.265 Y126.097 E7.13112
G1 X137.235 Y126.231 E7.14208
G1 X137.004 Y127.116 E7.21509
G1 X136.952 Y127.288 E7.22944
G1 X136.676 Y128.1 E7.29789
G1 X136.596 Y128.309 E7.31576
G1 X136.261 Y129.099 E7.38426
G1 X136.18 Y129.274 E7.39965
G1 X135.765 Y130.082 E7.47216
G1 X135.698 Y130.199 E7.48292
G1 X135.224 Y130.978 E7.55571
G1 X135.124 Y131.129 E7.57017
G1 X134.613 Y131.843 E7.64025
G1 X134.5 Y131.991 E7.65512
G1 X133.924 Y132.682 E7.72693
G1 X133.823 Y132.795 E7.73902
G1 X133.198 Y133.444 E7.81095
G1 X133.073 Y133.564 E7.82478
G1 X132.403 Y134.166 E7.89668
G1 X132.286 Y134.263 E7.90881
G1 X131.574 Y134.813 E7.98063
G1 X131.415 Y134.926 E7.9962
G1 X130.677 Y135.416 E8.06691
G1 X130.551 Y135.492 E8.07866
G1 X129.757 Y135.938 E8.15135
G1 X129.606 Y136.016 E8.16492
G1 X128.792 Y136.399 E8.23673
G1 X128.649 Y136.459 E8.24911
G1 X127.79 Y136.788 E8.32253
G1 X127.64 Y136.84 E8.33521
G1 X126.79 Y137.095 E8.40604
G1 X126.617 Y137.142 E8.42035
G1 X125.722 Y137.342 E8.49356
G1 X125.592 Y137.365 E8.5041
G1 X124.687 Y137.499 E8.57713
G1 X124.519 Y137.517 E8.59061
G1 X123.629 Y137.583 E8.66185
G1 X123.445 Y137.592 E8.67656
G1 X122.94 Y137.6 E8.71687
G1 X96.997 Y137.599 E10.78776
G1 X95.996 Y137.563 E10.86771
G1 X95.873 Y137.554 E10.87756
G1 X94.956 Y137.452 E10.95121
G1 X94.781 Y137.427 E10.96532
G1 X93.892 Y137.263 E11.03748
G1 X93.769 Y137.235 E11.04755
G1 X92.875 Y137.001 E11.12132
G1 X92.712 Y136.952 E11.1349
G1 X91.87 Y136.666 E11.20589
G1 X91.704 Y136.602 E11.22009
G1 X90.901 Y136.261 E11.28973
G1 X90.712 Y136.173 E11.30637
G1 X89.918 Y135.765 E11.37763
G1 X89.801 Y135.698 E11.38839
G1 X89.022 Y135.224 E11.46118
G1 X88.871 Y135.124 E11.47564
G1 X88.157 Y134.613 E11.54572
G1 X88.009 Y134.5 E11.56059
G1 X87.318 Y133.924 E11.6324
G1 X87.205 Y133.823 E11.64449
G1 X86.556 Y133.198 E11.71642
G1 X86.436 Y133.073 E11.73025
G1 X85.833 Y132.402 E11.80226
G1 X85.736 Y132.284 E11.81446
G1 X85.178 Y131.562 E11.88729
G1 X85.074 Y131.415 E11.90167
G1 X84.581 Y130.672 E11.97285
G1 X84.508 Y130.551 E11.98413
G1 X84.056 Y129.746 E12.05782
G1 X83.984 Y129.607 E12.07032
G1 X83.587 Y128.761 E12.14491
G1 X83.541 Y128.649 E12.15458
G1 X83.212 Y127.79 E12.22801
G1 X83.155 Y127.625 E12.24194
G1 X82.905 Y126.79 E12.31152
G1 X82.858 Y126.617 E12.32583
G1 X82.657 Y125.716 E12.39952
G1 X82.635 Y125.592 E12.40957
G1 X82.5 Y124.678 E12.48332
G1 X82.483 Y124.518 E12.49617
G1 X82.417 Y123.626 E12.56756
G1 X82.408 Y123.445 E12.58203
G1 X82.4 Y122.944 E12.62203
G1 X82.4 Y97.014 E14.69187
G1 X82.436 Y96.008 E14.77223
G1 X82.446 Y95.873 E14.78303
G1 X82.548 Y94.956 E14.85668
G1 X82.573 Y94.781 E14.87079
G1 X82.735 Y93.903 E14.94206
G1 X82.765 Y93.769 E14.95302
G1 X82.996 Y92.884 E15.02603
G1 X83.048 Y92.712 E15.04038
G1 X83.334 Y91.87 E15.11136
G1 X83.398 Y91.704 E15.12556
G1 X83.739 Y90.901 E15.1952
G1 X83.82 Y90.726 E15.21059
G1 X84.235 Y89.918 E15.2831
G1 X84.302 Y89.801 E15.29387
G1 X84.776 Y89.022 E15.36666
G1 X84.876 Y88.871 E15.38111
G1 X85.387 Y88.157 E15.4512
G1 X85.5 Y88.009 E15.46606
G1 X86.076 Y87.318 E15.53787
G1 X86.177 Y87.205 E15.54997
G1 X86.802 Y86.556 E15.62189
G0 F9000 X86.4 Y86.973
G1 F1350 X86.4 Y133.032 E19.29852
G0 F9000 X88 Y134.492
G1 F1350 X88 Y85.516 E23.208
G0 F9000 X89.6 Y84.423
G1 F1350 X89.6 Y135.575 E27.29117
G0 F9000 X91.2 Y136.387
G1 F1350 X91.2 Y83.604 E31.50454
G0 F9000 X92.8 Y83.028
G1 F1350 X92.8 Y136.978 E35.81106
G0 F9000 X94.4 Y137.356
G1 F1350 X94.4 Y82.636 E40.17905
G0 F9000 X96 Y82.444
G1 F1350 X96 Y137.563 E44.57889
G0 F9000 X97.6 Y137.599
G1 F1350 X97.6 Y82.401 E48.98503
G0 F9000 X99.2 Y82.401
G1 F1350 X99.2 Y137.599 E53.39117
G0 F9000 X100.8 Y137.599
G1 F1350 X100.8 Y82.401 E57.79731
G0 F9000 X102.4 Y82.401
G1 F1350 X102.4 Y137.599 E62.20346
G0 F9000 X104 Y137.599
G1 F1350 X104 Y82.401 E66.6096
G0 F9000 X105.6 Y82.401
G1 F1350 X105.6 Y137.599 E71.01574
G0 F9000 X107.2 Y137.599
G1 F1350 X107.2 Y82.401 E75.42189
G0 F9000 X108.8 Y82.401
G1 F1350 X108.8 Y137.599 E79.82803
G0 F9000 X110.4 Y137.599
G1 F1350 X110.4 Y82.401 E84.23417
G0 F9000 X112 Y82.401
G1 F1350 X112 Y137.599 E88.64032
G0 F9000 X113.6 Y137.599
G1 F1350 X113.6 Y82.401 E93.04646
G0 F9000 X115.2 Y82.401
G1 F1350 X115.2 Y137.599 E97.4526
G0 F9000 X116.8 Y137.599
G1 F1350 X116.8 Y82.401 E101.85874
G0 F9000 X118.4 Y82.401
G1 F1350 X118.4 Y137.599 E106.26489
G0 F9000 X120 Y137.599
G1 F1350 X120 Y82.401 E110.67103
G0 F9000 X121.6 Y82.401
G1 F1350 X121.6 Y137.599 E115.07717
G0 F9000 X123.2 Y137.596
G1 F1350 X123.2 Y82.409 E119.48244
G0 F9000 X124.8 Y82.521
G1 F1350 X124.8 Y137.483 E123.86974
G0 F9000 X126.4 Y137.191
G1 F1350 X126.4 Y82.81 E128.21067
G0 F9000 X128 Y83.29
G1 F1350 X128 Y136.708 E132.47473
G0 F9000 X129.6 Y136.019
G1 F1350 X129.6 Y83.988 E136.62806
G0 F9000 X131.2 Y84.927
G1 F1350 X131.2 Y135.069 E140.63062
G0 F9000 X132.8 Y133.81
G1 F1350 X132.8 Y86.182 E144.43249
G0 F9000 X134.4 Y87.892
G1 F1350 X134.4 Y132.111 E147.96224
G0 F9000 X136 Y129.625
G1 F1350 X136 Y90.363 E151.0963
G1 F1500 E144.5963
G0 F9000 X136.878 Y89.743
G0 X135.796 Y87.972
G0 X134.968 Y86.897
G0 X133.514 Y85.392
G0 X132.481 Y84.534
G0 X130.743 Y83.387
G0 X129.538 Y82.769
G0 X127.62 Y82.036
G0 X126.316 Y81.694
G0 X124.231 Y81.387
G0 X122.987 Y81.336
G0 X96.31 Y81.354
G0 X94.242 Y81.583
G0 X92.927 Y81.879
G0 X90.961 Y82.55
G0 X89.743 Y83.122
G0 X87.977 Y84.201
G0 X86.897 Y85.032
G0 X85.392 Y86.486
G0 X85.15 Y86.778
G0 X84.004 Y88.261
G0 X84.8 Y88.985
G1 F1500 E151.0963
G1 F1350 X84.8 Y131.002 E154.45028
G0 F9000 X83.2 Y127.755
G1 F1350 X83.2 Y92.264 E157.28333
G0 F300 X83.2 Y92.264 Z0.54
G0 F9000 X84.775 Y89.021
;TIME_ELAPSED:97.929195
;LAYER:-5
;TYPE:SUPPORT
G1 F1350 X84.301 Y89.8 E157.37431
G1 X84.243 Y89.9 E157.38585
G1 X130.091 Y135.748 E163.8555
G1 X129.756 Y135.937 E163.89388
G1 X129.606 Y136.015 E163.91075
G1 X129.155 Y136.226 E163.96043
G1 X83.767 Y90.838 E170.36517
G1 X83.739 Y90.9 E170.37195
G1 X83.397 Y91.703 E170.45904
G1 X83.347 Y91.832 E170.47285
G1 X128.159 Y136.644 E176.7963
G1 X127.789 Y136.786 E176.83585
G1 X127.639 Y136.839 E176.85172
G1 X127.101 Y137 E176.90776
G1 X82.993 Y92.892 E183.13187
G1 X82.764 Y93.768 E183.22222
G1 X82.735 Y93.901 E183.2358
G1 X82.711 Y94.025 E183.2484
G1 X125.971 Y137.285 E189.35285
G1 X125.722 Y137.341 E189.37832
G1 X125.592 Y137.363 E189.39148
G1 X124.759 Y137.487 E189.47551
G1 X82.515 Y95.243 E195.43659
G1 X82.445 Y95.872 E195.49974
G1 X82.435 Y96.006 E195.51315
G1 X82.416 Y96.558 E195.56826
G1 X123.448 Y137.59 E201.35832
G0 F9000 X123.445 Y137.591
G1 F1350 X122.939 Y137.599 E201.40882
G1 X122.042 Y137.598 E201.49832
G1 X82.399 Y97.956 E207.0923
G1 X82.399 Y99.37 E207.23339
G1 X120.628 Y137.598 E212.62785
G1 X119.213 Y137.598 E212.76904
G1 X82.399 Y100.784 E217.96389
G1 X82.399 Y102.198 E218.10498
G1 X117.799 Y137.598 E223.1003
G1 X116.385 Y137.598 E223.24139
G1 X82.399 Y103.613 E228.03711
G1 X82.399 Y105.027 E228.1782
G1 X114.971 Y137.598 E232.77439
G1 X113.557 Y137.598 E232.91548
G1 X82.399 Y106.441 E237.31214
G1 X82.399 Y107.855 E237.45323
G1 X112.142 Y137.598 E241.65029
G1 X110.728 Y137.598 E241.79138
G1 X82.399 Y109.269 E245.78891
G1 X82.399 Y110.684 E245.9301
G1 X109.313 Y137.598 E249.72795
G1 X107.899 Y137.598 E249.86904
G1 X82.399 Y112.098 E253.46737
G1 X82.399 Y113.512 E253.60846
G1 X106.485 Y137.598 E257.00725
G1 X105.071 Y137.598 E257.14834
G1 X82.399 Y114.926 E260.34761
G1 X82.399 Y116.34 E260.4887
G1 X103.656 Y137.598 E263.48836
G1 X102.242 Y137.598 E263.62945
G1 X82.399 Y117.755 E266.42951
G1 X82.399 Y119.169 E266.5706
G1 X100.828 Y137.598 E269.17113
G1 X99.414 Y137.598 E269.31222
G1 X82.399 Y120.583 E271.71322
G1 X82.399 Y121.997 E271.85431
G1 X98 Y137.598 E274.05578
G1 X96.997 Y137.598 E274.15586
G1 X96.57 Y137.582 E274.19849
G1 X82.407 Y123.419 E276.19705
G1 X82.408 Y123.444 E276.19954
G1 X82.416 Y123.625 E276.21762
G1 X82.482 Y124.517 E276.30687
G1 X82.499 Y124.677 E276.32292
G1 X82.542 Y124.969 E276.35237
G1 X95.033 Y137.46 E278.11499
G1 X94.955 Y137.451 E278.12282
G1 X94.78 Y137.426 E278.14046
G1 X93.892 Y137.262 E278.23057
G1 X93.768 Y137.234 E278.24325
G1 X93.26 Y137.1 E278.29567
G1 X82.888 Y126.729 E279.7592
G1 X82.904 Y126.789 E279.7654
G1 X83.154 Y127.624 E279.85237
G1 X83.211 Y127.789 E279.86979
G1 X83.54 Y128.648 E279.96157
G1 X83.587 Y128.759 E279.9736
G1 X83.659 Y128.914 E279.99065
G1 X91.082 Y136.337 E281.03812
G1 X90.9 Y136.26 E281.05784
G1 X90.711 Y136.171 E281.07868
G1 X89.917 Y135.763 E281.16775
G1 X89.8 Y135.697 E281.18116
G1 X89.021 Y135.222 E281.2722
G1 X88.871 Y135.123 E281.29013
G1 X88.157 Y134.612 E281.37774
G1 X88.008 Y134.499 E281.3964
G1 X87.317 Y133.923 E281.48616
G1 X87.205 Y133.822 E281.50121
G1 X86.556 Y133.196 E281.59118
G1 X86.436 Y133.072 E281.6084
G1 X85.832 Y132.401 E281.69848
G1 X85.735 Y132.283 E281.71372
G1 X85.178 Y131.561 E281.80471
G1 X85.073 Y131.414 E281.82274
G1 X84.58 Y130.671 E281.91171
G1 X84.507 Y130.55 E281.92581
G1 X84.055 Y129.744 E282.01801
G1 X83.983 Y129.606 E282.03355
G1 F1500 E275.53355
G0 F9000 X83.021 Y130.059
G0 X82.213 Y128.159
G0 X81.827 Y126.878
G0 X81.445 Y124.82
G0 X81.335 Y122.947
G0 X81.374 Y95.943
G0 X81.521 Y94.617
G0 X81.973 Y92.59
G0 X82.413 Y91.3
G0 X83.126 Y89.778
G0 X83.867 Y88.468
G0 X84.776 Y89.019
G1 F1500 E282.03355
G1 F1350 X130.974 Y135.217 E288.55258
G1 X131.415 Y134.925 E288.60536
G1 X131.574 Y134.812 E288.62482
G1 X131.805 Y134.633 E288.65398
G1 X85.361 Y88.19 E295.20766
G1 X85.387 Y88.156 E295.21193
G1 X85.499 Y88.008 E295.23045
G1 X85.997 Y87.411 E295.30802
G1 X132.586 Y134 E301.88223
G1 X133.072 Y133.563 E301.94745
G1 X133.198 Y133.443 E301.96481
G1 X133.318 Y133.318 E301.9821
G1 X86.68 Y86.68 E308.56323
G1 X86.8 Y86.556 E308.58044
G1 X86.926 Y86.436 E308.5978
G1 X87.413 Y85.999 E308.66309
G1 X134.001 Y132.587 E315.23716
G1 X134.499 Y131.99 E315.31474
G1 X134.611 Y131.842 E315.33326
G1 X134.637 Y131.808 E315.33753
G1 X88.193 Y85.365 E321.89121
G1 X88.425 Y85.186 E321.92044
G1 X88.584 Y85.074 E321.93985
G1 X89.024 Y84.782 E321.99254
G1 X135.222 Y130.98 E328.51158
G0 F9000 X135.223 Y130.978
G1 F1350 X135.697 Y130.198 E328.60265
G1 X135.755 Y130.098 E328.61419
G1 X89.907 Y84.251 E335.08376
G1 X90.242 Y84.062 E335.12214
G1 X90.392 Y83.984 E335.13901
G1 X90.843 Y83.772 E335.18874
G1 X136.231 Y129.16 E341.59348
G1 X136.26 Y129.098 E341.6003
G1 X136.595 Y128.309 E341.68583
G1 X136.65 Y128.165 E341.70121
G1 X91.839 Y83.354 E348.02453
G1 X92.209 Y83.212 E348.06408
G1 X92.359 Y83.16 E348.07992
G1 X92.898 Y82.998 E348.13607
G1 X137.006 Y127.106 E354.36019
G1 X137.234 Y126.23 E354.45051
G1 X137.264 Y126.097 E354.46411
G1 X137.287 Y125.973 E354.4767
G1 X94.027 Y82.713 E360.58115
G1 X94.277 Y82.657 E360.60671
G1 X94.407 Y82.635 E360.61987
G1 X95.24 Y82.512 E360.70389
G1 X137.483 Y124.755 E366.66483
G1 X137.553 Y124.126 E366.72798
G1 X137.563 Y123.992 E366.74139
G1 X137.583 Y123.441 E366.7964
G1 X96.55 Y82.408 E372.5866
G0 F9000 X96.554 Y82.407
G1 F1350 X97.059 Y82.399 E372.637
G1 X97.956 Y82.4 E372.7265
G1 X137.599 Y122.043 E378.32056
G1 X137.599 Y120.628 E378.46175
G1 X99.371 Y82.4 E383.85613
G1 X100.785 Y82.4 E383.99722
G1 X137.599 Y119.214 E389.19207
G1 X137.599 Y117.8 E389.33316
G1 X102.199 Y82.4 E394.32849
G1 X103.613 Y82.4 E394.46957
G1 X137.599 Y116.386 E399.26537
G1 X137.599 Y114.972 E399.40646
G1 X105.027 Y82.4 E404.00272
G1 X106.442 Y82.4 E404.14391
G1 X137.599 Y113.557 E408.5405
G1 X137.599 Y112.143 E408.68158
G1 X107.856 Y82.4 E412.87864
G1 X109.27 Y82.4 E413.01973
G1 X137.599 Y110.729 E417.01726
G1 X137.599 Y109.315 E417.15835
G1 X110.685 Y82.401 E420.95621
G1 X112.099 Y82.401 E421.0973
G1 X137.599 Y107.9 E424.69555
G1 X137.599 Y106.486 E424.83664
G1 X113.513 Y82.401 E428.23536
G1 X114.928 Y82.401 E428.37655
G1 X137.599 Y105.072 E431.57568
G1 X137.599 Y103.658 E431.71677
G1 X116.342 Y82.401 E434.71636
G1 X117.756 Y82.401 E434.85745
G1 X137.599 Y102.244 E437.65751
G1 X137.599 Y100.829 E437.7987
G1 X119.17 Y82.401 E440.39916
G1 X120.585 Y82.401 E440.54035
G1 X137.599 Y99.415 E442.94121
G1 X137.599 Y98.001 E443.0823
G1 X121.999 Y82.401 E445.28363
G1 X123.001 Y82.401 E445.38361
G1 X123.429 Y82.416 E445.42634
G1 X137.591 Y96.579 E447.42482
G1 X137.59 Y96.554 E447.42732
G1 X137.582 Y96.37 E447.44569
G1 X137.515 Y95.469 E447.53584
G1 X137.496 Y95.306 E447.55222
G1 X137.456 Y95.03 E447.58005
G1 X124.965 Y82.539 E449.34266
G1 X125.043 Y82.547 E449.35048
G1 X125.218 Y82.573 E449.36814
G1 X126.106 Y82.737 E449.45824
G1 X126.23 Y82.764 E449.4709
G1 X126.738 Y82.898 E449.52333
G1 X137.11 Y93.27 E450.98693
G1 X137.094 Y93.21 E450.99312
G1 X136.839 Y92.359 E451.08177
G1 X136.787 Y92.21 E451.09751
G1 X136.458 Y91.35 E451.18939
G1 X136.398 Y91.208 E451.20477
G1 X136.34 Y91.085 E451.21834
G1 X128.916 Y83.662 E452.26588
G1 X129.098 Y83.739 E452.28559
G1 X129.287 Y83.827 E452.3064
G1 X130.081 Y84.235 E452.39547
G1 X130.198 Y84.301 E452.40887
G1 X130.977 Y84.776 E452.49991
G1 X131.128 Y84.876 E452.51798
G1 X131.842 Y85.386 E452.60553
G1 X131.99 Y85.499 E452.62411
G1 X132.681 Y86.076 E452.71394
G1 X132.793 Y86.177 E452.72899
G1 X133.443 Y86.802 E452.81896
G1 X133.563 Y86.926 E452.83618
G1 X134.166 Y87.597 E452.9262
G1 X134.262 Y87.713 E452.94122
