;FLAVOR:Marlin
;TIME:7010
;Filament used: 3.77867m
;Layer height: 0.2
;MINX:73.127
;MINY:90.906
;MINZ:0.2
;MAXX:139.799
;MAXY:129.094
;MAXZ:48
;Generated with Cura_SteamEngine 4.12.1
M140 S60
M105
M190 S60
M104 S200
M105
M109 S200
M82 ;absolute extrusion mode
; Ender 3 Custom Start G-code
G92 E0 ; Reset Extruder
G28 ; Home all axes
G29 ; ABL
G1 Z2.0 F3000 ; Move Z Axis up little to prevent scratching of Heat Bed
G1 X0.1 Y20 Z0.3 F5000.0 ; Move to start position
G1 X0.1 Y200.0 Z0.3 F1500.0 E15 ; Draw the first line
G1 X0.4 Y200.0 Z0.3 F5000.0 ; Move to side a little
G1 X0.4 Y20 Z0.3 F1500.0 E30 ; Draw the second line
G92 E0 ; Reset Extruder
G1 Z2.0 F3000 ; Move Z Axis up little to prevent scratching of Heat Bed
G1 X5 Y20 Z0.3 F5000.0 ; Move over to prevent blob squish
G92 E0
G92 E0
G1 F1500 E-6.5
;LAYER_COUNT:240
;LAYER:0
M107
G0 F6000 X78.143 Y94.957 Z0.2
;TYPE:SKIRT
G1 F1500 E0
G1 F1200 X78.909 Y94.417 E0.03117
G1 X79.341 Y94.154 E0.04799
G1 X79.593 Y94.008 E0.05768
G1 X80.423 Y93.573 E0.08885
G1 X81.046 Y93.303 E0.11143
G1 X81.265 Y93.216 E0.11927
G1 X82.15 Y92.907 E0.15045
G1 X82.607 Y92.78 E0.16622
G1 X82.803 Y92.73 E0.17295
G1 X83.939 Y92.504 E0.21147
G1 X84.104 Y92.48 E0.21702
G1 X84.868 Y92.396 E0.24258
G1 X85.77 Y92.329 E0.27267
G1 X107.986 Y90.979 E1.01294
G1 X108.879 Y90.936 E1.04267
G1 X109.154 Y90.926 E1.05183
G1 X109.942 Y90.908 E1.07804
G1 X110.365 Y90.906 E1.09211
G1 X110.786 Y90.917 E1.10612
G1 X111.282 Y90.938 E1.12263
G1 X111.605 Y90.956 E1.13339
G1 X112.218 Y91 E1.15383
G1 X112.621 Y91.037 E1.16729
G1 X113.08 Y91.087 E1.18265
G1 X113.4 Y91.126 E1.19337
G1 X113.811 Y91.183 E1.20717
G1 X114.145 Y91.235 E1.21841
G1 X114.762 Y91.34 E1.23923
G1 X115.176 Y91.418 E1.25324
G1 X115.481 Y91.482 E1.26361
G1 X115.803 Y91.555 E1.27459
G1 X116.035 Y91.611 E1.28253
G1 X116.327 Y91.686 E1.29255
G1 X117.321 Y91.955 E1.3268
G1 X117.78 Y92.09 E1.34272
G1 X118.167 Y92.213 E1.35622
G1 X118.434 Y92.302 E1.36558
G1 X118.953 Y92.484 E1.38388
G1 X119.33 Y92.626 E1.39727
G1 X119.729 Y92.782 E1.41152
G1 X120.225 Y92.99 E1.42941
G1 X120.874 Y93.281 E1.45307
G1 X121.145 Y93.407 E1.46301
G1 X121.745 Y93.698 E1.48519
G1 X121.909 Y93.781 E1.4913
G1 X122.193 Y93.93 E1.50197
G1 X122.517 Y94.106 E1.51423
G1 X122.825 Y94.28 E1.526
G1 X123.45 Y94.646 E1.55009
G1 X123.797 Y94.858 E1.56361
G1 X124.006 Y94.991 E1.57185
G1 X124.39 Y95.243 E1.58713
G1 X124.861 Y95.565 E1.6061
G1 X125.631 Y96.122 E1.63771
G1 X125.982 Y96.387 E1.65234
G1 X126.141 Y96.512 E1.65907
G1 X126.453 Y96.766 E1.67245
G1 X126.793 Y97.054 E1.68727
G1 X126.976 Y97.213 E1.69533
G1 X127.457 Y97.639 E1.7167
G1 X127.718 Y97.878 E1.72847
G1 X128.116 Y98.254 E1.74668
G1 X128.579 Y98.718 E1.76849
G1 X129.061 Y99.231 E1.7919
G1 X129.317 Y99.513 E1.80457
G1 X129.742 Y99.998 E1.82601
G1 X129.931 Y100.219 E1.83569
G1 X130.191 Y100.532 E1.84922
G1 X130.513 Y100.94 E1.86651
G1 X130.871 Y101.415 E1.88629
G1 X131.058 Y101.671 E1.89683
G1 X131.229 Y101.912 E1.90666
G1 X131.415 Y102.182 E1.91757
G1 X131.632 Y102.508 E1.93059
G1 X131.824 Y102.806 E1.94238
G1 X132.245 Y103.485 E1.96896
G1 X132.555 Y104.019 E1.98949
G1 X132.634 Y104.164 E1.99498
G1 X133.048 Y105.006 E2.02619
G1 X133.451 Y106.073 E2.06413
G1 X133.516 Y106.276 E2.07122
G1 X133.782 Y107.264 E2.10525
G1 X133.845 Y107.55 E2.11499
G1 X134.008 Y108.473 E2.14616
G1 X134.091 Y109.408 E2.17738
G1 X134.095 Y110.348 E2.20865
G1 X134.084 Y110.628 E2.21797
G1 X133.953 Y111.941 E2.26186
G1 X133.944 Y111.997 E2.26374
G1 X133.755 Y112.916 E2.29495
G1 X133.626 Y113.389 E2.31125
G1 X133.554 Y113.631 E2.31965
G1 X133.249 Y114.518 E2.35085
G1 X132.967 Y115.171 E2.37451
G1 X132.874 Y115.369 E2.38178
G1 X132.31 Y116.418 E2.4214
G1 X131.971 Y116.974 E2.44305
G1 X131.716 Y117.372 E2.45878
G1 X131.521 Y117.662 E2.4704
G1 X131.185 Y118.151 E2.49013
G1 X130.986 Y118.431 E2.50156
G1 X130.673 Y118.855 E2.51909
G1 X130.569 Y118.992 E2.52481
G1 X130.353 Y119.267 E2.53644
G1 X129.858 Y119.875 E2.56251
G1 X129.634 Y120.139 E2.57403
G1 X129.403 Y120.403 E2.5857
G1 X129.218 Y120.607 E2.59486
G1 X128.98 Y120.863 E2.60648
G1 X128.58 Y121.28 E2.6257
G1 X128.171 Y121.694 E2.64506
G1 X127.745 Y122.102 E2.66468
G1 X127.195 Y122.602 E2.6894
G1 X126.908 Y122.854 E2.7021
G1 X126.58 Y123.132 E2.7164
G1 X126.183 Y123.453 E2.73338
G1 X125.677 Y123.843 E2.75463
G1 X125.43 Y124.028 E2.7649
G1 X125.06 Y124.297 E2.78011
G1 X124.766 Y124.504 E2.79207
G1 X124.216 Y124.877 E2.81417
G1 X123.733 Y125.186 E2.83324
G1 X123.255 Y125.475 E2.85182
G1 X123.022 Y125.613 E2.86083
G1 X122.698 Y125.796 E2.87321
G1 X122.19 Y126.074 E2.89247
G1 X121.892 Y126.232 E2.90368
G1 X121.563 Y126.397 E2.91593
G1 X121.113 Y126.614 E2.93254
G1 X120.759 Y126.777 E2.9455
G1 X120.29 Y126.983 E2.96254
G1 X119.962 Y127.121 E2.97438
G1 X119.481 Y127.314 E2.99162
G1 X119.193 Y127.425 E3.00188
G1 X118.651 Y127.625 E3.0211
G1 X118.206 Y127.778 E3.03675
G1 X117.686 Y127.945 E3.05491
G1 X117.248 Y128.076 E3.07012
G1 X116.813 Y128.196 E3.08513
G1 X116.428 Y128.295 E3.09835
G1 X115.796 Y128.445 E3.11995
G1 X115.499 Y128.511 E3.13007
G1 X115.062 Y128.602 E3.14492
G1 X114.673 Y128.676 E3.15809
G1 X114.17 Y128.762 E3.17506
G1 X113.726 Y128.831 E3.19001
G1 X113.488 Y128.864 E3.198
G1 X113.129 Y128.91 E3.21004
G1 X112.854 Y128.941 E3.21924
G1 X112.367 Y128.991 E3.23552
G1 X111.871 Y129.031 E3.25207
G1 X111.203 Y129.068 E3.27433
G1 X110.721 Y129.084 E3.29037
G1 X110.107 Y129.094 E3.31079
G1 X109.585 Y129.09 E3.32815
G1 X108.784 Y129.065 E3.35481
G1 X108.473 Y129.051 E3.36516
G1 X85.736 Y127.669 E4.12279
G1 X85.137 Y127.624 E4.14277
G1 X84.77 Y127.59 E4.15503
G1 X84.305 Y127.539 E4.17059
G1 X83.378 Y127.398 E4.20178
G1 X82.487 Y127.183 E4.23226
G1 X82.217 Y127.106 E4.2416
G1 X81.327 Y126.811 E4.27278
G1 X80.724 Y126.561 E4.2945
G1 X80.526 Y126.472 E4.30172
G1 X79.688 Y126.051 E4.33291
G1 X79.26 Y125.8 E4.34941
G1 X79.072 Y125.684 E4.35676
G1 X78.295 Y125.158 E4.38797
G1 X77.836 Y124.798 E4.40737
G1 X77.668 Y124.659 E4.41462
G1 X76.971 Y124.031 E4.44582
G1 X76.383 Y123.406 E4.47437
G1 X76.168 Y123.159 E4.48526
G1 X75.583 Y122.426 E4.51645
G1 X75.016 Y121.568 E4.55065
G1 X74.898 Y121.37 E4.55832
G1 X74.452 Y120.545 E4.58951
G1 X74.134 Y119.824 E4.61572
G1 X74.002 Y119.494 E4.62754
G1 X73.691 Y118.609 E4.65874
G1 X73.399 Y117.415 E4.69963
G1 X73.343 Y117.113 E4.70984
G1 X73.212 Y116.184 E4.74105
G1 X73.171 Y115.612 E4.76012
G1 X73.152 Y115.136 E4.77597
G1 X73.129 Y114.014 E4.81329
G1 X73.127 Y113.788 E4.82081
G1 X73.129 Y105.619 E5.09251
G1 X73.137 Y105.054 E5.1113
G1 X73.147 Y104.712 E5.12268
G1 X73.159 Y104.447 E5.13151
G1 X73.273 Y103.291 E5.17014
G1 X73.306 Y103.074 E5.17744
G1 X73.543 Y101.929 E5.21633
G1 X73.598 Y101.72 E5.22352
G1 X73.963 Y100.587 E5.26311
G1 X74.025 Y100.425 E5.26888
G1 X74.599 Y99.168 E5.31484
G1 X74.706 Y98.968 E5.32239
G1 X75.183 Y98.161 E5.35356
G1 X75.543 Y97.64 E5.37463
G1 X75.707 Y97.417 E5.38383
G1 X76.295 Y96.686 E5.41504
G1 X77.139 Y95.823 E5.45519
G1 X77.425 Y95.561 E5.46809
G1 X78.143 Y94.957 E5.49929
G0 F6000 X78.4 Y95.264
G1 F1200 X79.541 Y94.5 E5.54496
G1 X79.793 Y94.354 E5.55465
G1 X80.609 Y93.928 E5.58527
G1 X81.194 Y93.675 E5.60647
G1 X81.413 Y93.588 E5.6143
G1 X82.706 Y93.168 E5.65952
G1 X82.902 Y93.118 E5.66625
G1 X83.996 Y92.899 E5.70336
G1 X84.161 Y92.875 E5.7089
G1 X84.898 Y92.794 E5.73356
G1 X85.648 Y92.738 E5.75858
G1 X108.146 Y91.371 E6.50824
G1 X108.898 Y91.335 E6.53328
G1 X109.163 Y91.326 E6.5421
G1 X109.951 Y91.308 E6.56832
G1 X110.359 Y91.306 E6.58189
G1 X110.769 Y91.316 E6.59553
G1 X111.265 Y91.337 E6.61204
G1 X111.576 Y91.355 E6.6224
G1 X112.189 Y91.399 E6.64284
G1 X112.578 Y91.434 E6.65583
G1 X113.037 Y91.484 E6.67119
G1 X113.345 Y91.522 E6.68151
G1 X113.756 Y91.579 E6.69531
G1 X114.078 Y91.629 E6.70615
G1 X114.695 Y91.734 E6.72697
G1 X115.094 Y91.81 E6.74048
G1 X115.399 Y91.874 E6.75084
G1 X115.709 Y91.944 E6.76141
G1 X115.941 Y92 E6.76935
G1 X116.223 Y92.072 E6.77903
G1 X117.217 Y92.341 E6.81328
G1 X117.659 Y92.471 E6.82861
G1 X118.046 Y92.594 E6.84211
G1 X118.304 Y92.68 E6.85116
G1 X118.814 Y92.859 E6.86913
G1 X119.185 Y92.999 E6.88232
G1 X119.584 Y93.155 E6.89657
G1 X120.061 Y93.355 E6.91378
G1 X120.71 Y93.646 E6.93743
G1 X120.971 Y93.767 E6.947
G1 X121.565 Y94.055 E6.96896
G1 X121.729 Y94.138 E6.97507
G1 X122.002 Y94.282 E6.98534
G1 X122.326 Y94.458 E6.9976
G1 X122.622 Y94.625 E7.0089
G1 X123.247 Y94.991 E7.03299
G1 X123.582 Y95.195 E7.04604
G1 X123.791 Y95.328 E7.05428
G1 X124.172 Y95.579 E7.06945
G1 X124.627 Y95.89 E7.08778
G1 X125.397 Y96.447 E7.11939
G1 X125.735 Y96.702 E7.13347
G1 X125.894 Y96.827 E7.1402
G1 X126.194 Y97.072 E7.15308
G1 X126.534 Y97.36 E7.1679
G1 X126.711 Y97.513 E7.17569
G1 X127.192 Y97.939 E7.19706
G1 X127.443 Y98.169 E7.20838
G1 X127.841 Y98.545 E7.22659
G1 X128.287 Y98.992 E7.24759
G1 X128.769 Y99.505 E7.271
G1 X129.016 Y99.777 E7.28322
G1 X129.441 Y100.262 E7.30467
G1 X129.623 Y100.475 E7.31399
G1 X129.883 Y100.788 E7.32752
G1 X130.194 Y101.181 E7.34419
G1 X130.552 Y101.656 E7.36398
G1 X130.732 Y101.902 E7.37411
G1 X130.903 Y102.143 E7.38394
G1 X131.082 Y102.403 E7.39444
G1 X131.299 Y102.729 E7.40747
G1 X131.484 Y103.017 E7.41885
G1 X131.905 Y103.696 E7.44542
G1 X132.204 Y104.211 E7.46523
G1 X132.283 Y104.356 E7.47072
G1 X132.688 Y105.182 E7.50132
G1 X133.07 Y106.195 E7.53733
G1 X133.135 Y106.398 E7.54442
G1 X133.392 Y107.35 E7.57722
G1 X133.455 Y107.636 E7.58696
G1 X133.614 Y108.543 E7.61758
G1 X133.693 Y109.46 E7.6482
G1 X133.695 Y110.332 E7.6772
G1 X133.684 Y110.612 E7.68652
G1 X133.558 Y111.878 E7.72883
G1 X133.549 Y111.934 E7.73072
G1 X133.243 Y113.275 E7.77647
G1 X133.171 Y113.517 E7.78487
G1 X132.87 Y114.387 E7.81549
G1 X132.605 Y115 E7.8377
G1 X132.512 Y115.198 E7.84497
G1 X131.968 Y116.21 E7.88319
G1 X131.629 Y116.766 E7.90485
G1 X131.384 Y117.15 E7.92
G1 X131.191 Y117.436 E7.93147
G1 X130.855 Y117.925 E7.95121
G1 X130.664 Y118.194 E7.96218
G1 X130.355 Y118.613 E7.97949
G1 X130.251 Y118.75 E7.98522
G1 X130.043 Y119.016 E7.99645
G1 X129.705 Y119.433 E8.0143
G1 X129.553 Y119.616 E8.02221
G1 X129.329 Y119.88 E8.03373
G1 X129.103 Y120.138 E8.04514
G1 X128.925 Y120.334 E8.05394
G1 X128.687 Y120.59 E8.06557
G1 X128.296 Y120.999 E8.08439
G1 X127.887 Y121.413 E8.10374
G1 X127.476 Y121.806 E8.12266
G1 X126.926 Y122.306 E8.14738
G1 X126.65 Y122.549 E8.15961
G1 X126.322 Y122.827 E8.17391
G1 X125.939 Y123.137 E8.1903
G1 X125.433 Y123.527 E8.21155
G1 X125.195 Y123.705 E8.22143
G1 X124.825 Y123.974 E8.23665
G1 X124.542 Y124.173 E8.24815
G1 X123.992 Y124.546 E8.27026
G1 X123.526 Y124.844 E8.28865
G1 X123.048 Y125.133 E8.30723
G1 X122.676 Y125.349 E8.32154
G1 X122.506 Y125.445 E8.32803
G1 X121.998 Y125.723 E8.34729
G1 X121.706 Y125.877 E8.35827
G1 X121.389 Y126.037 E8.37008
G1 X120.939 Y126.254 E8.3867
G1 X120.598 Y126.411 E8.39919
G1 X120.129 Y126.617 E8.41622
G1 X119.813 Y126.75 E8.42763
G1 X119.332 Y126.943 E8.44486
G1 X119.055 Y127.05 E8.45474
G1 X118.513 Y127.25 E8.47396
G1 X118.084 Y127.397 E8.48904
G1 X117.564 Y127.564 E8.5072
G1 X117.142 Y127.69 E8.52185
G1 X116.707 Y127.81 E8.53686
G1 X116.336 Y127.905 E8.5496
G1 X115.704 Y128.055 E8.5712
G1 X115.417 Y128.119 E8.58098
G1 X114.98 Y128.21 E8.59583
G1 X114.605 Y128.281 E8.60852
G1 X113.893 Y128.401 E8.63254
G1 X113.437 Y128.467 E8.64786
G1 X113.078 Y128.513 E8.6599
G1 X112.814 Y128.544 E8.66874
G1 X112.327 Y128.594 E8.68503
G1 X111.848 Y128.632 E8.70101
G1 X111.187 Y128.668 E8.72303
G1 X110.715 Y128.684 E8.73873
G1 X110.101 Y128.694 E8.75916
G1 X109.597 Y128.69 E8.77592
G1 X108.796 Y128.665 E8.80258
G1 X108.497 Y128.651 E8.81253
G1 X85.602 Y127.259 E9.57543
G1 X85.167 Y127.226 E9.58994
G1 X84.813 Y127.193 E9.60176
G1 X84.348 Y127.142 E9.61732
G1 X83.438 Y127.002 E9.64794
G1 X82.597 Y126.799 E9.67672
G1 X82.327 Y126.722 E9.68606
G1 X81.453 Y126.431 E9.7167
G1 X80.888 Y126.196 E9.73705
G1 X80.69 Y126.107 E9.74427
G1 X79.868 Y125.694 E9.77487
G1 X79.47 Y125.46 E9.79022
G1 X79.282 Y125.344 E9.79757
G1 X78.52 Y124.827 E9.8282
G1 X78.091 Y124.49 E9.84634
G1 X77.923 Y124.351 E9.85359
G1 X77.24 Y123.734 E9.88421
G1 X76.685 Y123.144 E9.91115
G1 X76.47 Y122.897 E9.92204
G1 X75.896 Y122.176 E9.95269
G1 X75.359 Y121.364 E9.98507
G1 X75.241 Y121.166 E9.99274
G1 X74.805 Y120.355 E10.02336
G1 X74.505 Y119.676 E10.04805
G1 X74.373 Y119.346 E10.05987
G1 X74.069 Y118.477 E10.09049
G1 X73.793 Y117.342 E10.12934
G1 X73.737 Y117.04 E10.13956
G1 X73.608 Y116.128 E10.17019
G1 X73.57 Y115.593 E10.18803
G1 X73.552 Y115.128 E10.20351
G1 X73.529 Y114.006 E10.24084
G1 X73.527 Y113.788 E10.24809
G1 X73.529 Y105.625 E10.51959
G1 X73.537 Y105.06 E10.53838
G1 X73.547 Y104.73 E10.54936
G1 X73.559 Y104.465 E10.55819
G1 X73.668 Y103.351 E10.59542
G1 X73.701 Y103.134 E10.60272
G1 X73.93 Y102.03 E10.64022
G1 X73.985 Y101.821 E10.64741
G1 X74.336 Y100.73 E10.68552
G1 X74.398 Y100.568 E10.69129
G1 X74.952 Y99.357 E10.73559
G1 X75.059 Y99.157 E10.74313
G1 X75.528 Y98.364 E10.77377
G1 X75.866 Y97.877 E10.79349
G1 X76.03 Y97.654 E10.8027
G1 X76.607 Y96.937 E10.83331
G1 X77.409 Y96.118 E10.87143
G1 X77.695 Y95.856 E10.88433
G1 X78.4 Y95.264 E10.91495
G0 F6000 X78.657 Y95.571
G1 F1200 X79.742 Y94.846 E10.95835
G1 X79.994 Y94.7 E10.96804
G1 X80.794 Y94.283 E10.99805
G1 X81.341 Y94.047 E11.01786
G1 X81.56 Y93.96 E11.0257
G1 X82.805 Y93.556 E11.06923
G1 X83.001 Y93.506 E11.07596
G1 X84.054 Y93.295 E11.11168
G1 X84.219 Y93.271 E11.11723
G1 X84.928 Y93.193 E11.14095
G1 X85.818 Y93.128 E11.17063
G1 X108.165 Y91.771 E11.91526
G1 X108.917 Y91.735 E11.9403
G1 X109.172 Y91.726 E11.94879
G1 X109.96 Y91.708 E11.97501
G1 X110.352 Y91.706 E11.98804
G1 X110.752 Y91.716 E12.00135
G1 X111.248 Y91.737 E12.01786
G1 X111.547 Y91.754 E12.02783
G1 X112.16 Y91.798 E12.04827
G1 X112.535 Y91.832 E12.06079
G1 X112.994 Y91.882 E12.07615
G1 X113.29 Y91.919 E12.08607
G1 X113.701 Y91.976 E12.09987
G1 X114.011 Y92.024 E12.1103
G1 X114.628 Y92.129 E12.13112
G1 X115.012 Y92.201 E12.14411
G1 X115.317 Y92.265 E12.15448
G1 X115.615 Y92.333 E12.16464
G1 X115.847 Y92.389 E12.17258
G1 X116.119 Y92.458 E12.18192
G1 X117.113 Y92.727 E12.21617
G1 X117.538 Y92.852 E12.2309
G1 X117.925 Y92.975 E12.24441
G1 X118.173 Y93.058 E12.2531
G1 X118.674 Y93.234 E12.27077
G1 X119.039 Y93.371 E12.28373
G1 X119.438 Y93.527 E12.29798
G1 X119.897 Y93.72 E12.31454
G1 X120.546 Y94.011 E12.3382
G1 X120.798 Y94.128 E12.34744
G1 X121.384 Y94.412 E12.3691
G1 X121.548 Y94.495 E12.37521
G1 X121.811 Y94.633 E12.38509
G1 X122.135 Y94.809 E12.39735
G1 X122.42 Y94.97 E12.40824
G1 X123.045 Y95.336 E12.43233
G1 X123.367 Y95.533 E12.44489
G1 X123.799 Y95.811 E12.46197
G1 X123.955 Y95.914 E12.46819
G1 X124.392 Y96.214 E12.48582
G1 X125.162 Y96.771 E12.51743
G1 X125.488 Y97.016 E12.53099
G1 X125.647 Y97.141 E12.53772
G1 X125.936 Y97.377 E12.55013
G1 X126.276 Y97.665 E12.56495
G1 X126.446 Y97.812 E12.57242
G1 X126.927 Y98.238 E12.59379
G1 X127.169 Y98.459 E12.6047
G1 X127.567 Y98.835 E12.62291
G1 X127.996 Y99.266 E12.64313
G1 X128.478 Y99.779 E12.66654
G1 X128.715 Y100.041 E12.67829
G1 X129.14 Y100.526 E12.69974
G1 X129.315 Y100.73 E12.70868
G1 X129.575 Y101.043 E12.72222
G1 X129.875 Y101.422 E12.73829
G1 X130.233 Y101.897 E12.75808
G1 X130.406 Y102.134 E12.76784
G1 X130.577 Y102.375 E12.77766
G1 X130.749 Y102.625 E12.78776
G1 X130.966 Y102.951 E12.80078
G1 X131.144 Y103.228 E12.81173
G1 X131.565 Y103.907 E12.83831
G1 X131.853 Y104.402 E12.85735
G1 X131.932 Y104.547 E12.86285
G1 X132.328 Y105.358 E12.89286
G1 X132.689 Y106.317 E12.92694
G1 X132.754 Y106.52 E12.93403
G1 X133.001 Y107.436 E12.96559
G1 X133.064 Y107.722 E12.97533
G1 X133.219 Y108.611 E13.00534
G1 X133.295 Y109.511 E13.03538
G1 X133.295 Y110.316 E13.06216
G1 X133.284 Y110.596 E13.07148
G1 X133.163 Y111.815 E13.11222
G1 X133.154 Y111.871 E13.11411
G1 X132.859 Y113.161 E13.15812
G1 X132.787 Y113.403 E13.16652
G1 X132.492 Y114.256 E13.19654
G1 X132.243 Y114.83 E13.21735
G1 X132.15 Y115.028 E13.22462
G1 X131.627 Y116.002 E13.26139
G1 X131.288 Y116.558 E13.28305
G1 X131.052 Y116.927 E13.29762
G1 X130.862 Y117.209 E13.30893
G1 X130.526 Y117.698 E13.32867
G1 X130.342 Y117.958 E13.33926
G1 X130.135 Y118.24 E13.35089
