;FLAVOR:Marlin
;TIME:18486
;Filament used: 9.96592m
;Layer height: 0.2
;MINX:65.845
;MINY:76.68
;MINZ:0.2
;MAXX:154.145
;MAXY:143.752
;MAXZ:68.2
;Generated with Cura_SteamEngine 4.12.1
M140 S45
M105
M190 S45
M104 S220
M105
M109 S220
M82 ;absolute extrusion mode
; Ender 3 Custom Start G-code
G92 E0 ; Reset Extruder
G28 ; Home all axes
G1 Z2.0 F3000 ; Move Z Axis up little to prevent scratching of Heat Bed
G1 X0.1 Y20 Z0.3 F5000.0 ; Move to start position
G1 X0.1 Y200.0 Z0.3 F1500.0 E15 ; Draw the first line
G1 X0.4 Y200.0 Z0.3 F5000.0 ; Move to side a little
G1 X0.4 Y20 Z0.3 F1500.0 E30 ; Draw the second line
G92 E0 ; Reset Extruder
G1 Z2.0 F3000 ; Move Z Axis up little to prevent scratching of Heat Bed
G1 X5 Y20 Z0.3 F5000.0 ; Move over to prevent blob squish
G92 E0
G92 E0
G1 F1500 E-2
;LAYER_COUNT:341
;LAYER:0
M107
G0 F6000 X91.686 Y80.884 Z0.2
;TYPE:SKIRT
G1 F1500 E0
G1 F1200 X92.171 Y80.411 E0.02253
G1 X92.87 Y79.785 E0.05374
G1 X93.619 Y79.222 E0.08491
G1 X94.414 Y78.724 E0.11611
G1 X95.248 Y78.295 E0.1473
G1 X96.116 Y77.94 E0.17849
G1 X97.011 Y77.659 E0.20969
G1 X97.495 Y77.541 E0.22626
G1 X97.609 Y77.516 E0.23014
G1 X98.533 Y77.355 E0.26134
G1 X99.832 Y77.262 E0.30465
G1 X100.545 Y77.254 E0.32837
G1 X110.611 Y77.255 E0.66317
G1 X111.309 Y77.265 E0.68639
G1 X111.927 Y77.291 E0.70696
G1 X112.94 Y77.364 E0.74074
G1 X114 Y77.454 E0.77612
G1 X116.515 Y77.594 E0.8599
G1 X119.038 Y77.664 E0.94385
G1 X121.562 Y77.662 E1.0278
G1 X124.05 Y77.59 E1.11058
G1 X126.582 Y77.445 E1.19493
G1 X129.082 Y77.231 E1.27839
G1 X132.012 Y76.89 E1.3765
G1 X132.971 Y76.763 E1.40867
G1 X133.905 Y76.68 E1.43986
G1 X135.131 Y76.691 E1.48064
G1 X135.59 Y76.721 E1.49594
G1 X138.139 Y76.854 E1.58083
G1 X140.166 Y76.901 E1.64827
G1 X140.703 Y76.921 E1.66614
G1 X141.638 Y76.995 E1.69734
G1 X142.563 Y77.15 E1.72853
G1 X143.472 Y77.382 E1.75974
G1 X144.358 Y77.691 E1.79095
G1 X145.213 Y78.074 E1.82211
G1 X146.034 Y78.529 E1.85333
G1 X146.796 Y79.04 E1.88384
G1 X147.144 Y79.295 E1.89819
G1 X147.491 Y79.56 E1.91271
G1 X147.721 Y79.743 E1.92249
G1 X148.288 Y80.227 E1.94728
G1 X148.506 Y80.426 E1.9571
G1 X148.939 Y80.843 E1.97709
G1 X149.048 Y80.954 E1.98227
G1 X149.488 Y81.43 E2.00383
G1 X149.734 Y81.712 E2.01627
G1 X150.117 Y82.176 E2.03629
G1 X150.22 Y82.308 E2.04185
G1 X150.527 Y82.721 E2.05897
G1 X150.798 Y83.104 E2.07458
G1 X151.134 Y83.607 E2.09469
G1 X151.232 Y83.763 E2.10082
G1 X151.387 Y84.018 E2.11075
G1 X151.582 Y84.348 E2.1235
G1 X151.936 Y84.995 E2.14803
G1 X152.003 Y85.128 E2.15298
G1 X152.193 Y85.525 E2.16762
G1 X152.298 Y85.756 E2.17606
G1 X152.445 Y86.095 E2.18835
G1 X152.53 Y86.3 E2.19573
G1 X152.725 Y86.806 E2.21376
G1 X152.851 Y87.158 E2.2262
G1 X153.138 Y88.084 E2.25844
G1 X153.288 Y88.658 E2.27818
G1 X153.49 Y89.598 E2.31015
G1 X153.536 Y89.869 E2.3193
G1 X153.586 Y90.193 E2.3302
G1 X153.608 Y90.351 E2.33551
G1 X153.679 Y91.009 E2.35752
G1 X153.721 Y91.545 E2.3754
G1 X153.754 Y92.269 E2.39951
G1 X153.756 Y92.432 E2.40493
G1 X153.748 Y93.016 E2.42435
G1 X153.712 Y93.876 E2.45298
G1 X153.652 Y95.121 E2.49444
G1 X153.583 Y97.696 E2.58011
G1 X153.587 Y100.22 E2.66406
G1 X153.662 Y102.742 E2.74798
G1 X153.805 Y105.212 E2.83027
G1 X154.081 Y108.289 E2.93302
G1 X154.123 Y109.068 E2.95897
G1 X154.143 Y110.15 E2.99497
G1 X154.145 Y110.353 E3.00172
G1 X154.144 Y116.485 E3.20567
G1 X154.134 Y117.187 E3.22902
G1 X154.081 Y118.123 E3.2602
G1 X153.948 Y119.051 E3.29138
G1 X153.736 Y119.965 E3.32259
G1 X153.448 Y120.858 E3.3538
G1 X153.084 Y121.722 E3.38498
G1 X152.648 Y122.553 E3.41619
G1 X152.143 Y123.343 E3.44738
G1 X151.573 Y124.087 E3.47855
G1 X151.187 Y124.524 E3.49794
G1 X150.231 Y125.551 E3.54461
G1 X149.821 Y125.982 E3.5644
G1 X148.135 Y127.855 E3.64821
G1 X146.515 Y129.762 E3.73144
G1 X144.934 Y131.731 E3.81542
G1 X143.418 Y133.735 E3.899
G1 X141.943 Y135.803 E3.98349
G1 X140.676 Y137.683 E4.05889
G1 X140.037 Y138.658 E4.09766
G1 X139.49 Y139.419 E4.12883
G1 X138.615 Y140.406 E4.1727
G1 X138.501 Y140.52 E4.17807
G1 X137.81 Y141.154 E4.20926
G1 X137.068 Y141.728 E4.24046
G1 X136.279 Y142.235 E4.27165
G1 X135.451 Y142.674 E4.30282
G1 X134.587 Y143.041 E4.33404
G1 X133.696 Y143.333 E4.36523
G1 X132.783 Y143.547 E4.39642
G1 X131.855 Y143.684 E4.42762
G1 X131.094 Y143.736 E4.45299
G1 X130.709 Y143.746 E4.4658
G1 X130.166 Y143.752 E4.48386
G1 X110.402 Y143.751 E5.14121
G1 X109.696 Y143.741 E5.1647
G1 X109.382 Y143.732 E5.17515
G1 X108.254 Y143.683 E5.2127
G1 X107.464 Y143.639 E5.23901
G1 X104.936 Y143.568 E5.32313
G1 X102.411 Y143.57 E5.40711
G1 X99.903 Y143.642 E5.49056
G1 X98.482 Y143.718 E5.53789
G1 X97.949 Y143.739 E5.55563
G1 X97.665 Y143.746 E5.56508
G1 X97.095 Y143.752 E5.58404
G1 X77.512 Y143.751 E6.23537
G1 X76.81 Y143.741 E6.25873
G1 X75.874 Y143.688 E6.28991
G1 X74.946 Y143.555 E6.32109
G1 X74.032 Y143.343 E6.35229
G1 X73.139 Y143.055 E6.3835
G1 X72.275 Y142.691 E6.41469
G1 X71.444 Y142.255 E6.4459
G1 X70.654 Y141.75 E6.47708
G1 X69.91 Y141.18 E6.50826
G1 X69.189 Y140.52 E6.54077
G1 X69.077 Y140.408 E6.54603
G1 X68.443 Y139.717 E6.57723
G1 X67.869 Y138.975 E6.60843
G1 X67.362 Y138.186 E6.63962
G1 X66.923 Y137.358 E6.67079
G1 X66.556 Y136.494 E6.70201
G1 X66.264 Y135.603 E6.7332
G1 X66.05 Y134.69 E6.76439
G1 X65.913 Y133.762 E6.79559
G1 X65.861 Y133.001 E6.82096
G1 X65.851 Y132.604 E6.83417
G1 X65.845 Y132.027 E6.85336
G1 X65.848 Y124.123 E7.11625
G1 X65.87 Y122.672 E7.16451
G1 X65.909 Y121.296 E7.2103
G1 X65.911 Y118.747 E7.29508
G1 X65.879 Y117.299 E7.34325
G1 X65.85 Y116.326 E7.37563
G1 X65.845 Y116.003 E7.38637
G1 X65.846 Y111.873 E7.52373
G1 X65.857 Y111.166 E7.54725
G1 X65.912 Y110.23 E7.57844
G1 X66.046 Y109.301 E7.60966
G1 X66.259 Y108.388 E7.64084
G1 X66.655 Y107.221 E7.68183
G1 X66.678 Y107.164 E7.68387
G1 X67.066 Y106.31 E7.71507
G1 X67.525 Y105.492 E7.74627
G1 X68.052 Y104.716 E7.77747
G1 X68.808 Y103.807 E7.81679
G1 X68.958 Y103.645 E7.82413
G1 X69.16 Y103.432 E7.8339
G1 X69.416 Y103.171 E7.84605
G1 X91.686 Y80.884 E8.89397
G0 F6000 X91.965 Y81.17
G1 F1200 X92.45 Y80.697 E8.9165
G1 X93.137 Y80.084 E8.94712
G1 X93.874 Y79.532 E8.97775
G1 X94.656 Y79.046 E9.00837
G1 X95.477 Y78.631 E9.03897
G1 X96.331 Y78.287 E9.06959
G1 X97.58 Y77.932 E9.11278
G1 X97.694 Y77.907 E9.11666
G1 X98.601 Y77.749 E9.14728
G1 X99.837 Y77.662 E9.18849
G1 X100.545 Y77.654 E9.21204
G1 X110.605 Y77.655 E9.54664
G1 X111.303 Y77.665 E9.56986
G1 X111.898 Y77.69 E9.58966
G1 X112.761 Y77.751 E9.61844
G1 X113.977 Y77.854 E9.65903
G1 X116.482 Y77.994 E9.74248
G1 X119.027 Y78.064 E9.82715
G1 X121.539 Y78.062 E9.9107
G1 X124.085 Y77.988 E9.99542
G1 X126.638 Y77.842 E10.08047
G1 X129.097 Y77.632 E10.16256
G1 X132.045 Y77.288 E10.26127
G1 X133.023 Y77.159 E10.29408
G1 X133.94 Y77.079 E10.3247
G1 X135.105 Y77.091 E10.36345
G1 X135.47 Y77.115 E10.37561
G1 X138.142 Y77.254 E10.46461
G1 X140.152 Y77.3 E10.53148
G1 X140.689 Y77.32 E10.54935
G1 X141.606 Y77.395 E10.57995
G1 X142.514 Y77.548 E10.61058
G1 X143.405 Y77.78 E10.6412
G1 X144.272 Y78.088 E10.6718
G1 X145.11 Y78.47 E10.70243
G1 X145.911 Y78.924 E10.73306
G1 X146.559 Y79.363 E10.75909
G1 X146.907 Y79.618 E10.77344
G1 X147.242 Y79.873 E10.78744
G1 X147.472 Y80.056 E10.79722
G1 X148.018 Y80.522 E10.82109
G1 X148.236 Y80.721 E10.83091
G1 X148.653 Y81.123 E10.85017
G1 X148.762 Y81.234 E10.85535
G1 X149.187 Y81.693 E10.87615
G1 X149.433 Y81.975 E10.8886
G1 X149.802 Y82.422 E10.90788
G1 X149.905 Y82.554 E10.91345
G1 X150.201 Y82.952 E10.92994
G1 X150.472 Y83.335 E10.94555
G1 X150.795 Y83.819 E10.9649
G1 X150.893 Y83.975 E10.97103
G1 X151.043 Y84.221 E10.98061
G1 X151.238 Y84.551 E10.99336
G1 X151.579 Y85.175 E11.01701
G1 X151.646 Y85.308 E11.02197
G1 X151.829 Y85.691 E11.03608
G1 X151.934 Y85.922 E11.04452
G1 X152.076 Y86.248 E11.05635
G1 X152.161 Y86.453 E11.06373
G1 X152.349 Y86.941 E11.08113
G1 X152.475 Y87.293 E11.09356
G1 X152.751 Y88.185 E11.12462
G1 X152.901 Y88.759 E11.14435
G1 X153.096 Y89.665 E11.17517
G1 X153.142 Y89.936 E11.18432
G1 X153.19 Y90.248 E11.19481
G1 X153.212 Y90.406 E11.20012
G1 X153.281 Y91.04 E11.22133
G1 X153.323 Y91.576 E11.23921
G1 X153.354 Y92.274 E11.26245
G1 X153.356 Y92.437 E11.26787
G1 X153.348 Y93 E11.2866
G1 X153.313 Y93.857 E11.31513
G1 X153.252 Y95.139 E11.35782
G1 X153.183 Y97.686 E11.44256
G1 X153.187 Y100.233 E11.52728
G1 X153.261 Y102.741 E11.61073
G1 X153.407 Y105.24 E11.69399
G1 X153.683 Y108.325 E11.797
G1 X153.723 Y109.075 E11.82199
G1 X153.745 Y110.353 E11.8645
G1 X153.744 Y116.479 E12.06825
G1 X153.734 Y117.181 E12.0916
G1 X153.681 Y118.1 E12.12222
G1 X153.548 Y119.011 E12.15284
G1 X153.337 Y119.907 E12.18345
G1 X153.049 Y120.782 E12.21409
G1 X152.686 Y121.628 E12.24471
G1 X152.251 Y122.439 E12.27532
G1 X151.747 Y123.21 E12.30596
G1 X150.894 Y124.252 E12.35075
G1 X149.941 Y125.275 E12.39725
G1 X149.535 Y125.702 E12.41685
G1 X147.849 Y127.575 E12.50066
G1 X146.183 Y129.536 E12.58625
G1 X144.632 Y131.467 E12.66862
G1 X143.094 Y133.5 E12.75341
G1 X141.631 Y135.552 E12.83723
G1 X140.29 Y137.542 E12.91704
G1 X139.703 Y138.438 E12.95267
G1 X139.165 Y139.186 E12.98332
G1 X138.332 Y140.123 E13.02502
G1 X138.218 Y140.237 E13.03038
G1 X137.54 Y140.859 E13.06098
G1 X136.81 Y141.42 E13.0916
G1 X136.034 Y141.916 E13.12223
G1 X135.218 Y142.342 E13.15285
G1 X134.368 Y142.696 E13.18347
G1 X133.49 Y142.974 E13.21411
G1 X132.592 Y143.176 E13.24472
G1 X131.679 Y143.299 E13.27536
G1 X131.081 Y143.336 E13.29529
G1 X130.705 Y143.346 E13.3078
G1 X130.166 Y143.352 E13.32573
G1 X110.408 Y143.351 E13.98288
G1 X109.702 Y143.341 E14.00636
G1 X109.4 Y143.332 E14.01641
G1 X108.276 Y143.283 E14.05383
G1 X107.497 Y143.239 E14.07978
G1 X104.947 Y143.168 E14.16463
G1 X102.435 Y143.17 E14.24818
G1 X99.871 Y143.243 E14.33349
G1 X98.285 Y143.327 E14.38632
G1 X97.934 Y143.34 E14.398
G1 X97.661 Y143.346 E14.40708
G1 X97.095 Y143.352 E14.42591
G1 X77.518 Y143.351 E15.07704
G1 X76.816 Y143.341 E15.10039
G1 X75.897 Y143.288 E15.13101
G1 X74.986 Y143.155 E15.16163
G1 X74.09 Y142.944 E15.19225
G1 X73.215 Y142.656 E15.22289
G1 X72.369 Y142.293 E15.25351
G1 X71.558 Y141.858 E15.28411
G1 X70.787 Y141.354 E15.31475
G1 X70.063 Y140.786 E15.34536
G1 X69.472 Y140.237 E15.37219
G1 X69.36 Y140.125 E15.37745
G1 X68.738 Y139.447 E15.40806
G1 X68.177 Y138.717 E15.43868
G1 X67.681 Y137.941 E15.46931
G1 X67.255 Y137.125 E15.49993
G1 X66.901 Y136.275 E15.53055
G1 X66.623 Y135.397 E15.56118
G1 X66.421 Y134.499 E15.5918
G1 X66.298 Y133.586 E15.62244
G1 X66.261 Y132.988 E15.64237
G1 X66.251 Y132.599 E15.65531
G1 X66.245 Y132.027 E15.67433
G1 X66.248 Y124.129 E15.93702
G1 X66.27 Y122.684 E15.98509
G1 X66.309 Y121.309 E16.03084
G1 X66.311 Y118.74 E16.11628
G1 X66.279 Y117.291 E16.16449
G1 X66.25 Y116.315 E16.19697
G1 X66.245 Y116.003 E16.20735
G1 X66.246 Y111.879 E16.34451
G1 X66.257 Y111.172 E16.36803
G1 X66.312 Y110.253 E16.39865
G1 X66.445 Y109.342 E16.42927
G1 X66.658 Y108.446 E16.4599
G1 X67.026 Y107.371 E16.49769
G1 X67.049 Y107.314 E16.49974
G1 X67.43 Y106.476 E16.53035
G1 X67.883 Y105.674 E16.56099
G1 X68.403 Y104.914 E16.59162
G1 X69.101 Y104.078 E16.62784
G1 X69.251 Y103.916 E16.63518
G1 X69.446 Y103.711 E16.6446
G1 X69.699 Y103.454 E16.65659
G1 X91.965 Y81.17 E17.70434
G0 F6000 X92.244 Y81.457
G1 F1200 X92.729 Y80.984 E17.72687
G1 X93.403 Y80.382 E17.75693
G1 X94.128 Y79.843 E17.78697
G1 X94.897 Y79.37 E17.817
G1 X95.705 Y78.967 E17.84703
G1 X96.545 Y78.636 E17.87706
G1 X97.666 Y78.323 E17.91577
G1 X97.78 Y78.298 E17.91966
G1 X98.67 Y78.144 E17.9497
G1 X99.842 Y78.062 E17.98877
G1 X100.545 Y78.054 E18.01216
G1 X110.599 Y78.055 E18.34655
G1 X111.297 Y78.065 E18.36977
G1 X111.87 Y78.089 E18.38885
G1 X112.873 Y78.161 E18.42229
G1 X113.958 Y78.253 E18.45851
G1 X116.485 Y78.394 E18.54269
G1 X119.016 Y78.464 E18.6269
G1 X121.55 Y78.462 E18.71118
G1 X124.12 Y78.388 E18.7967
G1 X126.624 Y78.244 E18.88012
G1 X129.147 Y78.028 E18.96434
G1 X132.142 Y77.68 E19.06463
G1 X133.076 Y77.556 E19.09596
G1 X133.975 Y77.477 E19.12598
G1 X135.079 Y77.49 E19.1627
G1 X135.499 Y77.517 E19.1767
G1 X138.112 Y77.654 E19.26373
G1 X140.137 Y77.7 E19.3311
G1 X140.674 Y77.72 E19.34897
G1 X141.574 Y77.794 E19.379
G1 X142.464 Y77.946 E19.40903
G1 X143.337 Y78.177 E19.43907
G1 X144.186 Y78.485 E19.46911
G1 X145.005 Y78.866 E19.49915
G1 X145.787 Y79.318 E19.52919
G1 X146.323 Y79.685 E19.5508
G1 X146.671 Y79.94 E19.56515
G1 X146.993 Y80.186 E19.57863
G1 X147.223 Y80.369 E19.5884
G1 X147.749 Y80.818 E19.6114
G1 X147.967 Y81.017 E19.62122
G1 X148.368 Y81.403 E19.63973
G1 X148.477 Y81.514 E19.64491
G1 X148.885 Y81.956 E19.66491
G1 X149.131 Y82.238 E19.67736
G1 X149.487 Y82.668 E19.69593
G1 X149.59 Y82.8 E19.7015
G1 X149.874 Y83.183 E19.71736
G1 X150.145 Y83.566 E19.73296
G1 X150.456 Y84.032 E19.75159
G1 X150.554 Y84.188 E19.75772
G1 X150.698 Y84.425 E19.76695
G1 X150.893 Y84.755 E19.77969
G1 X151.221 Y85.355 E19.80244
G1 X151.288 Y85.488 E19.80739
G1 X151.465 Y85.856 E19.82097
G1 X151.57 Y86.087 E19.82941
G1 X151.706 Y86.401 E19.84079
G1 X151.791 Y86.606 E19.84817
G1 X151.972 Y87.075 E19.8649
G1 X152.098 Y87.427 E19.87733
G1 X152.364 Y88.286 E19.90724
G1 X152.514 Y88.86 E19.92697
G1 X152.701 Y89.732 E19.95663
G1 X152.747 Y90.003 E19.96578
G1 X152.794 Y90.303 E19.97588
G1 X152.816 Y90.461 E19.98118
G1 X152.882 Y91.071 E20.00159
G1 X152.924 Y91.607 E20.01947
G1 X152.954 Y92.279 E20.04184
G1 X152.956 Y92.442 E20.04727
G1 X152.948 Y92.984 E20.06529
G1 X152.913 Y93.838 E20.09372
G1 X152.852 Y95.11 E20.13608
G1 X152.783 Y97.675 E20.22142
G1 X152.787 Y100.245 E20.3069
G1 X152.861 Y102.74 E20.38992
G1 X153.01 Y105.3 E20.47521
G1 X153.284 Y108.361 E20.57743
G1 X153.323 Y109.082 E20.60144
G1 X153.345 Y110.353 E20.64372
G1 X153.344 Y116.473 E20.84727
G1 X153.334 Y117.175 E20.87063
G1 X153.281 Y118.077 E20.90068
G1 X153.149 Y118.97 E20.9307
G1 X152.938 Y119.848 E20.96074
G1 X152.65 Y120.704 E20.99077
G1 X152.288 Y121.532 E21.02083
G1 X151.854 Y122.324 E21.05087
G1 X151.351 Y123.074 E21.0809
G1 X150.601 Y123.979 E21.12
G1 X149.651 Y124.999 E21.16636
G1 X149.247 Y125.424 E21.18586
G1 X147.548 Y127.312 E21.27034
G1 X145.882 Y129.272 E21.3559
G1 X144.317 Y131.221 E21.43903
G1 X142.765 Y133.273 E21.52461
G1 X141.294 Y135.335 E21.60885
G1 X139.968 Y137.303 E21.68778
G1 X139.368 Y138.219 E21.7242
G1 X138.84 Y138.952 E21.75424
G1 X138.049 Y139.84 E21.7938
G1 X137.935 Y139.954 E21.79916
G1 X137.269 Y140.564 E21.8292
G1 X136.552 Y141.113 E21.85923
G1 X135.788 Y141.595 E21.88928
G1 X134.985 Y142.009 E21.91933
G1 X134.149 Y142.349 E21.94934
G1 X133.286 Y142.615 E21.97938
G1 X132.403 Y142.803 E22.00941
G1 X131.067 Y142.936 E22.05406
G1 X130.7 Y142.946 E22.06627
G1 X130.166 Y142.952 E22.08404
G1 X110.414 Y142.951 E22.74099
G1 X109.708 Y142.941 E22.76447
G1 X109.417 Y142.933 E22.77416
G1 X108.298 Y142.884 E22.81141
G1 X107.495 Y142.839 E22.83816
G1 X104.958 Y142.768 E22.92257
G1 X102.423 Y142.77 E23.00689
G1 X99.837 Y142.844 E23.09293
G1 X98.271 Y142.927 E23.14509
G1 X97.92 Y142.94 E23.15678
G1 X97.656 Y142.946 E23.16556
G1 X97.095 Y142.952 E23.18422
G1 X77.524 Y142.951 E23.83515
G1 X76.822 Y142.941 E23.8585
G1 X75.92 Y142.888 E23.88856
G1 X75.027 Y142.756 E23.91858
G1 X74.149 Y142.545 E23.94861
G1 X73.293 Y142.257 E23.97865
G1 X72.465 Y141.895 E24.00871
G1 X71.673 Y141.461 E24.03875
G1 X70.923 Y140.958 E24.06878
G1 X70.22 Y140.392 E24.0988
G1 X69.755 Y139.954 E24.12005
G1 X69.643 Y139.842 E24.12532
G1 X69.033 Y139.176 E24.15535
G1 X68.484 Y138.459 E24.18539
G1 X68.002 Y137.695 E24.21543
G1 X67.588 Y136.892 E24.24548
G1 X67.248 Y136.056 E24.2755
G1 X66.982 Y135.193 E24.30554
G1 X66.794 Y134.31 E24.33556
G1 X66.661 Y132.974 E24.38022
G1 X66.651 Y132.595 E24.39283
G1 X66.645 Y132.027 E24.41172
G1 X66.648 Y124.135 E24.67421
G1 X66.67 Y122.695 E24.72211
G1 X66.709 Y121.32 E24.76786
G1 X66.711 Y118.775 E24.85251
G1 X66.678 Y117.282 E24.90218
G1 X66.649 Y116.303 E24.93475
G1 X66.645 Y116.003 E24.94473
G1 X66.646 Y111.885 E25.0817
G1 X66.657 Y111.178 E25.10522
G1 X66.711 Y110.277 E25.13524
G1 X66.845 Y109.384 E25.16527
G1 X67.057 Y108.506 E25.19531
G1 X67.397 Y107.52 E25.23
G1 X67.42 Y107.463 E25.23205
G1 X67.795 Y106.642 E25.26207
G1 X68.241 Y105.856 E25.29212
