;FLAVOR:Marlin
;TIME:14501
;Filament used: 11.8395m
;Layer height: 0.2
;MINX:61.273
;MINY:48.975
;MINZ:0.24
;MAXX:162.586
;MAXY:143.927
;MAXZ:64.49
;Generated with Cura_SteamEngine 4.12.1
M140 S60
M105
M190 S60
M104 S200
M105
M109 S200
M82 ;absolute extrusion mode
; Ender 3 Custom Start G-code
G92 E0 ; Reset Extruder
G28 ; Home all axes
G1 Z2.0 F3000 ; Move Z Axis up little to prevent scratching of Heat Bed
G1 X0.1 Y20 Z0.3 F5000.0 ; Move to start position
G1 X0.1 Y200.0 Z0.3 F1500.0 E15 ; Draw the first line
G1 X0.4 Y200.0 Z0.3 F5000.0 ; Move to side a little
G1 X0.4 Y20 Z0.3 F1500.0 E30 ; Draw the second line
G92 E0 ; Reset Extruder
G1 Z2.0 F3000 ; Move Z Axis up little to prevent scratching of Heat Bed
G1 X5 Y20 Z0.3 F5000.0 ; Move over to prevent blob squish
G92 E0
G92 E0
G1 F1500 E-6.5
;LAYER_COUNT:317
;LAYER:-6
M107
G0 F9000 X67.895 Y66.102 Z0.24
;TYPE:SUPPORT-INTERFACE
G1 F1500 E0
G1 F1125 X68.015 Y65.987 E0.01327
G1 X68.67 Y65.407 E0.0831
G1 X68.81 Y65.294 E0.09747
G1 X69.873 Y64.504 E0.20319
G1 X69.942 Y64.455 E0.20994
G1 X71.138 Y63.657 E0.32471
G1 X71.942 Y63.16 E0.40016
G1 X72.106 Y63.067 E0.41521
G1 X72.895 Y62.657 E0.48619
G1 X73.05 Y62.583 E0.4999
G1 X73.867 Y62.231 E0.57091
G1 X74.022 Y62.171 E0.58418
G1 X74.866 Y61.879 E0.65547
G1 X75.045 Y61.825 E0.67039
G1 X76.351 Y61.495 E0.77792
G1 X76.434 Y61.476 E0.78472
G1 X77.781 Y61.208 E0.89435
G1 X78.775 Y61.047 E0.97473
G1 X78.96 Y61.024 E0.98961
G1 X79.856 Y60.945 E1.06141
G1 X79.998 Y60.938 E1.07276
G1 X80.926 Y60.925 E1.14684
G1 X81.078 Y60.929 E1.15898
G1 X81.937 Y60.979 E1.22767
G1 X82.151 Y61.001 E1.24484
G1 X83.491 Y61.197 E1.35294
G1 X83.588 Y61.214 E1.3608
G1 X84.892 Y61.475 E1.46696
G1 X84.992 Y61.497 E1.47513
G1 X85.924 Y61.719 E1.55161
G1 X86.063 Y61.758 E1.56313
G1 X86.946 Y62.036 E1.63703
G1 X87.076 Y62.083 E1.64806
G1 X87.949 Y62.431 E1.72308
G1 X88.052 Y62.477 E1.73209
G1 X88.874 Y62.876 E1.80502
G1 X89.04 Y62.966 E1.8201
G1 X90.184 Y63.651 E1.92653
G1 X90.293 Y63.721 E1.93687
G1 X91.372 Y64.443 E2.04051
G1 X91.476 Y64.515 E2.05061
G1 X92.225 Y65.057 E2.12441
G1 X92.374 Y65.174 E2.13953
G1 X93.038 Y65.732 E2.20876
G1 X93.19 Y65.869 E2.2251
G1 X93.827 Y66.49 E2.29611
G1 X93.921 Y66.589 E2.30701
G1 X94.529 Y67.276 E2.38024
G1 X94.638 Y67.41 E2.39403
G1 X95.424 Y68.466 E2.49911
G1 X95.48 Y68.544 E2.50677
G1 X96.233 Y69.67 E2.6149
G1 X96.288 Y69.756 E2.62305
G1 X97.022 Y70.945 E2.73459
G1 X97.147 Y71.112 E2.75124
G1 X97.592 Y71.63 E2.80575
G1 X98.098 Y72.089 E2.86029
G1 X98.658 Y72.479 E2.91476
G1 X99.263 Y72.795 E2.96924
G1 X99.903 Y73.034 E3.02378
G1 X100.568 Y73.188 E3.07827
G1 X101.247 Y73.258 E3.13275
G1 X101.931 Y73.242 E3.18737
G1 X102.21 Y73.198 E3.20991
G1 X102.215 Y73.22 E3.21172
G1 X103.559 Y72.94 E3.3213
G1 X103.732 Y72.91 E3.33532
G1 X104.631 Y72.791 E3.40771
G1 X104.784 Y72.777 E3.41997
G1 X106.072 Y72.715 E3.5229
G1 X106.156 Y72.713 E3.52961
G1 X113.901 Y72.714 E4.14785
G1 X114.902 Y72.75 E4.22781
G1 X115.025 Y72.759 E4.23765
G1 X115.942 Y72.861 E4.3113
G1 X116.117 Y72.886 E4.32541
G1 X117.006 Y73.05 E4.39757
G1 X117.133 Y73.079 E4.40797
G1 X118.078 Y73.326 E4.48594
G1 X118.736 Y73.454 E4.53945
G1 X119.418 Y73.5 E4.59401
G1 X120.099 Y73.459 E4.64847
G1 X120.77 Y73.332 E4.70298
G1 X121.419 Y73.122 E4.75744
G1 X122.037 Y72.831 E4.81196
G1 X122.614 Y72.465 E4.86651
G1 X123.139 Y72.029 E4.92098
G1 X123.606 Y71.53 E4.97554
G1 X124.005 Y70.975 E5.0301
G1 X124.331 Y70.376 E5.08454
G1 X124.58 Y69.74 E5.13906
G1 X124.746 Y69.075 E5.19377
G1 X124.831 Y68.255 E5.25958
G1 X124.839 Y67.969 E5.28241
G1 X124.889 Y67.116 E5.35062
G1 X124.912 Y66.888 E5.36891
G1 X125.108 Y65.561 E5.47599
G1 X125.127 Y65.449 E5.48506
G1 X125.398 Y64.095 E5.59528
G1 X125.628 Y63.129 E5.67455
G1 X125.679 Y62.949 E5.68948
G1 X125.944 Y62.112 E5.75956
G1 X125.997 Y61.961 E5.77234
G1 X126.335 Y61.116 E5.84499
G1 X126.409 Y60.95 E5.85949
G1 X126.788 Y60.173 E5.9285
G1 X126.874 Y60.012 E5.94307
G1 X127.558 Y58.867 E6.04954
G1 X128.357 Y57.668 E6.16455
G1 X128.405 Y57.598 E6.17133
G1 X128.96 Y56.829 E6.24703
G1 X129.065 Y56.695 E6.26062
G1 X129.633 Y56.018 E6.33116
G1 X129.75 Y55.888 E6.34512
G1 X130.376 Y55.244 E6.41681
G1 X130.498 Y55.127 E6.43031
G1 X131.163 Y54.536 E6.50132
G1 X131.297 Y54.426 E6.51516
G1 X132.402 Y53.605 E6.62505
G1 X132.476 Y53.553 E6.63227
G1 X133.667 Y52.759 E6.74653
G1 X134.493 Y52.252 E6.82389
G1 X134.63 Y52.175 E6.83644
G1 X135.413 Y51.768 E6.90688
G1 X135.578 Y51.69 E6.92145
G1 X136.391 Y51.341 E6.99207
G1 X136.575 Y51.27 E7.00782
G1 X137.394 Y50.987 E7.07699
G1 X137.554 Y50.939 E7.09032
G1 X138.869 Y50.608 E7.19856
G1 X138.964 Y50.586 E7.20635
G1 X140.269 Y50.328 E7.31254
G1 X140.396 Y50.305 E7.32284
G1 X141.291 Y50.161 E7.3952
G1 X141.466 Y50.139 E7.40928
G1 X142.374 Y50.061 E7.48203
G1 X142.533 Y50.053 E7.49473
G1 X143.45 Y50.04 E7.56794
G1 X143.593 Y50.044 E7.57936
G1 X144.468 Y50.095 E7.64932
G1 X144.676 Y50.117 E7.66602
G1 X145.981 Y50.31 E7.77132
G1 X146.118 Y50.333 E7.78241
G1 X147.404 Y50.59 E7.8871
G1 X147.504 Y50.612 E7.89527
G1 X148.436 Y50.834 E7.97175
G1 X148.575 Y50.873 E7.98327
G1 X149.458 Y51.151 E8.05717
G1 X149.588 Y51.198 E8.0682
G1 X150.461 Y51.546 E8.14322
G1 X150.564 Y51.592 E8.15223
G1 X151.376 Y51.986 E8.22427
G1 X151.564 Y52.088 E8.24134
G1 X152.69 Y52.761 E8.34606
G1 X153.896 Y53.564 E8.46171
G1 X153.992 Y53.631 E8.47106
G1 X154.724 Y54.16 E8.54315
G1 X154.863 Y54.267 E8.55715
G1 X155.559 Y54.853 E8.62978
G1 X155.683 Y54.965 E8.64312
G1 X156.315 Y55.579 E8.71346
G1 X156.449 Y55.72 E8.72898
G1 X157.027 Y56.37 E8.79842
G1 X157.153 Y56.525 E8.81436
G1 X157.96 Y57.612 E8.92243
G1 X158.01 Y57.684 E8.92943
G1 X158.802 Y58.874 E9.04353
G1 X159.309 Y59.699 E9.12083
G1 X159.378 Y59.82 E9.13195
G1 X159.806 Y60.647 E9.20628
G1 X159.869 Y60.78 E9.21803
G1 X160.217 Y61.59 E9.2884
G1 X160.29 Y61.778 E9.3045
G1 X160.573 Y62.599 E9.37382
G1 X160.624 Y62.768 E9.38791
G1 X160.945 Y64.043 E9.49286
G1 X160.971 Y64.158 E9.50227
G1 X161.242 Y65.517 E9.61289
G1 X161.398 Y66.481 E9.69084
G1 X161.422 Y66.677 E9.7066
G1 X161.501 Y67.573 E9.7784
G1 X161.508 Y67.715 E9.78975
G1 X161.521 Y68.638 E9.86344
G1 X161.517 Y68.795 E9.87597
G1 X161.467 Y69.654 E9.94466
G1 X161.446 Y69.864 E9.96151
G1 X161.238 Y71.272 E10.07512
G1 X160.952 Y72.7 E10.19137
G1 X160.732 Y73.625 E10.26727
G1 X160.688 Y73.78 E10.28013
G1 X160.41 Y74.663 E10.35402
G1 X160.363 Y74.793 E10.36506
G1 X160.015 Y75.666 E10.44008
G1 X159.969 Y75.769 E10.44908
G1 X159.575 Y76.581 E10.52113
G1 X159.473 Y76.769 E10.5382
G1 X158.8 Y77.895 E10.64291
G1 X158.002 Y79.094 E10.75788
G1 X157.936 Y79.189 E10.76712
G1 X157.401 Y79.929 E10.84001
G1 X157.294 Y80.068 E10.85401
G1 X156.708 Y80.763 E10.92658
G1 X156.596 Y80.888 E10.93997
G1 X155.982 Y81.52 E11.01031
G1 X155.843 Y81.652 E11.02561
G1 X155.206 Y82.219 E11.09369
G1 X155.027 Y82.364 E11.11208
G1 X153.97 Y83.149 E11.21717
G1 X153.874 Y83.217 E11.22656
G1 X152.76 Y83.96 E11.33345
G1 X151.865 Y84.513 E11.41743
G1 X151.726 Y84.591 E11.43016
G1 X150.943 Y84.998 E11.5006
G1 X150.778 Y85.076 E11.51517
G1 X149.965 Y85.425 E11.58579
G1 X149.781 Y85.496 E11.60153
G1 X148.962 Y85.779 E11.6707
G1 X148.802 Y85.827 E11.68404
G1 X147.396 Y86.179 E11.79973
G1 X146.087 Y86.438 E11.90625
G1 X145.96 Y86.461 E11.91655
G1 X145.065 Y86.605 E11.98891
G1 X144.89 Y86.627 E12.00299
G1 X143.982 Y86.705 E12.07574
G1 X143.823 Y86.713 E12.08845
G1 X142.906 Y86.726 E12.16165
G1 X142.763 Y86.722 E12.17307
G1 X141.888 Y86.671 E12.24304
G1 X141.68 Y86.649 E12.25973
G1 X140.375 Y86.456 E12.36504
G1 X140.238 Y86.433 E12.37613
G1 X138.952 Y86.176 E12.48081
G1 X138.852 Y86.154 E12.48898
G1 X137.92 Y85.932 E12.56546
G1 X137.781 Y85.893 E12.57699
G1 X136.898 Y85.616 E12.65086
G1 X136.759 Y85.565 E12.66268
G1 X135.818 Y85.19 E12.74354
G1 X135.18 Y84.981 E12.79713
G1 X134.51 Y84.852 E12.85159
G1 X133.829 Y84.809 E12.90606
G1 X133.148 Y84.852 E12.96053
G1 X132.477 Y84.981 E13.01507
G1 X131.828 Y85.194 E13.0696
G1 X131.211 Y85.485 E13.12405
G1 X130.635 Y85.854 E13.17866
G1 X130.111 Y86.291 E13.23312
G1 X129.647 Y86.791 E13.28757
G1 X129.249 Y87.347 E13.34215
G1 X128.924 Y87.947 E13.39662
G1 X128.676 Y88.589 E13.45156
G1 X128.593 Y88.965 E13.4823
G1 X128.57 Y88.957 E13.48424
G1 X128.469 Y89.54 E13.53147
G1 X128.323 Y90.401 E13.60118
G1 X128.29 Y90.562 E13.6143
G1 X128.076 Y91.427 E13.68543
G1 X128.03 Y91.592 E13.6991
G1 X127.754 Y92.441 E13.77036
G1 X127.694 Y92.602 E13.78408
G1 X127.355 Y93.438 E13.85609
G1 X127.286 Y93.586 E13.86913
G1 X126.671 Y94.786 E13.97676
G1 X126.62 Y94.879 E13.98523
G1 X122.751 Y101.575 E14.60254
G1 X122.231 Y102.402 E14.68052
G1 X122.141 Y102.533 E14.69321
G1 X121.617 Y103.249 E14.76404
G1 X121.221 Y103.749 E14.81495
G1 X121.082 Y103.954 E14.83472
G1 X120.745 Y104.548 E14.88923
G1 X120.485 Y105.178 E14.94364
G1 X120.307 Y105.838 E14.9982
G1 X120.214 Y106.515 E15.05275
G1 X120.208 Y107.198 E15.10728
G1 X120.288 Y107.876 E15.16177
G1 X120.452 Y108.539 E15.21629
G1 X120.698 Y109.175 E15.27072
G1 X121.023 Y109.776 E15.32526
G1 X121.425 Y110.335 E15.38023
G1 X121.74 Y110.658 E15.41624
G1 X121.721 Y110.681 E15.41862
G1 X122.213 Y111.126 E15.47158
G1 X122.85 Y111.747 E15.54259
G1 X122.955 Y111.857 E15.55473
G1 X123.557 Y112.537 E15.62722
G1 X123.661 Y112.665 E15.64039
G1 X124.455 Y113.735 E15.74675
G1 X124.506 Y113.808 E15.75386
G1 X125.284 Y114.973 E15.86568
G1 X125.814 Y115.834 E15.94639
G1 X125.885 Y115.96 E15.95793
G1 X126.303 Y116.763 E16.0302
G1 X126.368 Y116.9 E16.0423
G1 X126.737 Y117.759 E16.11693
G1 X126.789 Y117.891 E16.12825
G1 X127.078 Y118.727 E16.19886
G1 X127.134 Y118.913 E16.21437
G1 X127.455 Y120.188 E16.31932
G1 X127.481 Y120.302 E16.32865
G1 X127.751 Y121.658 E16.43902
G1 X127.907 Y122.622 E16.51697
G1 X127.931 Y122.818 E16.53273
G1 X128.01 Y123.714 E16.60453
G1 X128.017 Y123.856 E16.61588
G1 X128.03 Y124.779 E16.68957
G1 X128.026 Y124.936 E16.7021
G1 X127.976 Y125.793 E16.77063
G1 X127.954 Y126.014 E16.78836
G1 X127.764 Y127.305 E16.89252
G1 X127.737 Y127.462 E16.90524
G1 X127.465 Y128.819 E17.01571
G1 X127.237 Y129.773 E17.09401
G1 X127.186 Y129.958 E17.10933
G1 X126.924 Y130.784 E17.1785
G1 X126.865 Y130.95 E17.19256
G1 X126.533 Y131.784 E17.26422
G1 X126.464 Y131.94 E17.27784
G1 X126.069 Y132.751 E17.34984
G1 X125.992 Y132.894 E17.36281
G1 X125.309 Y134.035 E17.46896
G1 X125.247 Y134.133 E17.47822
G1 X124.459 Y135.309 E17.59121
G1 X123.901 Y136.08 E17.66719
G1 X123.784 Y136.229 E17.68231
G1 X123.214 Y136.908 E17.75308
G1 X123.101 Y137.033 E17.76653
G1 X122.465 Y137.685 E17.83923
G1 X122.354 Y137.79 E17.85143
G1 X121.691 Y138.379 E17.92222
G1 X121.543 Y138.5 E17.93748
G1 X120.494 Y139.278 E18.04173
G1 X120.389 Y139.353 E18.05203
G1 X119.218 Y140.134 E18.16439
G1 X118.383 Y140.648 E18.24266
G1 X118.261 Y140.717 E18.25385
G1 X117.464 Y141.133 E18.32561
G1 X117.308 Y141.208 E18.33943
G1 X116.46 Y141.572 E18.41309
G1 X116.318 Y141.628 E18.42528
G1 X115.509 Y141.907 E18.49359
G1 X115.282 Y141.974 E18.51248
G1 X113.989 Y142.3 E18.61892
G1 X113.898 Y142.321 E18.62638
G1 X112.557 Y142.586 E18.73549
G1 X111.564 Y142.746 E18.81578
G1 X111.392 Y142.768 E18.82962
G1 X110.483 Y142.846 E18.90245
G1 X110.326 Y142.854 E18.915
G1 X109.405 Y142.866 E18.98852
G1 X109.267 Y142.863 E18.99954
G1 X108.389 Y142.81 E19.06975
G1 X108.181 Y142.788 E19.08645
G1 X106.884 Y142.596 E19.19111
G1 X106.761 Y142.575 E19.20107
G1 X105.469 Y142.317 E19.30624
G1 X105.358 Y142.293 E19.31531
G1 X104.415 Y142.07 E19.39266
G1 X104.293 Y142.036 E19.40277
G1 X103.426 Y141.762 E19.47535
G1 X103.279 Y141.709 E19.48782
G1 X102.406 Y141.361 E19.56284
G1 X102.303 Y141.315 E19.57184
G1 X101.478 Y140.914 E19.64507
G1 X101.302 Y140.818 E19.66107
G1 X100.162 Y140.137 E19.76707
G1 X100.089 Y140.091 E19.77396
G1 X98.903 Y139.296 E19.88793
G1 X98.127 Y138.734 E19.96441
G1 X97.983 Y138.621 E19.97902
G1 X97.304 Y138.051 E20.04979
G1 X97.179 Y137.938 E20.06324
G1 X96.527 Y137.302 E20.13595
G1 X96.422 Y137.191 E20.14815
G1 X95.842 Y136.538 E20.21786
G1 X95.705 Y136.37 E20.23517
G1 X94.923 Y135.317 E20.33987
G1 X94.857 Y135.222 E20.3491
G1 X94.117 Y134.114 E20.45546
G1 X94.049 Y134.007 E20.46558
G1 X93.575 Y133.239 E20.53762
G1 X93.482 Y133.076 E20.5526
G1 X93.073 Y132.288 E20.62347
G1 X92.997 Y132.127 E20.63768
G1 X92.653 Y131.328 E20.70712
G1 X92.576 Y131.129 E20.72415
G1 X92.293 Y130.31 E20.79332
G1 X92.239 Y130.13 E20.80832
G1 X91.908 Y128.807 E20.91718
G1 X91.625 Y127.389 E21.03261
G1 X91.464 Y126.391 E21.1133
G1 X91.444 Y126.228 E21.12641
G1 X91.364 Y125.293 E21.20132
G1 X91.358 Y125.163 E21.21171
G1 X91.346 Y124.241 E21.28531
G1 X91.349 Y124.104 E21.29625
G1 X91.402 Y123.225 E21.36654
G1 X91.423 Y123.024 E21.38268
G1 X91.616 Y121.718 E21.48806
G1 X91.637 Y121.597 E21.49786
G1 X91.917 Y120.201 E21.61152
G1 X92.139 Y119.262 E21.68854
G1 X92.172 Y119.142 E21.69847
G1 X92.45 Y118.261 E21.77222
G1 X92.503 Y118.115 E21.78461
G1 X92.851 Y117.242 E21.85963
G1 X92.897 Y117.139 E21.86864
G1 X93.3 Y116.309 E21.94229
G1 X93.394 Y116.138 E21.95786
G1 X94.07 Y115.006 E22.06311
G1 X94.115 Y114.934 E22.06989
G1 X94.916 Y113.739 E22.18473
G1 X95.474 Y112.968 E22.2607
G1 X95.591 Y112.819 E22.27582
G1 X96.161 Y112.14 E22.34659
G1 X96.274 Y112.015 E22.36004
G1 X96.91 Y111.362 E22.4328
G1 X96.994 Y111.282 E22.44206
G1 X97.741 Y110.62 E22.52174
G1 X98.213 Y110.144 E22.57525
G1 X98.629 Y109.603 E22.62972
G1 X98.973 Y109.013 E22.68424
G1 X99.24 Y108.385 E22.73871
G1 X99.427 Y107.728 E22.79324
G1 X99.528 Y107.052 E22.8478
G1 X99.543 Y106.369 E22.90233
G1 X99.472 Y105.691 E22.95675
G1 X99.317 Y105.026 E23.01125
G1 X99.078 Y104.386 E23.06579
G1 X98.761 Y103.783 E23.12017
G1 X98.427 Y103.297 E23.16724
G1 X98.086 Y102.855 E23.2118
G1 X97.961 Y102.678 E23.2291
G1 X97.263 Y101.595 E23.33195
G1 X97.225 Y101.533 E23.33775
G1 X95.256 Y98.124 E23.652
G1 X94.884 Y97.566 E23.70554
G1 X94.438 Y97.05 E23.75998
G1 X93.929 Y96.594 E23.81453
G1 X93.367 Y96.206 E23.86905
G1 X92.76 Y95.892 E23.9236
G1 X92.12 Y95.658 E23.97799
G1 X91.453 Y95.505 E24.03262
G1 X90.774 Y95.438 E24.08708
G1 X90.091 Y95.458 E24.14163
G1 X89.417 Y95.564 E24.19609
G1 X88.932 Y95.704 E24.23638
G1 X88.932 Y95.661 E24.23982
G1 X88.288 Y95.949 E24.29613
G1 X87.465 Y96.304 E24.36768
G1 X87.31 Y96.364 E24.38094
G1 X86.458 Y96.659 E24.45292
G1 X86.29 Y96.709 E24.46691
G1 X84.984 Y97.039 E24.57443
G1 X84.871 Y97.065 E24.58369
G1 X83.575 Y97.321 E24.68914
G1 X83.448 Y97.344 E24.69944
G1 X82.553 Y97.488 E24.77181
G1 X82.378 Y97.51 E24.78589
G1 X81.47 Y97.588 E24.85863
G1 X81.311 Y97.596 E24.87134
G1 X80.394 Y97.609 E24.94455
G1 X80.251 Y97.605 E24.95597
G1 X79.368 Y97.553 E25.02657
G1 X79.182 Y97.534 E25.0415
G1 X77.84 Y97.337 E25.14977
G1 X76.456 Y97.063 E25.26239
G1 X76.331 Y97.036 E25.2726
G1 X75.434 Y96.824 E25.34617
G1 X75.247 Y96.771 E25.36169
G1 X74.421 Y96.51 E25.43084
G1 X74.259 Y96.453 E25.44455
G1 X73.426 Y96.121 E25.51613
G1 X73.25 Y96.044 E25.53146
G1 X72.473 Y95.666 E25.60044
G1 X72.282 Y95.563 E25.61776
G1 X71.165 Y94.895 E25.72165
G1 X71.035 Y94.812 E25.73396
G1 X69.954 Y94.088 E25.83782
G1 X69.851 Y94.016 E25.84785
G1 X69.107 Y93.478 E25.92114
G1 X68.958 Y93.361 E25.93626
G1 X68.293 Y92.802 E26.00561
G1 X68.142 Y92.666 E26.02183
G1 X67.495 Y92.035 E26.09397
G1 X67.4 Y91.935 E26.10498
G1 X66.809 Y91.268 E26.17612
G1 X66.69 Y91.12 E26.19128
G1 X65.909 Y90.069 E26.2958
G1 X65.842 Y89.975 E26.30501
G1 X65.057 Y88.798 E26.41795
G1 X64.558 Y87.99 E26.49375
G1 X64.465 Y87.827 E26.50873
G1 X64.049 Y87.026 E26.58078
G1 X63.974 Y86.868 E26.59474
G1 X63.629 Y86.065 E26.66451
G1 X63.561 Y85.89 E26.67949
G1 X63.274 Y85.06 E26.7496
G1 X63.222 Y84.885 E26.76417
G1 X62.894 Y83.585 E26.87119
G1 X62.868 Y83.471 E26.88053
G1 X62.612 Y82.176 E26.9859
G1 X62.586 Y82.031 E26.99766
G1 X62.443 Y81.142 E27.06953
G1 X62.423 Y80.979 E27.08264
G1 X62.343 Y80.049 E27.15715
G1 X62.337 Y79.913 E27.16802
G1 X62.324 Y78.998 E27.24107
G1 X62.328 Y78.852 E27.25273
G1 X62.38 Y77.97 E27.32325
G1 X62.398 Y77.787 E27.33793
G1 X62.595 Y76.448 E27.44597
G1 X62.61 Y76.364 E27.45278
G1 X62.866 Y75.075 E27.55768
G1 X62.895 Y74.94 E27.5687
G1 X63.108 Y74.04 E27.64253
