;FLAVOR:Marlin
;TIME:5049
;Filament used: 3.67781m
;Layer height: 0.2
;MINX:81.335
;MINY:81.336
;MINZ:0.24
;MAXX:138.477
;MAXY:138.664
;MAXZ:50.89
;Generated with Cura_SteamEngine 4.12.1
M140 S80
M105
M190 S80
M104 S220
M105
M109 S220
M82 ;absolute extrusion mode
; Ender 3 Custom Start G-code
G92 E0 ; Reset Extruder
G28 ; Home all axes
G29 ; ABL
G1 Z2.0 F3000 ; Move Z Axis up little to prevent scratching of Heat Bed
G1 X0.1 Y20 Z0.3 F5000.0 ; Move to start position
G1 X0.1 Y200.0 Z0.3 F1500.0 E15 ; Draw the first line
G1 X0.4 Y200.0 Z0.3 F5000.0 ; Move to side a little
G1 X0.4 Y20 Z0.3 F1500.0 E30 ; Draw the second line
G92 E0 ; Reset Extruder
G1 Z2.0 F3000 ; Move Z Axis up little to prevent scratching of Heat Bed
G1 X5 Y20 Z0.3 F5000.0 ; Move over to prevent blob squish
G92 E0
G92 E0
G1 F1500 E-6.5
;LAYER_COUNT:249
;LAYER:-6
M107
G0 F9000 X86.655 Y86.814 Z0.24
;TYPE:SUPPORT-INTERFACE
G1 F1500 E0
G1 F1350 X86.812 Y86.658 E0.01767
G1 X87.508 Y86.012 E0.09347
G1 X87.647 Y85.893 E0.10807
G1 X88.338 Y85.339 E0.17877
G1 X88.477 Y85.235 E0.19263
G1 X89.192 Y84.743 E0.26191
G1 X89.376 Y84.626 E0.27932
G1 X90.132 Y84.183 E0.34926
G1 X90.274 Y84.106 E0.36216
G1 X91.106 Y83.697 E0.43616
G1 X91.219 Y83.647 E0.44602
G1 X92.069 Y83.304 E0.51919
G1 X92.242 Y83.242 E0.53386
G1 X93.08 Y82.973 E0.60411
G1 X93.244 Y82.927 E0.61771
G1 X94.116 Y82.715 E0.68935
G1 X94.278 Y82.682 E0.70254
G1 X95.171 Y82.534 E0.7748
G1 X95.348 Y82.511 E0.78905
G1 X96.242 Y82.428 E0.86072
G1 X96.384 Y82.421 E0.87206
G1 X97.125 Y82.4 E0.93124
G1 X122.886 Y82.401 E2.98759
G1 X123.887 Y82.437 E3.06755
G1 X124.01 Y82.446 E3.07739
G1 X124.927 Y82.548 E3.15104
G1 X125.102 Y82.573 E3.16515
G1 X125.991 Y82.737 E3.23732
G1 X126.114 Y82.765 E3.24738
G1 X127.008 Y82.999 E3.32115
G1 X127.171 Y83.048 E3.33474
G1 X128.013 Y83.334 E3.40572
G1 X128.179 Y83.398 E3.41992
G1 X128.982 Y83.739 E3.48956
G1 X129.171 Y83.827 E3.5062
G1 X129.965 Y84.235 E3.57746
G1 X130.082 Y84.302 E3.58823
G1 X130.861 Y84.776 E3.66102
G1 X131.012 Y84.876 E3.67547
G1 X131.726 Y85.387 E3.74556
G1 X131.874 Y85.5 E3.76042
G1 X132.566 Y86.077 E3.83235
G1 X132.674 Y86.173 E3.84388
G1 X133.186 Y86.655 E3.90001
G1 X133.306 Y86.775 E3.91356
G1 X133.988 Y87.508 E3.99348
G1 X134.107 Y87.647 E4.00808
G1 X134.661 Y88.338 E4.07878
G1 X134.765 Y88.477 E4.09264
G1 X135.257 Y89.192 E4.16192
G1 X135.374 Y89.376 E4.17933
G1 X135.814 Y90.125 E4.24867
G1 X135.887 Y90.259 E4.26085
G1 X136.292 Y91.082 E4.33407
G1 X136.353 Y91.219 E4.34604
G1 X136.695 Y92.064 E4.41881
G1 X136.754 Y92.23 E4.43287
G1 X137.025 Y93.072 E4.50348
G1 X137.072 Y93.238 E4.51725
G1 X137.283 Y94.107 E4.58863
G1 X137.317 Y94.27 E4.60192
G1 X137.465 Y95.162 E4.6741
G1 X137.489 Y95.348 E4.68907
G1 X137.57 Y96.232 E4.75993
G1 X137.579 Y96.384 E4.77208
G1 X137.6 Y97.117 E4.83062
G1 X137.6 Y122.869 E6.88625
G1 X137.564 Y123.875 E6.96661
G1 X137.554 Y124.01 E6.97742
G1 X137.452 Y124.927 E7.05107
G1 X137.427 Y125.102 E7.06518
G1 X137.265 Y125.98 E7.13645
G1 X137.235 Y126.114 E7.14741
G1 X137.004 Y126.999 E7.22042
G1 X136.952 Y127.171 E7.23476
G1 X136.666 Y128.013 E7.30575
G1 X136.602 Y128.179 E7.31995
G1 X136.261 Y128.982 E7.38959
G1 X136.18 Y129.157 E7.40498
G1 X135.776 Y129.943 E7.47552
G1 X135.698 Y130.082 E7.48825
G1 X135.224 Y130.861 E7.56104
G1 X135.124 Y131.012 E7.57549
G1 X134.613 Y131.726 E7.64558
G1 X134.5 Y131.874 E7.66044
G1 X133.923 Y132.566 E7.73237
G1 X133.827 Y132.674 E7.7439
G1 X133.345 Y133.186 E7.80003
G1 X133.188 Y133.342 E7.8177
G1 X132.503 Y133.978 E7.89231
G1 X132.355 Y134.105 E7.90788
G1 X131.662 Y134.661 E7.9788
G1 X131.523 Y134.765 E7.99266
G1 X130.808 Y135.257 E8.06194
G1 X130.624 Y135.374 E8.07935
G1 X129.868 Y135.817 E8.14929
G1 X129.726 Y135.894 E8.16219
G1 X128.898 Y136.301 E8.23583
G1 X128.781 Y136.353 E8.24605
G1 X127.926 Y136.698 E8.31965
G1 X127.763 Y136.756 E8.33346
G1 X126.92 Y137.027 E8.40414
G1 X126.756 Y137.073 E8.41774
G1 X125.884 Y137.285 E8.48938
G1 X125.722 Y137.318 E8.50257
G1 X124.829 Y137.466 E8.57483
G1 X124.652 Y137.489 E8.58908
G1 X123.758 Y137.572 E8.66075
G1 X123.616 Y137.579 E8.67209
G1 X122.875 Y137.6 E8.73127
G1 X97.114 Y137.599 E10.78762
G1 X96.113 Y137.563 E10.86758
G1 X95.99 Y137.554 E10.87742
G1 X95.073 Y137.452 E10.95107
G1 X94.898 Y137.427 E10.96518
G1 X94.009 Y137.263 E11.03735
G1 X93.886 Y137.235 E11.04741
G1 X92.992 Y137.001 E11.12118
G1 X92.829 Y136.952 E11.13477
G1 X91.987 Y136.666 E11.20575
G1 X91.821 Y136.602 E11.21995
G1 X91.018 Y136.261 E11.28959
G1 X90.829 Y136.173 E11.30623
G1 X90.035 Y135.765 E11.37749
G1 X89.918 Y135.698 E11.38826
G1 X89.139 Y135.224 E11.46105
G1 X88.988 Y135.124 E11.4755
G1 X88.274 Y134.613 E11.54559
G1 X88.126 Y134.5 E11.56045
G1 X87.434 Y133.923 E11.63237
G1 X87.326 Y133.827 E11.64391
G1 X86.814 Y133.345 E11.70004
G1 X86.654 Y133.184 E11.71816
G1 X86.01 Y132.49 E11.79373
G1 X85.893 Y132.353 E11.80812
G1 X85.343 Y131.667 E11.8783
G1 X85.227 Y131.511 E11.89382
G1 X84.743 Y130.808 E11.96195
G1 X84.626 Y130.624 E11.97936
G1 X84.183 Y129.868 E12.0493
G1 X84.106 Y129.726 E12.06219
G1 X83.697 Y128.894 E12.1362
G1 X83.647 Y128.781 E12.14606
G1 X83.298 Y127.917 E12.22045
G1 X83.242 Y127.759 E12.23383
G1 X82.97 Y126.911 E12.30491
G1 X82.928 Y126.761 E12.31735
G1 X82.712 Y125.873 E12.3903
G1 X82.683 Y125.73 E12.40195
G1 X82.533 Y124.824 E12.47525
G1 X82.511 Y124.652 E12.48909
G1 X82.428 Y123.753 E12.56116
G1 X82.421 Y123.616 E12.57211
G1 X82.4 Y122.883 E12.63065
G1 X82.4 Y97.131 E14.68628
G1 X82.436 Y96.125 E14.76664
G1 X82.446 Y95.99 E14.77744
G1 X82.547 Y95.075 E14.85093
G1 X82.573 Y94.9 E14.86505
G1 X82.735 Y94.02 E14.93647
G1 X82.765 Y93.886 E14.94744
G1 X82.996 Y93 E15.02052
G1 X83.048 Y92.829 E15.03479
G1 X83.334 Y91.987 E15.10577
G1 X83.398 Y91.821 E15.11998
G1 X83.739 Y91.018 E15.18962
G1 X83.82 Y90.843 E15.20501
G1 X84.235 Y90.035 E15.27752
G1 X84.302 Y89.918 E15.28828
G1 X84.776 Y89.139 E15.36107
G1 X84.876 Y88.988 E15.37553
G1 X85.392 Y88.267 E15.4463
G1 X85.5 Y88.126 E15.46048
G1 X86.077 Y87.434 E15.5324
G1 X86.173 Y87.326 E15.54393
G1 X86.655 Y86.814 E15.60006
G0 F9000 X86.4 Y87.084
G1 F1350 X86.4 Y132.91 E19.25809
G0 F9000 X88 Y134.394
G1 F1350 X88 Y85.609 E23.15232
G0 F9000 X89.6 Y84.494
G1 F1350 X89.6 Y135.504 E27.22416
G0 F9000 X91.2 Y136.338
G1 F1350 X91.2 Y83.655 E31.42955
G0 F9000 X92.8 Y83.062
G1 F1350 X92.8 Y136.942 E35.73048
G0 F9000 X94.4 Y137.335
G1 F1350 X94.4 Y82.661 E40.0948
G0 F9000 X96 Y82.45
G1 F1350 X96 Y137.554 E44.49344
G0 F9000 X97.6 Y137.599
G1 F1350 X97.6 Y82.401 E48.89958
G0 F9000 X99.2 Y82.401
G1 F1350 X99.2 Y137.599 E53.30572
G0 F9000 X100.8 Y137.599
G1 F1350 X100.8 Y82.401 E57.71187
G0 F9000 X102.4 Y82.401
G1 F1350 X102.4 Y137.599 E62.11801
G0 F9000 X104 Y137.599
G1 F1350 X104 Y82.401 E66.52415
G0 F9000 X105.6 Y82.401
G1 F1350 X105.6 Y137.599 E70.93029
G0 F9000 X107.2 Y137.599
G1 F1350 X107.2 Y82.401 E75.33644
G0 F9000 X108.8 Y82.401
G1 F1350 X108.8 Y137.599 E79.74258
G0 F9000 X110.4 Y137.599
G1 F1350 X110.4 Y82.401 E84.14872
G0 F9000 X112 Y82.401
G1 F1350 X112 Y137.599 E88.55487
G0 F9000 X113.6 Y137.599
G1 F1350 X113.6 Y82.401 E92.96101
G0 F9000 X115.2 Y82.401
G1 F1350 X115.2 Y137.599 E97.36715
G0 F9000 X116.8 Y137.599
G1 F1350 X116.8 Y82.401 E101.7733
G0 F9000 X118.4 Y82.401
G1 F1350 X118.4 Y137.599 E106.17944
G0 F9000 X120 Y137.599
G1 F1350 X120 Y82.401 E110.58558
G0 F9000 X121.6 Y82.401
G1 F1350 X121.6 Y137.599 E114.99172
G0 F9000 X123.2 Y137.591
G1 F1350 X123.2 Y82.413 E119.39627
G0 F9000 X124.8 Y82.534
G1 F1350 X124.8 Y137.47 E123.7815
G0 F9000 X126.4 Y137.16
G1 F1350 X126.4 Y82.84 E128.11756
G0 F9000 X128 Y83.33
G1 F1350 X128 Y136.669 E132.37531
G0 F9000 X129.6 Y135.956
G1 F1350 X129.6 Y84.048 E136.51883
G0 F9000 X131.2 Y85.011
G1 F1350 X131.2 Y134.988 E140.50821
G0 F9000 X132.8 Y133.703
G1 F1350 X132.8 Y86.292 E144.29276
G0 F9000 X134.4 Y88.013
G1 F1350 X134.4 Y131.994 E147.80351
G0 F9000 X136 Y129.508
G1 F1350 X136 Y90.489 E150.91818
G1 F1500 E144.41818
G0 F9000 X136.836 Y89.778
G0 X136.149 Y88.61
G0 X134.922 Y86.963
G0 X133.398 Y85.392
G0 X132.364 Y84.534
G0 X130.626 Y83.387
G0 X129.421 Y82.769
G0 X127.503 Y82.036
G0 X126.199 Y81.694
G0 X124.114 Y81.387
G0 X122.87 Y81.336
G0 X96.161 Y81.368
G0 X94.084 Y81.634
G0 X92.775 Y81.953
G0 X90.81 Y82.665
G0 X89.615 Y83.253
G0 X87.863 Y84.366
G0 X86.806 Y85.212
G0 X85.274 Y86.734
G0 X84.004 Y88.378
G0 X84.8 Y89.102
G1 F1500 E150.91818
G1 F1350 X84.8 Y130.89 E154.25388
G0 F9000 X83.2 Y127.628
G1 F1350 X83.2 Y92.381 E157.06745
G1 F1500 E150.56745
G0 F300 X83.2 Y92.381 Z0.54
G0 F9000 X82.036 Y92.496
G0 X81.694 Y93.801
G0 X81.387 Y95.886
G0 X81.336 Y97.106
G0 X81.368 Y123.839
G0 X81.634 Y125.915
G0 X81.953 Y127.225
G0 X82.529 Y128.816
G0 X83.151 Y130.195
G0 X84.106 Y129.725
;TIME_ELAPSED:98.621785
;LAYER:-5
;TYPE:SUPPORT
G1 F1500 E157.06745
G1 F1350 X84.182 Y129.867 E157.08352
G1 X84.625 Y130.623 E157.17095
G1 X84.743 Y130.806 E157.19267
G1 X85.226 Y131.509 E157.27778
G1 X85.342 Y131.666 E157.29726
G1 X85.892 Y132.352 E157.38499
G1 X86.009 Y132.489 E157.40297
G1 X86.653 Y133.182 E157.49736
G1 X86.813 Y133.344 E157.52008
G1 X87.325 Y133.826 E157.59025
G1 X87.434 Y133.922 E157.60474
G1 X88.126 Y134.499 E157.69464
G1 X88.273 Y134.611 E157.71308
G1 X88.987 Y135.123 E157.80075
G1 X89.138 Y135.223 E157.81882
G1 X89.917 Y135.697 E157.90981
G1 X90.035 Y135.763 E157.9233
G1 X90.828 Y136.172 E158.01233
G1 X90.994 Y136.248 E158.03054
G1 X83.752 Y129.007 E159.0524
G1 X83.696 Y128.893 E159.06507
G1 X83.647 Y128.78 E159.07736
G1 X83.297 Y127.916 E159.17038
G1 X83.242 Y127.758 E159.18707
G1 X82.97 Y126.91 E159.27593
G1 X82.93 Y126.771 E159.29036
G1 X93.219 Y137.059 E160.74218
G1 X93.886 Y137.234 E160.81099
G1 X94.008 Y137.262 E160.82348
G1 X94.897 Y137.426 E160.91368
G1 X95.016 Y137.443 E160.92567
G1 X82.559 Y124.986 E162.68349
G1 X82.532 Y124.823 E162.69997
G1 X82.51 Y124.651 E162.71728
G1 X82.427 Y123.752 E162.80736
G1 X82.421 Y123.615 E162.82104
G1 X82.415 Y123.427 E162.83981
G1 X96.566 Y137.578 E164.83667
G1 X97.114 Y137.598 E164.89139
G1 X98 Y137.598 E164.97979
G1 X82.399 Y121.997 E167.18126
G1 X82.399 Y120.583 E167.32235
G1 X99.414 Y137.598 E169.72335
G1 X100.829 Y137.598 E169.86454
G1 X82.399 Y119.169 E172.46514
G1 X82.399 Y117.755 E172.60623
G1 X102.243 Y137.598 E175.40636
G1 X103.657 Y137.598 E175.54745
G1 X82.399 Y116.34 E178.54719
G1 X82.399 Y114.926 E178.68828
G1 X105.071 Y137.598 E181.88754
G1 X106.486 Y137.598 E182.02873
G1 X82.399 Y113.512 E185.4276
G1 X82.399 Y112.098 E185.56869
G1 X107.9 Y137.598 E189.16708
G1 X109.314 Y137.598 E189.30817
G1 X82.399 Y110.684 E193.1061
G1 X82.399 Y109.269 E193.24729
G1 X110.728 Y137.598 E197.24481
G1 X112.142 Y137.598 E197.3859
G1 X82.399 Y107.855 E201.58296
G1 X82.399 Y106.441 E201.72405
G1 X113.557 Y137.598 E206.12071
G1 X114.971 Y137.598 E206.2618
G1 X82.399 Y105.027 E210.85799
G1 X82.399 Y103.613 E210.99908
G1 X116.385 Y137.598 E215.7948
G1 X117.799 Y137.598 E215.93589
G1 X82.399 Y102.198 E220.93121
G1 X82.399 Y100.784 E221.0723
G1 X119.213 Y137.598 E226.26716
G1 X120.628 Y137.598 E226.40835
G1 X82.399 Y99.37 E231.8028
G1 X82.399 Y97.956 E231.94389
G1 X122.042 Y137.598 E237.53788
G1 X122.874 Y137.599 E237.62089
G1 X123.441 Y137.583 E237.67749
G1 X82.419 Y96.561 E243.46614
G1 X82.435 Y96.124 E243.50977
G1 X82.445 Y95.989 E243.52328
G1 X82.526 Y95.254 E243.59706
G1 X124.747 Y137.475 E249.5549
G1 X124.829 Y137.465 E249.56314
G1 X125.722 Y137.317 E249.65346
G1 X125.884 Y137.284 E249.66996
G1 X125.953 Y137.267 E249.67705
G1 X82.73 Y94.043 E255.77635
G1 X82.735 Y94.019 E255.7788
G1 X82.765 Y93.885 E255.7925
G1 X82.995 Y92.998 E255.88393
G1 X83.019 Y92.918 E255.89227
G1 X127.076 Y136.975 E262.10918
G1 X127.762 Y136.755 E262.18107
G1 X127.926 Y136.697 E262.19842
G1 X128.129 Y136.614 E262.22031
G1 X83.379 Y91.865 E268.53495
G1 X83.398 Y91.819 E268.53991
G1 X83.738 Y91.017 E268.62683
G1 X83.804 Y90.875 E268.64245
G1 X129.119 Y136.19 E275.03689
G1 X129.725 Y135.893 E275.10423
G1 X129.867 Y135.816 E275.12035
G1 X130.051 Y135.707 E275.14169
G1 X84.286 Y89.943 E281.59955
G1 X84.301 Y89.917 E281.60255
G1 X84.775 Y89.138 E281.69353
G1 X84.823 Y89.065 E281.70225
G1 X130.929 Y135.171 E288.20831
G1 X131.523 Y134.764 E288.28015
G1 X131.661 Y134.66 E288.2974
G1 X131.755 Y134.584 E288.30946
G1 X85.411 Y88.239 E294.84917
G1 X85.5 Y88.125 E294.8636
G1 X86.049 Y87.464 E294.94933
G1 X132.533 Y133.947 E301.50866
G1 X133.188 Y133.341 E301.5977
G1 X133.264 Y133.264 E301.60849
G1 X86.734 Y86.734 E308.17438
G1 X86.81 Y86.658 E308.1851
G1 X87.465 Y86.051 E308.27421
G1 X133.949 Y132.535 E314.8336
G1 X134.498 Y131.874 E314.91934
G1 X134.587 Y131.759 E314.93385
G1 X88.243 Y85.414 E321.47356
G1 X88.337 Y85.339 E321.48556
G1 X88.476 Y85.234 E321.50294
G1 X89.069 Y84.827 E321.5747
G1 X135.176 Y130.933 E328.08083
G1 X135.223 Y130.86 E328.08949
G1 X135.697 Y130.081 E328.18048
G1 X135.712 Y130.055 E328.18347
G1 X89.948 Y84.291 E334.64127
G1 X90.131 Y84.183 E334.66247
G1 X90.273 Y84.106 E334.67859
G1 X90.879 Y83.808 E334.74597
G1 X136.195 Y129.124 E341.14055
G1 X136.26 Y128.981 E341.15622
G1 X136.601 Y128.179 E341.24318
G1 X136.619 Y128.134 E341.24802
G1 X91.87 Y83.384 E347.56265
G1 X92.068 Y83.304 E347.58396
G1 X92.24 Y83.242 E347.6022
G1 X92.923 Y83.023 E347.67377
G1 X136.979 Y127.079 E353.89055
G1 X137.003 Y126.999 E353.89888
G1 X137.233 Y126.113 E353.99022
G1 X137.264 Y125.98 E354.00385
G1 X137.269 Y125.955 E354.00639
G1 X94.045 Y82.732 E360.10569
G1 X94.115 Y82.715 E360.11288
G1 X94.277 Y82.681 E360.1294
G1 X95.17 Y82.534 E360.2197
G1 X95.251 Y82.523 E360.22786
G1 X137.471 Y124.743 E366.18555
G1 X137.553 Y124.009 E366.25925
G1 X137.563 Y123.875 E366.27266
G1 X137.579 Y123.437 E366.31639
G1 X96.558 Y82.416 E372.1049
G1 X97.124 Y82.399 E372.1614
G1 X97.956 Y82.4 E372.24441
G1 X137.599 Y122.043 E377.83847
G1 X137.599 Y120.628 E377.97966
G1 X99.371 Y82.4 E383.37404
G1 X100.785 Y82.4 E383.51513
G1 X137.599 Y119.214 E388.70999
G1 X137.599 Y117.8 E388.85108
G1 X102.199 Y82.4 E393.8464
G1 X103.613 Y82.4 E393.98749
G1 X137.599 Y116.386 E398.78328
G1 X137.599 Y114.972 E398.92437
G1 X105.027 Y82.4 E403.52063
G1 X106.442 Y82.4 E403.66182
G1 X137.599 Y113.557 E408.05841
G1 X137.599 Y112.143 E408.1995
G1 X107.856 Y82.4 E412.39656
G1 X109.27 Y82.4 E412.53765
G1 X137.599 Y110.729 E416.53517
G1 X137.599 Y109.315 E416.67626
G1 X110.684 Y82.4 E420.47426
G1 X112.099 Y82.4 E420.61545
G1 X137.599 Y107.9 E424.21377
G1 X137.599 Y106.486 E424.35486
G1 X113.513 Y82.4 E427.75366
G1 X114.927 Y82.4 E427.89475
G1 X137.599 Y105.072 E431.09401
G1 X137.599 Y103.658 E431.2351
G1 X116.341 Y82.4 E434.23484
G1 X117.755 Y82.4 E434.37593
G1 X137.599 Y102.244 E437.17613
G1 X137.599 Y100.829 E437.31732
G1 X119.17 Y82.4 E439.91785
G1 X120.584 Y82.4 E440.05894
G1 X137.599 Y99.415 E442.45994
G1 X137.599 Y98.001 E442.60103
G1 X121.998 Y82.4 E444.8025
G1 X122.885 Y82.4 E444.891
G1 X123.433 Y82.421 E444.94572
G1 X137.583 Y96.571 E446.94244
G1 X137.578 Y96.383 E446.96121
G1 X137.569 Y96.231 E446.9764
G1 X137.488 Y95.347 E447.06497
G1 X137.464 Y95.162 E447.08359
G1 X137.439 Y95.013 E447.09866
G1 X124.982 Y82.556 E448.85648
G1 X125.101 Y82.573 E448.86847
G1 X125.99 Y82.736 E448.95866
G1 X126.113 Y82.764 E448.97125
G1 X126.78 Y82.939 E449.04005
G1 X137.069 Y93.228 E450.49194
G1 X137.024 Y93.072 E450.50814
G1 X136.753 Y92.23 E450.5964
G1 X136.694 Y92.064 E450.61398
G1 X136.352 Y91.218 E450.70503
G1 X136.291 Y91.081 E450.71999
G1 X136.247 Y90.992 E450.7299
G1 X129.005 Y83.75 E451.75182
G1 X129.17 Y83.826 E451.76995
G1 X129.964 Y84.235 E451.85907
G1 X130.081 Y84.301 E451.87247
G1 X130.86 Y84.775 E451.96346
G1 X131.011 Y84.875 E451.98153
G1 X131.725 Y85.387 E452.0692
G1 X131.873 Y85.499 E452.08772
G1 X132.564 Y86.076 E452.17754
G1 X132.673 Y86.172 E452.19204
G1 X133.185 Y86.655 E452.26227
G1 X133.305 Y86.774 E452.27913
G1 X133.987 Y87.507 E452.37903
G1 X134.106 Y87.646 E452.39729
G1 X134.66 Y88.338 E452.48574
G1 X134.763 Y88.476 E452.50292
G1 X135.256 Y89.192 E452.58966
G1 X135.373 Y89.376 E452.61142
G1 X135.813 Y90.124 E452.69801
G1 X135.886 Y90.259 E452.71332
G1 F1500 E446.21332
G0 F300 X135.886 Y90.259 Z0.74
