;FLAVOR:Marlin
;TIME:46309
;Filament used: 33.7m
;Layer height: 0.2
;MINX:52.2
;MINY:45.999
;MINZ:0.2
;MAXX:167.8
;MAXY:168.007
;MAXZ:40
;Generated with Cura_SteamEngine 4.12.1
M140 S60
M105
M190 S60
M104 S200
M105
M109 S200
M82 ;absolute extrusion mode
; Ender 3 Custom Start G-code
G92 E0 ; Reset Extruder
G28 ; Home all axes
G1 Z2.0 F3000 ; Move Z Axis up little to prevent scratching of Heat Bed
G1 X0.1 Y20 Z0.3 F5000.0 ; Move to start position
G1 X0.1 Y200.0 Z0.3 F1500.0 E15 ; Draw the first line
G1 X0.4 Y200.0 Z0.3 F5000.0 ; Move to side a little
G1 X0.4 Y20 Z0.3 F1500.0 E30 ; Draw the second line
G92 E0 ; Reset Extruder
G1 Z2.0 F3000 ; Move Z Axis up little to prevent scratching of Heat Bed
G1 X5 Y20 Z0.3 F5000.0 ; Move over to prevent blob squish
G92 E0
G92 E0
G1 F1500 E-6.5
;LAYER_COUNT:200
;LAYER:0
M107
G0 F6000 X54.08 Y48.838 Z0.2
;TYPE:SKIRT
G1 F1500 E0
G1 F1200 X54.485 Y48.401 E0.01982
G1 X54.602 Y48.284 E0.02532
G1 X55.188 Y47.754 E0.0516
G1 X55.824 Y47.287 E0.07784
G1 X56.504 Y46.886 E0.1041
G1 X57.222 Y46.556 E0.13038
G1 X57.969 Y46.301 E0.15664
G1 X58.738 Y46.122 E0.1829
G1 X59.522 Y46.022 E0.20918
G1 X60.117 Y45.999 E0.22899
G1 X159.883 Y45.999 E3.54722
G1 X160.672 Y46.039 E3.57349
G1 X161.452 Y46.158 E3.59974
G1 X162.217 Y46.356 E3.62602
G1 X162.957 Y46.63 E3.65227
G1 X163.666 Y46.978 E3.67853
G1 X164.337 Y47.396 E3.70483
G1 X164.961 Y47.879 E3.73107
G1 X165.398 Y48.284 E3.75089
G1 X165.515 Y48.401 E3.75639
G1 X166.045 Y48.987 E3.78267
G1 X166.512 Y49.623 E3.80892
G1 X166.913 Y50.303 E3.83517
G1 X167.243 Y51.021 E3.86146
G1 X167.498 Y51.768 E3.88771
G1 X167.677 Y52.537 E3.91397
G1 X167.777 Y53.321 E3.94026
G1 X167.8 Y53.916 E3.96006
G1 X167.8 Y103.682 E5.61529
G1 X167.76 Y104.471 E5.64156
G1 X167.641 Y105.251 E5.6678
G1 X167.443 Y106.016 E5.69409
G1 X167.169 Y106.756 E5.72033
G1 X167.047 Y107.004 E5.72952
G1 X167.243 Y107.429 E5.74509
G1 X167.498 Y108.176 E5.77134
G1 X167.677 Y108.945 E5.7976
G1 X167.777 Y109.729 E5.82389
G1 X167.8 Y110.324 E5.8437
G1 X167.8 Y160.09 E7.49892
G1 X167.76 Y160.879 E7.5252
G1 X167.641 Y161.659 E7.55144
G1 X167.443 Y162.424 E7.57772
G1 X167.169 Y163.164 E7.60397
G1 X166.821 Y163.873 E7.63024
G1 X166.403 Y164.544 E7.65653
G1 X165.92 Y165.168 E7.68278
G1 X165.515 Y165.605 E7.70259
G1 X165.398 Y165.722 E7.7081
G1 X164.812 Y166.252 E7.73438
G1 X164.176 Y166.719 E7.76062
G1 X163.496 Y167.12 E7.78688
G1 X162.778 Y167.45 E7.81316
G1 X162.031 Y167.705 E7.83941
G1 X161.262 Y167.884 E7.86567
G1 X160.478 Y167.984 E7.89196
G1 X159.883 Y168.007 E7.91176
G1 X60.117 Y168.007 E11.22999
G1 X59.328 Y167.967 E11.25627
G1 X58.548 Y167.848 E11.28251
G1 X57.783 Y167.65 E11.3088
G1 X57.043 Y167.376 E11.33504
G1 X56.334 Y167.028 E11.36131
G1 X55.663 Y166.61 E11.3876
G1 X55.039 Y166.127 E11.41385
G1 X54.602 Y165.722 E11.43367
G1 X54.485 Y165.605 E11.43917
G1 X53.955 Y165.019 E11.46545
G1 X53.488 Y164.383 E11.49169
G1 X53.087 Y163.703 E11.51795
G1 X52.757 Y162.985 E11.54423
G1 X52.502 Y162.238 E11.57048
G1 X52.323 Y161.469 E11.59675
G1 X52.223 Y160.685 E11.62303
G1 X52.2 Y160.09 E11.64284
G1 X52.2 Y110.324 E13.29806
G1 X52.24 Y109.535 E13.32434
G1 X52.359 Y108.755 E13.35058
G1 X52.557 Y107.99 E13.37686
G1 X52.831 Y107.25 E13.40311
G1 X52.953 Y107.002 E13.4123
G1 X52.757 Y106.577 E13.42787
G1 X52.502 Y105.83 E13.45412
G1 X52.323 Y105.061 E13.48038
G1 X52.223 Y104.277 E13.50667
G1 X52.2 Y103.682 E13.52647
G1 X52.2 Y53.916 E15.1817
G1 X52.24 Y53.127 E15.20797
G1 X52.359 Y52.347 E15.23422
G1 X52.557 Y51.582 E15.2605
G1 X52.831 Y50.842 E15.28674
G1 X53.179 Y50.133 E15.31301
G1 X53.597 Y49.462 E15.33931
G1 X54.08 Y48.838 E15.36555
G0 F6000 X54.475 Y48.993
G1 F1200 X54.767 Y48.683 E15.37972
G1 X54.884 Y48.566 E15.38522
G1 X55.456 Y48.052 E15.4108
G1 X56.078 Y47.599 E15.43639
G1 X56.743 Y47.213 E15.46196
G1 X57.445 Y46.898 E15.48755
G1 X58.176 Y46.658 E15.51314
G1 X58.927 Y46.495 E15.5387
G1 X59.692 Y46.411 E15.5643
G1 X60.117 Y46.399 E15.57844
G1 X159.883 Y46.399 E18.89667
G1 X160.651 Y46.439 E18.92225
G1 X161.411 Y46.558 E18.94784
G1 X162.154 Y46.756 E18.97341
G1 X162.873 Y47.03 E18.999
G1 X163.559 Y47.377 E19.02457
G1 X164.206 Y47.793 E19.05016
G1 X164.806 Y48.274 E19.07573
G1 X165.116 Y48.566 E19.0899
G1 X165.233 Y48.683 E19.0954
G1 X165.747 Y49.255 E19.12098
G1 X166.2 Y49.877 E19.14657
G1 X166.586 Y50.542 E19.17215
G1 X166.901 Y51.244 E19.19774
G1 X167.141 Y51.975 E19.22333
G1 X167.304 Y52.726 E19.24889
G1 X167.388 Y53.491 E19.27448
G1 X167.4 Y53.916 E19.28863
G1 X167.4 Y103.682 E20.94385
G1 X167.36 Y104.45 E20.96943
G1 X167.241 Y105.21 E20.99501
G1 X167.043 Y105.953 E21.02059
G1 X166.769 Y106.672 E21.04618
G1 X166.606 Y106.994 E21.05818
G1 X166.901 Y107.652 E21.08217
G1 X167.141 Y108.383 E21.10776
G1 X167.304 Y109.134 E21.13332
G1 X167.388 Y109.899 E21.15891
G1 X167.4 Y110.324 E21.17306
G1 X167.4 Y160.09 E22.82828
G1 X167.36 Y160.858 E22.85386
G1 X167.241 Y161.618 E22.87944
G1 X167.043 Y162.361 E22.90502
G1 X166.769 Y163.08 E22.93061
G1 X166.422 Y163.766 E22.95618
G1 X166.006 Y164.413 E22.98176
G1 X165.525 Y165.013 E23.00734
G1 X165.233 Y165.323 E23.0215
G1 X165.116 Y165.44 E23.02701
G1 X164.544 Y165.954 E23.05259
G1 X163.922 Y166.407 E23.07818
G1 X163.257 Y166.793 E23.10375
G1 X162.555 Y167.108 E23.12934
G1 X161.824 Y167.348 E23.15493
G1 X161.073 Y167.511 E23.18049
G1 X160.308 Y167.595 E23.20609
G1 X159.883 Y167.607 E23.22023
G1 X60.117 Y167.607 E26.53846
G1 X59.349 Y167.567 E26.56404
G1 X58.589 Y167.448 E26.58963
G1 X57.846 Y167.25 E26.6152
G1 X57.127 Y166.976 E26.64079
G1 X56.441 Y166.629 E26.66636
G1 X55.794 Y166.213 E26.69195
G1 X55.194 Y165.732 E26.71752
G1 X54.884 Y165.44 E26.73169
G1 X54.767 Y165.323 E26.73719
G1 X54.253 Y164.751 E26.76277
G1 X53.8 Y164.129 E26.78836
G1 X53.414 Y163.464 E26.81393
G1 X53.099 Y162.762 E26.83953
G1 X52.859 Y162.031 E26.86512
G1 X52.696 Y161.28 E26.89068
G1 X52.612 Y160.515 E26.91627
G1 X52.6 Y160.09 E26.93041
G1 X52.6 Y110.324 E28.58564
G1 X52.64 Y109.556 E28.61122
G1 X52.759 Y108.796 E28.6368
G1 X52.957 Y108.053 E28.66238
G1 X53.231 Y107.334 E28.68797
G1 X53.394 Y107.012 E28.69997
G1 X53.099 Y106.354 E28.72396
G1 X52.859 Y105.623 E28.74955
G1 X52.696 Y104.872 E28.77511
G1 X52.612 Y104.107 E28.8007
G1 X52.6 Y103.682 E28.81484
G1 X52.6 Y53.916 E30.47007
G1 X52.64 Y53.148 E30.49565
G1 X52.759 Y52.388 E30.52123
G1 X52.957 Y51.645 E30.54681
G1 X53.231 Y50.926 E30.5724
G1 X53.578 Y50.24 E30.59797
G1 X53.994 Y49.593 E30.62355
G1 X54.475 Y48.993 E30.64913
G0 F6000 X54.392 Y49.727
G1 F1200 X55.05 Y48.966 E30.68259
G1 X55.167 Y48.849 E30.68809
G1 X55.724 Y48.349 E30.71299
G1 X56.33 Y47.912 E30.73784
G1 X56.98 Y47.541 E30.76273
G1 X57.666 Y47.242 E30.78762
G1 X58.38 Y47.018 E30.81251
G1 X59.113 Y46.871 E30.83737
G1 X60.117 Y46.799 E30.87085
G1 X159.883 Y46.799 E34.18908
G1 X160.63 Y46.839 E34.21396
G1 X161.368 Y46.958 E34.23883
G1 X162.09 Y47.156 E34.26373
G1 X162.786 Y47.429 E34.28859
G1 X163.449 Y47.776 E34.31348
G1 X164.072 Y48.191 E34.33838
G1 X164.833 Y48.849 E34.37184
G1 X164.95 Y48.966 E34.37734
G1 X165.45 Y49.523 E34.40224
G1 X165.887 Y50.129 E34.42709
G1 X166.258 Y50.779 E34.45198
G1 X166.557 Y51.465 E34.47687
G1 X166.781 Y52.179 E34.50176
G1 X166.928 Y52.912 E34.52663
G1 X167 Y53.916 E34.5601
G1 X167 Y103.682 E36.21533
G1 X166.96 Y104.429 E36.24021
G1 X166.841 Y105.167 E36.26507
G1 X166.643 Y105.889 E36.28997
G1 X166.37 Y106.585 E36.31484
G1 X166.152 Y107.001 E36.33046
G1 X166.258 Y107.187 E36.33758
G1 X166.557 Y107.873 E36.36247
G1 X166.781 Y108.587 E36.38736
G1 X166.928 Y109.32 E36.41222
G1 X167 Y110.324 E36.4457
G1 X167 Y160.09 E38.10093
G1 X166.96 Y160.837 E38.12581
G1 X166.841 Y161.575 E38.15067
G1 X166.643 Y162.297 E38.17557
G1 X166.37 Y162.993 E38.20044
G1 X166.023 Y163.656 E38.22533
G1 X165.608 Y164.279 E38.25022
G1 X164.95 Y165.04 E38.28368
G1 X164.833 Y165.157 E38.28919
G1 X164.276 Y165.657 E38.31408
G1 X163.67 Y166.094 E38.33893
G1 X163.02 Y166.465 E38.36383
G1 X162.334 Y166.764 E38.38871
G1 X161.62 Y166.988 E38.4136
G1 X160.887 Y167.135 E38.43847
G1 X159.883 Y167.207 E38.47195
G1 X60.117 Y167.207 E41.79018
G1 X59.37 Y167.167 E41.81506
G1 X58.632 Y167.048 E41.83992
G1 X57.91 Y166.85 E41.86482
G1 X57.214 Y166.577 E41.88969
G1 X56.551 Y166.23 E41.91458
G1 X55.928 Y165.815 E41.93948
G1 X55.167 Y165.157 E41.97294
G1 X55.05 Y165.04 E41.97844
G1 X54.55 Y164.483 E42.00333
G1 X54.113 Y163.877 E42.02818
G1 X53.742 Y163.227 E42.05308
G1 X53.443 Y162.541 E42.07797
G1 X53.219 Y161.827 E42.10286
G1 X53.072 Y161.094 E42.12772
G1 X53 Y160.09 E42.1612
G1 X53 Y110.324 E43.81642
G1 X53.04 Y109.577 E43.8413
G1 X53.159 Y108.839 E43.86617
G1 X53.357 Y108.117 E43.89107
G1 X53.63 Y107.421 E43.91593
G1 X53.848 Y107.005 E43.93155
G1 X53.742 Y106.819 E43.93868
G1 X53.443 Y106.133 E43.96356
G1 X53.219 Y105.419 E43.98845
G1 X53.072 Y104.686 E44.01332
G1 X53 Y103.682 E44.0468
G1 X53 Y53.916 E45.70202
G1 X53.04 Y53.169 E45.7269
G1 X53.159 Y52.431 E45.75177
G1 X53.357 Y51.709 E45.77667
G1 X53.63 Y51.013 E45.80153
G1 X53.977 Y50.35 E45.82642
G1 X54.392 Y49.727 E45.85132
G0 F6000 X54.789 Y49.866
G1 F1200 X55.333 Y49.249 E45.87868
G1 X55.45 Y49.132 E45.88418
G1 X55.991 Y48.648 E45.90832
G1 X56.582 Y48.225 E45.9325
G1 X57.216 Y47.871 E45.95665
G1 X57.885 Y47.588 E45.98081
G1 X58.581 Y47.38 E46.00497
G1 X59.296 Y47.25 E46.02914
G1 X60.117 Y47.199 E46.0565
G1 X159.883 Y47.199 E49.37473
G1 X160.608 Y47.239 E49.39888
G1 X161.325 Y47.358 E49.42305
G1 X162.024 Y47.556 E49.44722
G1 X162.697 Y47.829 E49.47137
G1 X163.336 Y48.174 E49.49553
G1 X163.933 Y48.588 E49.51969
G1 X164.55 Y49.132 E49.54705
G1 X164.667 Y49.249 E49.55255
G1 X165.151 Y49.79 E49.5767
G1 X165.574 Y50.381 E49.60087
G1 X165.928 Y51.015 E49.62502
G1 X166.211 Y51.684 E49.64918
G1 X166.419 Y52.38 E49.67334
G1 X166.549 Y53.095 E49.69751
G1 X166.6 Y53.916 E49.72487
G1 X166.6 Y103.682 E51.38009
G1 X166.56 Y104.407 E51.40425
G1 X166.441 Y105.124 E51.42842
G1 X166.243 Y105.823 E51.45258
G1 X165.97 Y106.496 E51.47674
G1 X165.695 Y107.006 E51.49601
G1 X165.928 Y107.423 E51.5119
G1 X166.211 Y108.092 E51.53606
G1 X166.419 Y108.788 E51.56022
G1 X166.549 Y109.503 E51.58439
G1 X166.6 Y110.324 E51.61175
G1 X166.6 Y160.09 E53.26697
G1 X166.56 Y160.815 E53.29112
G1 X166.441 Y161.532 E53.3153
G1 X166.243 Y162.231 E53.33946
G1 X165.97 Y162.904 E53.36362
G1 X165.625 Y163.543 E53.38777
G1 X165.211 Y164.14 E53.41193
G1 X164.667 Y164.757 E53.43929
G1 X164.55 Y164.874 E53.44479
G1 X164.009 Y165.358 E53.46894
G1 X163.418 Y165.781 E53.49311
G1 X162.784 Y166.135 E53.51726
G1 X162.115 Y166.418 E53.54142
G1 X161.419 Y166.626 E53.56558
G1 X160.704 Y166.756 E53.58975
G1 X159.883 Y166.807 E53.61711
G1 X60.117 Y166.807 E56.93534
G1 X59.392 Y166.767 E56.95949
G1 X58.675 Y166.648 E56.98367
G1 X57.976 Y166.45 E57.00783
G1 X57.303 Y166.177 E57.03199
G1 X56.664 Y165.832 E57.05614
G1 X56.067 Y165.418 E57.0803
G1 X55.45 Y164.874 E57.10766
G1 X55.333 Y164.757 E57.11317
G1 X54.849 Y164.216 E57.13731
G1 X54.426 Y163.625 E57.16148
G1 X54.072 Y162.991 E57.18563
G1 X53.789 Y162.322 E57.20979
G1 X53.581 Y161.626 E57.23395
G1 X53.451 Y160.911 E57.25812
G1 X53.4 Y160.09 E57.28548
G1 X53.4 Y110.324 E58.94071
G1 X53.44 Y109.599 E58.96486
G1 X53.559 Y108.882 E58.98903
G1 X53.757 Y108.183 E59.0132
G1 X54.03 Y107.51 E59.03735
G1 X54.305 Y107 E59.05662
G1 X54.072 Y106.583 E59.07251
G1 X53.789 Y105.914 E59.09667
G1 X53.581 Y105.218 E59.12083
G1 X53.451 Y104.503 E59.145
G1 X53.4 Y103.682 E59.17236
G1 X53.4 Y53.916 E60.82758
G1 X53.44 Y53.191 E60.85173
G1 X53.559 Y52.474 E60.87591
G1 X53.757 Y51.775 E60.90007
G1 X54.03 Y51.102 E60.92423
G1 X54.375 Y50.463 E60.94838
G1 X54.789 Y49.866 E60.97254
G0 F6000 X55.185 Y50.01
G1 F1200 X55.616 Y49.532 E60.99395
G1 X55.733 Y49.415 E60.99945
G1 X56.258 Y48.946 E61.02287
G1 X56.833 Y48.54 E61.04628
G1 X57.451 Y48.202 E61.06971
G1 X58.102 Y47.935 E61.09311
G1 X58.78 Y47.745 E61.11653
G1 X59.475 Y47.632 E61.13995
G1 X60.117 Y47.599 E61.16133
G1 X159.883 Y47.599 E64.47956
G1 X160.586 Y47.639 E64.50298
G1 X161.28 Y47.758 E64.5264
G1 X161.955 Y47.956 E64.5498
G1 X162.604 Y48.228 E64.5732
G1 X163.218 Y48.573 E64.59663
G1 X163.789 Y48.984 E64.62003
G1 X164.267 Y49.415 E64.64143
G1 X164.384 Y49.532 E64.64694
G1 X164.853 Y50.057 E64.67035
G1 X165.259 Y50.632 E64.69376
G1 X165.597 Y51.25 E64.71719
G1 X165.864 Y51.901 E64.74059
G1 X166.054 Y52.579 E64.76401
G1 X166.167 Y53.274 E64.78743
G1 X166.2 Y53.916 E64.80881
G1 X166.2 Y103.682 E66.46404
G1 X166.16 Y104.385 E66.48746
G1 X166.041 Y105.079 E66.51088
G1 X165.843 Y105.754 E66.53427
G1 X165.571 Y106.403 E66.55768
G1 X165.233 Y107.004 E66.58061
G1 X165.259 Y107.04 E66.58209
G1 X165.597 Y107.658 E66.60552
G1 X165.864 Y108.309 E66.62892
G1 X166.054 Y108.987 E66.65234
G1 X166.167 Y109.682 E66.67576
G1 X166.2 Y110.324 E66.69714
G1 X166.2 Y160.09 E68.35236
G1 X166.16 Y160.793 E68.37578
G1 X166.041 Y161.487 E68.3992
G1 X165.843 Y162.162 E68.4226
G1 X165.571 Y162.811 E68.446
G1 X165.226 Y163.425 E68.46943
G1 X164.815 Y163.996 E68.49283
G1 X164.384 Y164.474 E68.51423
G1 X164.267 Y164.591 E68.51974
G1 X163.742 Y165.06 E68.54315
G1 X163.167 Y165.466 E68.56656
G1 X162.549 Y165.804 E68.58999
G1 X161.898 Y166.071 E68.61339
G1 X161.22 Y166.261 E68.63681
G1 X160.525 Y166.374 E68.66023
G1 X159.883 Y166.407 E68.68161
G1 X60.117 Y166.407 E71.99984
G1 X59.414 Y166.367 E72.02326
G1 X58.72 Y166.248 E72.04668
G1 X58.045 Y166.05 E72.07008
G1 X57.396 Y165.778 E72.09349
G1 X56.782 Y165.433 E72.11691
G1 X56.211 Y165.022 E72.14031
G1 X55.733 Y164.591 E72.16172
G1 X55.616 Y164.474 E72.16722
G1 X55.147 Y163.949 E72.19063
G1 X54.741 Y163.374 E72.21405
G1 X54.403 Y162.756 E72.23747
G1 X54.136 Y162.105 E72.26088
G1 X53.946 Y161.427 E72.2843
G1 X53.833 Y160.732 E72.30772
G1 X53.8 Y160.09 E72.3291
G1 X53.8 Y110.324 E73.98432
G1 X53.84 Y109.621 E74.00774
G1 X53.959 Y108.927 E74.03116
G1 X54.157 Y108.252 E74.05456
G1 X54.429 Y107.603 E74.07796
G1 X54.767 Y107.002 E74.10089
G1 X54.741 Y106.966 E74.10237
G1 X54.403 Y106.348 E74.1258
G1 X54.136 Y105.697 E74.1492
G1 X53.946 Y105.019 E74.17262
G1 X53.833 Y104.324 E74.19604
G1 X53.8 Y103.682 E74.21742
G1 X53.8 Y53.916 E75.87265
G1 X53.84 Y53.213 E75.89607
G1 X53.959 Y52.519 E75.91949
G1 X54.157 Y51.844 E75.94288
G1 X54.429 Y51.195 E75.96629
G1 X54.774 Y50.581 E75.98971
G1 X55.185 Y50.01 E76.01311
G0 F6000 X55.582 Y50.158
G1 F1200 X55.899 Y49.815 E76.02865
G1 X56.016 Y49.698 E76.03415
G1 X56.525 Y49.245 E76.05681
G1 X57.083 Y48.856 E76.07944
G1 X57.683 Y48.534 E76.10208
G1 X58.317 Y48.285 E76.12474
G1 X58.976 Y48.112 E76.1474
G1 X59.65 Y48.018 E76.17003
G1 X60.117 Y47.999 E76.18558
G1 X159.883 Y47.999 E79.50381
G1 X160.563 Y48.039 E79.52647
G1 X161.233 Y48.158 E79.5491
G1 X161.885 Y48.355 E79.57175
G1 X162.509 Y48.627 E79.59439
G1 X163.097 Y48.971 E79.61705
G1 X163.641 Y49.381 E79.63971
G1 X163.984 Y49.698 E79.65524
G1 X164.101 Y49.815 E79.66075
G1 X164.554 Y50.324 E79.68341
G1 X164.943 Y50.882 E79.70603
G1 X165.265 Y51.482 E79.72868
G1 X165.514 Y52.116 E79.75134
G1 X165.687 Y52.775 E79.774
G1 X165.781 Y53.449 E79.79663
G1 X165.8 Y53.916 E79.81218
G1 X165.8 Y103.682 E81.4674
G1 X165.76 Y104.362 E81.49006
G1 X165.641 Y105.032 E81.51269
G1 X165.444 Y105.684 E81.53534
G1 X165.172 Y106.308 E81.55798
G1 X164.828 Y106.896 E81.58064
G1 X164.745 Y107.006 E81.58522
G1 X164.943 Y107.29 E81.59674
G1 X165.265 Y107.89 E81.61939
G1 X165.514 Y108.524 E81.64204
G1 X165.687 Y109.183 E81.6647
G1 X165.781 Y109.857 E81.68734
G1 X165.8 Y110.324 E81.70288
G1 X165.8 Y160.09 E83.35811
G1 X165.76 Y160.77 E83.38076
G1 X165.641 Y161.44 E83.4034
G1 X165.444 Y162.092 E83.42605
G1 X165.172 Y162.716 E83.44869
G1 X164.828 Y163.304 E83.47135
G1 X164.418 Y163.848 E83.49401
G1 X164.101 Y164.191 E83.50954
G1 X163.984 Y164.308 E83.51504
G1 X163.475 Y164.761 E83.53771
G1 X162.917 Y165.15 E83.56033
G1 X162.317 Y165.472 E83.58298
G1 X161.683 Y165.721 E83.60563
G1 X161.024 Y165.894 E83.62829
G1 X160.35 Y165.988 E83.65093
G1 X159.883 Y166.007 E83.66647
G1 X60.117 Y166.007 E86.9847
G1 X59.437 Y165.967 E87.00736
G1 X58.767 Y165.848 E87.02999
G1 X58.115 Y165.651 E87.05265
G1 X57.491 Y165.379 E87.07529
