;FLAVOR:Marlin
;TIME:22870
;Filament used: 14.38m
;Layer height: 0.2
;MINX:77.214
;MINY:52.946
;MINZ:0.2
;MAXX:142.785
;MAXY:167.054
;MAXZ:106.6
;Generated with Cura_SteamEngine 4.12.1
M140 S60
M105
M190 S60
M104 S200
M105
M109 S200
M82 ;absolute extrusion mode
; Ender 3 Custom Start G-code
G92 E0 ; Reset Extruder
G28 ; Home all axes
G1 Z2.0 F3000 ; Move Z Axis up little to prevent scratching of Heat Bed
G1 X0.1 Y20 Z0.3 F5000.0 ; Move to start position
G1 X0.1 Y200.0 Z0.3 F1500.0 E15 ; Draw the first line
G1 X0.4 Y200.0 Z0.3 F5000.0 ; Move to side a little
G1 X0.4 Y20 Z0.3 F1500.0 E30 ; Draw the second line
G92 E0 ; Reset Extruder
G1 Z2.0 F3000 ; Move Z Axis up little to prevent scratching of Heat Bed
G1 X5 Y20 Z0.3 F5000.0 ; Move over to prevent blob squish
G92 E0
G92 E0
G1 F1500 E-6.5
;LAYER_COUNT:533
;LAYER:0
M107
G0 F6000 X79.788 Y72.734 Z0.2
;TYPE:SKIRT
G1 F1500 E0
G1 F1200 X80.446 Y72.015 E0.03242
G1 X80.565 Y71.896 E0.03801
G1 X81.256 Y71.262 E0.0692
G1 X81.868 Y70.782 E0.09507
G1 X82.631 Y70.228 E0.12644
G1 X83.463 Y69.64 E0.16032
G1 X85.484 Y68.123 E0.24437
G1 X87.455 Y66.554 E0.32816
G1 X89.376 Y64.934 E0.41174
G1 X91.252 Y63.26 E0.49536
G1 X93.092 Y61.522 E0.57955
G1 X94.866 Y59.747 E0.66302
G1 X96.596 Y57.918 E0.74675
G1 X97.502 Y56.909 E0.79185
G1 X97.863 Y56.52 E0.8095
G1 X98.532 Y55.862 E0.84071
G1 X99.254 Y55.264 E0.87189
G1 X100.025 Y54.73 E0.90309
G1 X100.838 Y54.263 E0.93427
G1 X101.689 Y53.867 E0.96549
G1 X102.284 Y53.641 E0.98666
G1 X102.508 Y53.563 E0.99455
G1 X103.406 Y53.292 E1.02575
G1 X104.324 Y53.1 E1.05694
G1 X105.254 Y52.986 E1.0881
G1 X105.991 Y52.952 E1.11264
G1 X106.534 Y52.946 E1.1307
G1 X113.321 Y52.946 E1.35644
G1 X114.18 Y52.957 E1.38501
G1 X115.116 Y53.01 E1.4162
G1 X116.044 Y53.143 E1.44738
G1 X116.958 Y53.355 E1.47858
G1 X117.851 Y53.643 E1.50979
G1 X118.715 Y54.007 E1.54097
G1 X119.546 Y54.443 E1.57219
G1 X120.336 Y54.948 E1.60337
G1 X121.08 Y55.518 E1.63454
G1 X121.768 Y56.145 E1.6655
G1 X121.885 Y56.261 E1.67098
G1 X122.235 Y56.624 E1.68776
G1 X122.714 Y57.147 E1.71134
G1 X123.71 Y58.263 E1.7611
G1 X125.45 Y60.105 E1.84537
G1 X127.222 Y61.877 E1.92872
G1 X129.04 Y63.596 E2.01194
G1 X130.934 Y65.287 E2.09639
G1 X132.855 Y66.907 E2.17997
G1 X134.832 Y68.483 E2.26406
G1 X136.851 Y69.998 E2.34801
G1 X137.593 Y70.528 E2.37834
G1 X137.973 Y70.808 E2.39404
G1 X138.844 Y71.522 E2.4315
G1 X138.964 Y71.631 E2.43689
G1 X139.474 Y72.125 E2.46051
G1 X139.681 Y72.339 E2.47041
G1 X140.304 Y73.041 E2.50163
G1 X140.865 Y73.792 E2.53281
G1 X141.36 Y74.589 E2.56401
G1 X141.784 Y75.425 E2.59519
G1 X142.137 Y76.294 E2.62639
G1 X142.414 Y77.19 E2.65758
G1 X142.613 Y78.107 E2.68879
G1 X142.734 Y79.037 E2.71998
G1 X142.768 Y79.589 E2.73837
G1 X142.779 Y79.976 E2.75125
G1 X142.785 Y80.493 E2.76845
G1 X142.785 Y85.7 E2.94163
G1 X142.774 Y86.414 E2.96538
G1 X142.719 Y87.351 E2.9966
G1 X142.585 Y88.279 E3.02779
G1 X142.373 Y89.192 E3.05896
G1 X142.2 Y89.755 E3.07855
G1 X141.99 Y90.38 E3.10048
G1 X141.194 Y92.854 E3.18692
G1 X140.497 Y95.252 E3.26998
G1 X139.858 Y97.711 E3.35448
G1 X139.287 Y100.181 E3.4388
G1 X138.802 Y102.61 E3.52119
G1 X138.371 Y105.126 E3.60609
G1 X138.019 Y107.598 E3.68914
G1 X137.738 Y110.071 E3.77192
G1 X137.521 Y112.633 E3.85743
G1 X137.383 Y115.057 E3.93819
G1 X137.299 Y119.032 E4.07043
G1 X137.298 Y155.469 E5.28233
G1 X137.288 Y156.196 E5.30651
G1 X137.235 Y157.133 E5.33772
G1 X137.103 Y158.061 E5.3689
G1 X136.892 Y158.975 E5.4001
G1 X136.603 Y159.867 E5.43128
G1 X136.24 Y160.732 E5.46249
G1 X135.805 Y161.563 E5.49368
G1 X135.3 Y162.353 E5.52487
G1 X134.73 Y163.098 E5.55607
G1 X134.099 Y163.792 E5.58726
G1 X133.41 Y164.429 E5.61847
G1 X132.67 Y165.005 E5.64966
G1 X131.884 Y165.516 E5.68084
G1 X131.057 Y165.958 E5.71203
G1 X130.195 Y166.328 E5.74323
G1 X129.305 Y166.623 E5.77442
G1 X128.393 Y166.842 E5.80561
G1 X127.466 Y166.982 E5.8368
G1 X126.598 Y167.041 E5.86573
G1 X126.278 Y167.05 E5.87638
G1 X125.969 Y167.054 E5.88666
G1 X95.925 Y167.053 E6.88592
G1 X95.227 Y167.044 E6.90914
G1 X94.291 Y166.992 E6.94032
G1 X93.362 Y166.86 E6.97153
G1 X92.448 Y166.65 E7.00272
G1 X91.555 Y166.363 E7.03392
G1 X90.69 Y166 E7.06512
G1 X89.859 Y165.566 E7.0963
G1 X89.068 Y165.062 E7.1275
G1 X88.323 Y164.492 E7.1587
G1 X87.629 Y163.861 E7.18989
G1 X86.992 Y163.174 E7.22106
G1 X86.415 Y162.434 E7.25227
G1 X85.903 Y161.648 E7.28347
G1 X85.46 Y160.821 E7.31467
G1 X85.089 Y159.96 E7.34585
G1 X84.793 Y159.07 E7.37705
G1 X84.574 Y158.158 E7.40824
G1 X84.433 Y157.231 E7.43943
G1 X84.373 Y156.342 E7.46906
G1 X84.364 Y156.009 E7.48014
G1 X84.36 Y155.712 E7.49002
G1 X84.36 Y123.431 E8.56369
G1 X84.323 Y120.823 E8.65045
G1 X84.216 Y118.301 E8.7344
G1 X84.039 Y115.806 E8.8176
G1 X83.791 Y113.307 E8.90112
G1 X83.473 Y110.818 E8.98458
G1 X83.079 Y108.309 E9.06905
G1 X82.62 Y105.843 E9.15248
G1 X82.086 Y103.36 E9.23695
G1 X81.499 Y100.965 E9.31897
G1 X80.821 Y98.499 E9.40403
G1 X80.092 Y96.119 E9.48682
G1 X79.288 Y93.736 E9.57047
G1 X78.109 Y90.58 E9.68252
G1 X77.978 Y90.244 E9.69452
G1 X77.674 Y89.357 E9.7257
G1 X77.447 Y88.447 E9.7569
G1 X77.298 Y87.521 E9.78809
G1 X77.227 Y86.539 E9.82084
G1 X77.22 Y86.227 E9.83122
G1 X77.214 Y85.684 E9.84928
G1 X77.215 Y80.325 E10.02752
G1 X77.225 Y79.634 E10.05051
G1 X77.279 Y78.697 E10.08172
G1 X77.412 Y77.769 E10.1129
G1 X77.623 Y76.855 E10.1441
G1 X77.912 Y75.963 E10.17529
G1 X78.276 Y75.099 E10.20647
G1 X78.712 Y74.268 E10.23769
G1 X79.217 Y73.478 E10.26887
G1 X79.788 Y72.734 E10.30006
G0 F6000 X80.182 Y72.887
G1 F1200 X80.729 Y72.298 E10.3268
G1 X80.848 Y72.179 E10.3324
G1 X81.526 Y71.557 E10.363
G1 X82.104 Y71.105 E10.3874
G1 X82.862 Y70.554 E10.41857
G1 X83.711 Y69.953 E10.45317
G1 X85.706 Y68.457 E10.53611
G1 X87.738 Y66.839 E10.6225
G1 X89.617 Y65.255 E10.70424
G1 X91.529 Y63.548 E10.78949
G1 X93.384 Y61.796 E10.87435
G1 X95.157 Y60.022 E10.95777
G1 X96.884 Y58.197 E11.04134
G1 X97.8 Y57.176 E11.08697
G1 X98.155 Y56.793 E11.10433
G1 X98.812 Y56.148 E11.13496
G1 X99.523 Y55.563 E11.16558
G1 X100.282 Y55.041 E11.19622
G1 X101.083 Y54.587 E11.22684
G1 X101.92 Y54.205 E11.25744
G1 X102.415 Y54.019 E11.27503
G1 X102.639 Y53.941 E11.28292
G1 X103.521 Y53.676 E11.31355
G1 X104.422 Y53.489 E11.34416
G1 X105.337 Y53.38 E11.3748
G1 X105.995 Y53.352 E11.39671
G1 X106.534 Y53.346 E11.41464
G1 X113.321 Y53.346 E11.64037
G1 X114.174 Y53.357 E11.66875
G1 X115.093 Y53.41 E11.69936
G1 X116.004 Y53.543 E11.72999
G1 X116.9 Y53.754 E11.7606
G1 X117.775 Y54.042 E11.79124
G1 X118.621 Y54.405 E11.82186
G1 X119.432 Y54.84 E11.85247
G1 X120.203 Y55.344 E11.88311
G1 X120.927 Y55.912 E11.91371
G1 X121.486 Y56.429 E11.93904
G1 X121.603 Y56.545 E11.94452
G1 X121.941 Y56.895 E11.9607
G1 X122.416 Y57.414 E11.9841
G1 X123.405 Y58.522 E12.0335
G1 X125.176 Y60.397 E12.11928
G1 X126.947 Y62.168 E12.20258
G1 X128.762 Y63.884 E12.28566
G1 X130.675 Y65.592 E12.37096
G1 X132.593 Y67.21 E12.45442
G1 X134.588 Y68.8 E12.53927
G1 X136.611 Y70.318 E12.62339
G1 X137.356 Y70.85 E12.65384
G1 X137.736 Y71.13 E12.66954
G1 X138.575 Y71.818 E12.70562
G1 X138.695 Y71.927 E12.71102
G1 X139.187 Y72.403 E12.73378
G1 X139.394 Y72.617 E12.74369
G1 X140.005 Y73.306 E12.77432
G1 X140.553 Y74.046 E12.80494
G1 X141.036 Y74.83 E12.83557
G1 X141.448 Y75.653 E12.86618
G1 X141.788 Y76.508 E12.89678
G1 X142.052 Y77.39 E12.92741
G1 X142.239 Y78.292 E12.95804
G1 X142.368 Y79.603 E13.00186
G1 X142.379 Y79.982 E13.01447
G1 X142.385 Y80.493 E13.03147
G1 X142.385 Y85.694 E13.20445
G1 X142.374 Y86.408 E13.2282
G1 X142.32 Y87.327 E13.25882
G1 X142.186 Y88.238 E13.28945
G1 X141.974 Y89.134 E13.32007
G1 X141.821 Y89.627 E13.33724
G1 X141.609 Y90.257 E13.35935
G1 X140.813 Y92.732 E13.44582
G1 X140.115 Y95.136 E13.52908
G1 X139.464 Y97.635 E13.61497
G1 X138.899 Y100.085 E13.6986
G1 X138.41 Y102.535 E13.78169
G1 X137.974 Y105.073 E13.86734
G1 X137.625 Y107.528 E13.94982
G1 X137.337 Y110.063 E14.03467
G1 X137.124 Y112.577 E14.11859
G1 X136.983 Y115.054 E14.20111
G1 X136.899 Y119.024 E14.33318
G1 X136.898 Y155.464 E15.54518
G1 X136.888 Y156.191 E15.56936
G1 X136.835 Y157.11 E15.59998
G1 X136.703 Y158.021 E15.6306
G1 X136.492 Y158.917 E15.66121
G1 X136.205 Y159.792 E15.69184
G1 X135.842 Y160.638 E15.72246
G1 X135.408 Y161.45 E15.75308
G1 X134.904 Y162.221 E15.78372
G1 X134.336 Y162.945 E15.81433
G1 X133.707 Y163.617 E15.84494
G1 X133.022 Y164.232 E15.87556
G1 X132.286 Y164.785 E15.90618
G1 X131.505 Y165.273 E15.93681
G1 X130.685 Y165.691 E15.96742
G1 X129.831 Y166.036 E15.99805
G1 X128.951 Y166.305 E16.02866
G1 X128.05 Y166.498 E16.05931
G1 X127.137 Y166.611 E16.08991
G1 X126.587 Y166.641 E16.10823
G1 X126.267 Y166.65 E16.11887
G1 X125.969 Y166.654 E16.12879
G1 X95.93 Y166.653 E17.12789
G1 X95.232 Y166.644 E17.1511
G1 X94.313 Y166.592 E17.18172
G1 X93.402 Y166.461 E17.21233
G1 X92.506 Y166.251 E17.24294
G1 X91.631 Y165.964 E17.27357
G1 X90.784 Y165.602 E17.3042
G1 X89.972 Y165.168 E17.33483
G1 X89.201 Y164.666 E17.36543
G1 X88.476 Y164.098 E17.39606
G1 X87.803 Y163.469 E17.4267
G1 X87.188 Y162.785 E17.45729
G1 X86.634 Y162.05 E17.4879
G1 X86.146 Y161.269 E17.51853
G1 X85.727 Y160.449 E17.54916
G1 X85.381 Y159.596 E17.57978
G1 X85.111 Y158.716 E17.61039
G1 X84.918 Y157.815 E17.64104
G1 X84.804 Y156.902 E17.67164
G1 X84.773 Y156.331 E17.69066
G1 X84.764 Y155.998 E17.70174
G1 X84.76 Y155.712 E17.71126
G1 X84.76 Y123.425 E18.78513
G1 X84.723 Y120.8 E18.87244
G1 X84.616 Y118.292 E18.95593
G1 X84.438 Y115.771 E19.03999
G1 X84.188 Y113.253 E19.12415
G1 X83.867 Y110.742 E19.20835
G1 X83.48 Y108.28 E19.29124
G1 X83.011 Y105.758 E19.37656
G1 X82.479 Y103.286 E19.46066
G1 X81.879 Y100.836 E19.54456
G1 X81.212 Y98.413 E19.62814
G1 X80.467 Y95.979 E19.71281
G1 X79.663 Y93.595 E19.79649
G1 X78.507 Y90.501 E19.90634
G1 X78.35 Y90.099 E19.9207
G1 X78.053 Y89.227 E19.95134
G1 X77.832 Y88.334 E19.98193
G1 X77.689 Y87.424 E20.01257
G1 X77.627 Y86.528 E20.04244
G1 X77.62 Y86.223 E20.05259
G1 X77.614 Y85.684 E20.07052
G1 X77.615 Y80.331 E20.24856
G1 X77.625 Y79.64 E20.27154
G1 X77.678 Y78.721 E20.30216
G1 X77.811 Y77.809 E20.33282
G1 X78.023 Y76.913 E20.36344
G1 X78.311 Y76.039 E20.39405
G1 X78.674 Y75.193 E20.42467
G1 X79.109 Y74.382 E20.45527
G1 X79.613 Y73.611 E20.48591
G1 X80.182 Y72.887 E20.51654
G0 F6000 X80.576 Y73.044
G1 F1200 X81.012 Y72.581 E20.53769
G1 X81.131 Y72.462 E20.54329
G1 X81.797 Y71.852 E20.57333
G1 X82.339 Y71.428 E20.59621
G1 X83.093 Y70.881 E20.6272
G1 X83.936 Y70.284 E20.66155
G1 X85.967 Y68.761 E20.74599
G1 X87.943 Y67.187 E20.83001
G1 X89.933 Y65.509 E20.91659
G1 X91.787 Y63.855 E20.99923
G1 X93.641 Y62.104 E21.08405
G1 X95.43 Y60.314 E21.16822
G1 X97.208 Y58.435 E21.25426
G1 X98.098 Y57.443 E21.29858
G1 X98.234 Y57.294 E21.30529
G1 X98.447 Y57.066 E21.31567
G1 X99.093 Y56.434 E21.34573
G1 X99.791 Y55.861 E21.37577
G1 X100.538 Y55.353 E21.40581
G1 X101.326 Y54.913 E21.43583
G1 X102.547 Y54.396 E21.47993
G1 X102.771 Y54.318 E21.48782
G1 X103.636 Y54.059 E21.51785
G1 X104.521 Y53.878 E21.5479
G1 X105.418 Y53.776 E21.57792
G1 X106 Y53.752 E21.5973
G1 X106.534 Y53.746 E21.61506
G1 X113.321 Y53.746 E21.8408
G1 X114.168 Y53.757 E21.86897
G1 X115.07 Y53.81 E21.89902
G1 X115.963 Y53.942 E21.92905
G1 X116.841 Y54.153 E21.95908
G1 X117.697 Y54.441 E21.98912
G1 X118.525 Y54.803 E22.01918
G1 X119.317 Y55.237 E22.04921
G1 X120.067 Y55.74 E22.07925
G1 X120.77 Y56.306 E22.10927
G1 X121.204 Y56.713 E22.12906
G1 X121.321 Y56.829 E22.13454
G1 X121.646 Y57.166 E22.15011
G1 X122.118 Y57.68 E22.17332
G1 X123.133 Y58.817 E22.22401
G1 X124.885 Y60.672 E22.30888
G1 X126.636 Y62.423 E22.39124
G1 X128.524 Y64.208 E22.47766
G1 X130.414 Y65.896 E22.56194
G1 X132.331 Y67.513 E22.64535
G1 X134.361 Y69.13 E22.73167
G1 X136.36 Y70.631 E22.81482
G1 X137.119 Y71.172 E22.84582
G1 X137.499 Y71.452 E22.86152
G1 X138.306 Y72.114 E22.89623
G1 X138.426 Y72.223 E22.90162
G1 X138.899 Y72.681 E22.92352
G1 X139.106 Y72.895 E22.93343
G1 X139.705 Y73.572 E22.96349
G1 X140.241 Y74.298 E22.99351
G1 X140.711 Y75.069 E23.02354
G1 X141.111 Y75.879 E23.05359
G1 X141.438 Y76.721 E23.08363
G1 X141.689 Y77.589 E23.11368
G1 X141.862 Y78.475 E23.14371
G1 X141.968 Y79.618 E23.18189
G1 X141.979 Y79.987 E23.19416
G1 X141.985 Y80.493 E23.21099
G1 X141.985 Y85.688 E23.38378
G1 X141.974 Y86.402 E23.40753
G1 X141.92 Y87.304 E23.43759
G1 X141.787 Y88.197 E23.46761
G1 X141.442 Y89.5 E23.51245
G1 X141.221 Y90.156 E23.53547
G1 X140.43 Y92.617 E23.62145
G1 X139.72 Y95.061 E23.7061
G1 X139.081 Y97.516 E23.79047
G1 X138.512 Y99.982 E23.87464
G1 X138.01 Y102.497 E23.95994
G1 X137.583 Y104.987 E24.04397
G1 X137.23 Y107.467 E24.12729
G1 X136.936 Y110.051 E24.21379
G1 X136.727 Y112.519 E24.29617
G1 X136.583 Y115.051 E24.38052
G1 X136.499 Y119.016 E24.51242
G1 X136.498 Y155.458 E25.72449
G1 X136.488 Y156.185 E25.74867
G1 X136.436 Y157.087 E25.77872
G1 X136.304 Y157.98 E25.80874
G1 X136.093 Y158.859 E25.83881
G1 X135.806 Y159.715 E25.86884
G1 X135.444 Y160.542 E25.89887
G1 X135.01 Y161.334 E25.9289
G1 X134.508 Y162.085 E25.95895
G1 X133.942 Y162.788 E25.98897
G1 X133.315 Y163.439 E26.01903
G1 X132.634 Y164.031 E26.04904
G1 X131.903 Y164.561 E26.07907
G1 X131.127 Y165.024 E26.10913
G1 X130.314 Y165.417 E26.13916
G1 X129.469 Y165.737 E26.16921
G1 X128.6 Y165.98 E26.19922
G1 X127.712 Y166.145 E26.22927
G1 X126.576 Y166.241 E26.26718
G1 X126.256 Y166.25 E26.27783
G1 X125.969 Y166.254 E26.28738
G1 X95.935 Y166.253 E27.28631
G1 X95.237 Y166.244 E27.30953
G1 X94.336 Y166.193 E27.33955
G1 X93.442 Y166.061 E27.3696
G1 X92.564 Y165.852 E27.39962
G1 X91.707 Y165.565 E27.42968
G1 X90.88 Y165.204 E27.45969
G1 X90.087 Y164.771 E27.48974
G1 X89.336 Y164.27 E27.51977
G1 X88.632 Y163.704 E27.54981
G1 X87.981 Y163.078 E27.57985
G1 X87.388 Y162.397 E27.60989
G1 X86.858 Y161.666 E27.63992
G1 X86.394 Y160.891 E27.66996
G1 X86 Y160.078 E27.70001
G1 X85.68 Y159.234 E27.73003
G1 X85.436 Y158.364 E27.76008
G1 X85.27 Y157.476 E27.79013
G1 X85.173 Y156.321 E27.82868
G1 X85.164 Y155.988 E27.83976
G1 X85.16 Y155.712 E27.84894
G1 X85.16 Y123.419 E28.92301
G1 X85.123 Y120.813 E29.0097
G1 X85.014 Y118.245 E29.09519
G1 X84.837 Y115.743 E29.17861
G1 X84.588 Y113.23 E29.2626
G1 X84.26 Y110.667 E29.34854
G1 X83.869 Y108.182 E29.43221
G1 X83.409 Y105.706 E29.51597
G1 X82.865 Y103.179 E29.60195
G1 X82.268 Y100.74 E29.68546
G1 X81.592 Y98.285 E29.77016
G1 X80.856 Y95.881 E29.85378
G1 X80.037 Y93.454 E29.93897
G1 X78.875 Y90.341 E30.04949
G1 X78.723 Y89.953 E30.06335
G1 X78.432 Y89.098 E30.09339
G1 X78.217 Y88.221 E30.12342
G1 X78.081 Y87.328 E30.15346
G1 X78.027 Y86.517 E30.1805
G1 X78.02 Y86.218 E30.19044
G1 X78.014 Y85.684 E30.20821
G1 X78.015 Y80.336 E30.38608
G1 X78.025 Y79.645 E30.40907
G1 X78.078 Y78.744 E30.43909
G1 X78.211 Y77.851 E30.46912
G1 X78.422 Y76.972 E30.49918
G1 X78.71 Y76.116 E30.52922
G1 X79.072 Y75.289 E30.55925
G1 X79.506 Y74.497 E30.58928
G1 X80.009 Y73.747 E30.61932
G1 X80.576 Y73.044 E30.64936
G1 F1500 E24.14936
G0 F6000 X109.191 Y67.747
G0 X109.655 Y67.746
G1 F1500 E30.64936
G1 F1200 X110.345 Y67.746 E30.67231
G1 X110.345 Y79.389 E31.05956
G1 X110.385 Y79.939 E31.0779
G1 X110.504 Y80.477 E31.09622
G1 X110.7 Y80.992 E31.11455
G1 X110.968 Y81.473 E31.13287
G1 X111.458 Y82.076 E31.15871
G1 X111.74 Y82.358 E31.17197
G1 X111.977 Y82.563 E31.18239
G1 X108.009 Y82.563 E31.31437
G1 X108.261 Y82.358 E31.32518
G1 X108.543 Y82.076 E31.33844
G1 X108.903 Y81.659 E31.35676
G1 X109.2 Y81.195 E31.37509
G1 X109.426 Y80.692 E31.39343
G1 X109.577 Y80.162 E31.41176
G1 X109.656 Y79.389 E31.4376
G1 X109.655 Y67.746 E31.82485
G0 F6000 X109.255 Y67.346
G1 F1200 X110.745 Y67.346 E31.87441
G1 X110.745 Y79.389 E32.27496
G1 X110.785 Y79.909 E32.2923
G1 X110.904 Y80.416 E32.30963
G1 X111.099 Y80.899 E32.32695
G1 X111.365 Y81.347 E32.34428
G1 X111.741 Y81.793 E32.36368
G1 X112.023 Y82.075 E32.37695
G1 X112.419 Y82.414 E32.39428
G1 X112.861 Y82.689 E32.4116
G1 X113.341 Y82.893 E32.42894
G1 X113.617 Y82.963 E32.43841
G1 X106.384 Y82.963 E32.67899
G1 X106.601 Y82.912 E32.6864
G1 X107.084 Y82.717 E32.70372
G1 X107.532 Y82.451 E32.72105
G1 X107.978 Y82.075 E32.74046
G1 X108.26 Y81.793 E32.75372
G1 X108.599 Y81.397 E32.77106
