;FLAVOR:Marlin
;TIME:6047
;Filament used: 3.36868m
;Layer height: 0.2
;MINX:80.062
;MINY:94.698
;MINZ:0.2
;MAXX:139.799
;MAXY:125.302
;MAXZ:48
;Generated with Cura_SteamEngine 4.12.1
M140 S80
M105
M190 S80
M104 S230
M105
M109 S230
M82 ;absolute extrusion mode
; Ender 3 Custom Start G-code
G92 E0 ; Reset Extruder
G28 ; Home all axes
G29 ; ABL
G1 Z2.0 F3000 ; Move Z Axis up little to prevent scratching of Heat Bed
G1 X0.1 Y20 Z0.3 F5000.0 ; Move to start position
G1 X0.1 Y200.0 Z0.3 F1500.0 E15 ; Draw the first line
G1 X0.4 Y200.0 Z0.3 F5000.0 ; Move to side a little
G1 X0.4 Y20 Z0.3 F1500.0 E30 ; Draw the second line
G92 E0 ; Reset Extruder
G1 Z2.0 F3000 ; Move Z Axis up little to prevent scratching of Heat Bed
G1 X5 Y20 Z0.3 F5000.0 ; Move over to prevent blob squish
G92 E0
G92 E0
G1 F1500 E-6.5
;LAYER_COUNT:240
;LAYER:0
M107
;MESH:_3DBenchy.stl
G0 F6000 X89.981 Y112.099 Z0.2
;TYPE:WALL-INNER
G1 F1500 E0
G1 F1200 X89.896 Y111.6 E0.01684
G1 X89.617 Y111.234 E0.03214
G1 X89.216 Y111.005 E0.0475
G1 X88.772 Y110.931 E0.06247
G1 X88.326 Y111.028 E0.07765
G1 X88.018 Y111.263 E0.09054
G1 X87.878 Y111.406 E0.0972
G1 X87.802 Y111.434 E0.09989
G1 X87.541 Y111.46 E0.10861
G1 X87.303 Y111.421 E0.11663
G1 X86.98 Y111.23 E0.12912
G1 X86.788 Y110.904 E0.1417
G1 X86.723 Y110.668 E0.14984
G1 X86.679 Y110.355 E0.16035
G1 X86.663 Y110.065 E0.17001
G1 X86.667 Y109.768 E0.17989
G1 X86.682 Y109.532 E0.18776
G1 X86.73 Y109.233 E0.19783
G1 X86.872 Y108.847 E0.21151
G1 X87.117 Y108.589 E0.22334
G1 X87.484 Y108.473 E0.23614
G1 X87.655 Y108.493 E0.24187
G1 X87.82 Y108.575 E0.248
G1 X88.065 Y108.73 E0.25764
G1 X88.37 Y108.889 E0.26908
G1 X88.782 Y109.002 E0.28329
G1 X89.182 Y108.963 E0.29666
G1 X89.545 Y108.76 E0.31049
G1 X89.831 Y108.387 E0.32612
G1 X89.923 Y108.052 E0.33768
G1 X90.027 Y108.263 E0.33905
G1 X90.372 Y108.55 E0.35397
G1 X90.782 Y108.645 E0.36797
G1 X91.114 Y108.628 E0.37903
G1 X91.414 Y108.584 E0.38911
G1 X91.699 Y108.584 E0.39859
G1 X91.704 Y108.837 E0.40701
G1 X91.683 Y109.233 E0.4202
G1 X91.689 Y109.638 E0.43367
G1 X91.692 Y109.718 E0.43633
G1 X91.689 Y111.062 E0.48103
G1 X91.687 Y111.224 E0.48642
G1 X91.691 Y111.577 E0.49816
G1 X91.699 Y111.888 E0.50851
G1 X91.678 Y112.221 E0.51961
G1 X91.655 Y112.529 E0.52988
G1 X91.732 Y112.934 E0.54359
G1 X92.015 Y113.3 E0.55898
G1 X92.447 Y113.485 E0.57461
G1 X92.905 Y113.506 E0.58986
G1 X93.323 Y113.362 E0.60456
G1 X93.652 Y113.031 E0.62009
G1 X93.81 Y112.626 E0.63454
G1 X93.847 Y112.212 E0.64837
G1 X93.843 Y112.023 E0.65466
G1 X93.828 Y111.662 E0.66667
G1 X93.827 Y111.387 E0.67582
G1 X93.831 Y110.986 E0.68916
G1 X93.83 Y109.4 E0.74191
G1 X93.833 Y108.771 E0.76283
G1 X93.829 Y108.592 E0.76879
G1 X94.01 Y108.604 E0.77175
G1 X94.353 Y108.61 E0.78316
G1 X94.797 Y108.579 E0.79796
G1 X95.192 Y108.472 E0.81157
G1 X95.536 Y108.207 E0.82601
G1 X95.643 Y107.988 E0.83412
G1 X95.862 Y108.4 E0.84403
G1 X96.229 Y108.716 E0.86014
G1 X96.588 Y108.83 E0.87267
G1 X96.717 Y108.81 E0.87701
G1 X96.538 Y108.957 E0.87987
G1 X96.328 Y109.379 E0.89555
G1 X96.276 Y109.798 E0.90959
G1 X96.402 Y110.266 E0.92571
G1 X96.732 Y110.582 E0.94091
G1 X97.12 Y110.714 E0.95454
G1 X97.461 Y110.771 E0.96604
G1 X97.658 Y110.834 E0.97292
G1 X97.926 Y111.057 E0.98451
G1 X98.018 Y111.325 E0.99394
G1 X97.911 Y111.522 E1.00139
G1 X97.813 Y111.557 E1.00486
G1 X97.694 Y111.479 E1.00959
G1 X97.411 Y111.271 E1.02127
G1 X97.053 Y111.12 E1.03419
G1 X96.639 Y111.082 E1.04802
G1 X96.261 Y111.161 E1.06086
G1 X95.89 Y111.395 E1.07545
G1 X95.648 Y111.795 E1.091
G1 X95.599 Y112.261 E1.10659
G1 X95.71 Y112.698 E1.12158
G1 X95.929 Y113.039 E1.13506
G1 X96.283 Y113.324 E1.15018
G1 X96.641 Y113.49 E1.1633
G1 X96.998 Y113.59 E1.17563
G1 X97.417 Y113.648 E1.1897
G1 X97.821 Y113.656 E1.20314
G1 X98.165 Y113.633 E1.21461
G1 X98.549 Y113.559 E1.22762
G1 X98.914 Y113.427 E1.24053
G1 X99.26 Y113.231 E1.25375
G1 X99.607 Y112.938 E1.26886
G1 X99.821 Y112.686 E1.27985
G1 X100.031 Y112.346 E1.29314
G1 X100.189 Y111.975 E1.30656
G1 X100.283 Y111.594 E1.31961
G1 X100.314 Y111.224 E1.33196
G1 X100.265 Y110.778 E1.34688
G1 X100.181 Y110.45 E1.35814
G1 X100.077 Y110.106 E1.3701
G1 X99.894 Y109.707 E1.3847
G1 X99.69 Y109.477 E1.39492
G1 X99.805 Y109.361 E1.40035
G1 X99.979 Y108.972 E1.41453
G1 X100.042 Y108.614 E1.42662
G1 X100.067 Y108.31 E1.43676
G1 X100.06 Y107.944 E1.44894
G1 X99.972 Y107.52 E1.46334
G1 X99.799 Y107.176 E1.47615
G1 X99.59 Y106.917 E1.48722
G1 X99.283 Y106.658 E1.50058
G1 X98.945 Y106.476 E1.51334
G1 X98.519 Y106.345 E1.52817
G1 X98.171 Y106.29 E1.53989
G1 X97.858 Y106.271 E1.55032
G1 X97.545 Y106.275 E1.56073
G1 X97.2 Y106.314 E1.57228
G1 X96.863 Y106.386 E1.58374
G1 X96.574 Y106.489 E1.59394
G1 X96.242 Y106.662 E1.60639
G1 X95.97 Y106.869 E1.61776
G1 X95.712 Y107.2 E1.63172
G1 X95.596 Y106.863 E1.63754
G1 X95.255 Y106.556 E1.6528
G1 X94.845 Y106.444 E1.66694
G1 X94.34 Y106.45 E1.68374
G1 X93.451 Y106.446 E1.7133
G1 X92.72 Y106.448 E1.73762
G1 X92.069 Y106.445 E1.75927
G1 X91.498 Y106.456 E1.77827
G1 X91.19 Y106.433 E1.78854
G1 X90.838 Y106.411 E1.80027
G1 X90.455 Y106.481 E1.81322
G1 X90.099 Y106.724 E1.82755
G1 X89.875 Y107.075 E1.8414
G1 X89.813 Y107.395 E1.85224
G1 X89.696 Y107.181 E1.85374
G1 X89.452 Y106.919 E1.86565
G1 X89.139 Y106.68 E1.87875
G1 X88.807 Y106.5 E1.89131
G1 X88.429 Y106.369 E1.90461
G1 X87.997 Y106.292 E1.91921
G1 X87.607 Y106.273 E1.9322
G1 X87.3 Y106.284 E1.94241
G1 X86.957 Y106.329 E1.95392
G1 X86.654 Y106.402 E1.96429
G1 X86.342 Y106.514 E1.97531
G1 X85.973 Y106.703 E1.9891
G1 X85.63 Y106.947 E2.0031
G1 X85.325 Y107.24 E2.01717
G1 X85.068 Y107.574 E2.03118
G1 X84.916 Y107.828 E2.04103
G1 X84.788 Y108.096 E2.05091
G1 X84.728 Y108.26 E2.05672
G1 X84.728 Y107.574 E2.07107
G1 X84.728 Y105.133 E2.15226
G1 X84.754 Y104.881 E2.16069
G1 X84.801 Y104.701 E2.16687
G1 X84.911 Y104.463 E2.17559
G1 X85.196 Y104.157 E2.1895
G1 X85.551 Y103.991 E2.20254
G1 X85.821 Y103.948 E2.21163
G1 X109.326 Y102.52 E2.99485
G1 X109.786 Y102.503 E3.01016
G1 X110.067 Y102.501 E3.01951
G1 X110.377 Y102.505 E3.02982
G1 X110.651 Y102.513 E3.03894
G1 X111.073 Y102.537 E3.05299
G1 X111.501 Y102.574 E3.06728
G1 X111.909 Y102.622 E3.08095
G1 X112.042 Y102.64 E3.08541
G1 X112.459 Y102.705 E3.09945
G1 X112.736 Y102.756 E3.10882
G1 X113.002 Y102.809 E3.11784
G1 X113.367 Y102.891 E3.13028
G1 X113.734 Y102.983 E3.14286
G1 X114.13 Y103.096 E3.15656
G1 X114.372 Y103.169 E3.16497
G1 X114.86 Y103.333 E3.18209
G1 X115.325 Y103.509 E3.19863
G1 X115.579 Y103.614 E3.20777
G1 X115.905 Y103.753 E3.21956
G1 X116.245 Y103.911 E3.23203
G1 X116.255 Y103.918 E3.23243
G1 X116.507 Y104.041 E3.24176
G1 X116.78 Y104.183 E3.25199
G1 X117.227 Y104.432 E3.26901
G1 X117.467 Y104.576 E3.27832
G1 X117.828 Y104.802 E3.29249
G1 X118.138 Y105.009 E3.30488
G1 X118.386 Y105.181 E3.31492
G1 X118.709 Y105.423 E3.32835
G1 X119.078 Y105.712 E3.34394
G1 X119.528 Y106.094 E3.36357
G1 X119.858 Y106.396 E3.37845
G1 X120.067 Y106.599 E3.38814
G1 X120.263 Y106.796 E3.39738
G1 X120.431 Y106.969 E3.4054
G1 X120.797 Y107.371 E3.42348
G1 X121.023 Y107.638 E3.43512
G1 X121.36 Y108.055 E3.45295
G1 X121.499 Y108.239 E3.46062
G1 X121.728 Y108.555 E3.4736
G1 X122.01 Y108.969 E3.49026
G1 X122.145 Y109.18 E3.49859
G1 X122.272 Y109.387 E3.50667
G1 X122.43 Y109.66 E3.51716
G1 X122.513 Y110.011 E3.52916
G1 X122.458 Y110.28 E3.53829
G1 X122.297 Y110.573 E3.54941
G1 X122.084 Y110.918 E3.56289
G1 X121.831 Y111.299 E3.5781
G1 X121.624 Y111.592 E3.59004
G1 X121.326 Y111.989 E3.60655
G1 X121.088 Y112.286 E3.61921
G1 X120.953 Y111.941 E3.6258
G1 X120.583 Y111.644 E3.64158
G1 X120.173 Y111.522 E3.65581
G1 X119.755 Y111.484 E3.66977
G1 X119.683 Y111.471 E3.67221
G1 X120.296 Y110.597 E3.70771
G1 X120.592 Y110.181 E3.72469
G1 X120.798 Y109.873 E3.73702
G1 X120.951 Y109.58 E3.74801
G1 X121.048 Y109.218 E3.76048
G1 X121.048 Y108.796 E3.77451
G1 X120.908 Y108.374 E3.7893
G1 X120.604 Y108.046 E3.80417
G1 X120.198 Y107.899 E3.81854
G1 X119.758 Y107.881 E3.83318
G1 X119.467 Y107.886 E3.84286
G1 X118.373 Y107.882 E3.87925
G1 X118.062 Y107.878 E3.88959
G1 X117.667 Y107.895 E3.90274
G1 X117.26 Y107.986 E3.91662
G1 X116.872 Y108.256 E3.93234
G1 X116.776 Y108.452 E3.9396
G1 X116.532 Y108.145 E3.94782
G1 X116.118 Y107.902 E3.96379
G1 X115.656 Y107.897 E3.97916
G1 X115.272 Y108.111 E3.99378
G1 X114.99 Y108.441 E4.00821
G1 X114.834 Y108.734 E4.01925
G1 X114.718 Y109.019 E4.02949
G1 X114.569 Y109.484 E4.04573
G1 X114.537 Y109.572 E4.04884
G1 X114.419 Y109.269 E4.05519
G1 X114.285 Y108.763 E4.0726
G1 X114.143 Y108.439 E4.08436
G1 X113.855 Y108.121 E4.09863
G1 X113.479 Y107.935 E4.11259
G1 X113.031 Y107.876 E4.12762
G1 X112.59 Y107.993 E4.14279
G1 X112.253 Y108.321 E4.15843
G1 X112.167 Y108.59 E4.16782
G1 X112.001 Y108.261 E4.1733
G1 X111.644 Y107.973 E4.18855
G1 X111.285 Y107.872 E4.20096
G1 X110.862 Y107.947 E4.21525
G1 X110.502 Y108.182 E4.22955
G1 X110.266 Y108.437 E4.2411
G1 X110.178 Y108.576 E4.24657
G1 X109.983 Y108.307 E4.25335
G1 X109.671 Y108.028 E4.26727
G1 X109.282 Y107.886 E4.28104
G1 X109.056 Y107.88 E4.28856
G1 X108.691 Y107.966 E4.30104
G1 X108.338 Y108.198 E4.31508
G1 X108.087 Y108.62 E4.33142
G1 X108.087 Y109.133 E4.34848
G1 X108.231 Y109.532 E4.36259
G1 X108.38 Y109.809 E4.37305
G1 X108.571 Y110.134 E4.38559
G1 X108.724 Y110.415 E4.39623
G1 X108.935 Y110.739 E4.40909
G1 X108.947 Y110.764 E4.41001
G1 X108.75 Y111.026 E4.42091
G1 X108.462 Y111.528 E4.44016
G1 X108.317 Y111.763 E4.44935
G1 X108.277 Y111.837 E4.45214
G1 X108.116 Y111.492 E4.46016
G1 X107.836 Y111.169 E4.47437
G1 X107.487 Y110.93 E4.48844
G1 X107.093 Y110.795 E4.5023
G1 X106.795 Y110.763 E4.51226
G1 X106.381 Y110.808 E4.52611
G1 X106.13 Y110.908 E4.5351
G1 X106.156 Y110.786
G1 X106.207 Y110.361 E4.54934
G1 X106.22 Y109.984 E4.56188
G1 X106.215 Y109.676 E4.57213
G1 X106.188 Y109.327 E4.58377
G1 X106.127 Y108.933 E4.59703
G1 X106.056 Y108.63 E4.60738
G1 X105.963 Y108.346 E4.61732
G1 X105.849 Y108.071 E4.62722
G1 X105.644 Y107.702 E4.64126
G1 X105.397 Y107.373 E4.65495
G1 X105.153 Y107.128 E4.66645
G1 X104.841 Y106.894 E4.67942
G1 X104.441 Y106.695 E4.69428
G1 X104.143 Y106.598 E4.7047
G1 X103.857 Y106.535 E4.71444
G1 X103.544 Y106.489 E4.72497
G1 X103.365 Y106.472 E4.73095
G1 X102.977 Y106.45 E4.74387
G1 X102.606 Y106.448 E4.75621
G1 X102.306 Y106.451 E4.76619
G1 X102.169 Y106.448 E4.77075
G1 X101.834 Y106.434 E4.7819
G1 X101.471 Y106.45 E4.79398
G1 X101.126 Y106.539 E4.80583
G1 X100.751 Y106.774 E4.82055
G1 X100.522 Y107.182 E4.83612
G1 X100.491 Y107.568 E4.849
G1 X100.523 Y107.872 E4.85916
G1 X100.534 Y108.133 E4.86785
G1 X100.523 Y108.768 E4.88897
G1 X100.525 Y110.777 E4.95579
G1 X100.526 Y111.315 E4.96737
G1 X100.529 Y111.763 E4.97903
G1 X100.513 Y112.161 E4.99092
G1 X100.525 Y112.505 E5.00237
G1 X100.622 Y112.897 E5.0158
G1 X100.876 Y113.283 E5.03117
G1 X101.27 Y113.493 E5.04602
G1 X101.658 Y113.516 E5.05895
G1 X102.053 Y113.476 E5.07215
G1 X102.236 Y113.473 E5.07824
G1 X102.643 Y113.484 E5.09178
G1 X103.054 Y113.479 E5.10545
G1 X103.407 Y113.455 E5.11722
G1 X103.816 Y113.399 E5.13095
G1 X104.211 Y113.302 E5.14448
G1 X104.503 Y113.189 E5.15489
G1 X104.859 Y112.99 E5.16846
G1 X105.214 Y112.698 E5.18375
G1 X105.232 Y112.82
G1 X105.386 Y113.178 E5.19671
G1 X105.666 Y113.529 E5.21164
G1 X106.013 Y113.779 E5.22587
G1 X106.384 Y113.921 E5.23908
G1 X106.804 Y113.967 E5.25313
G1 X107.224 Y113.901 E5.26727
G1 X107.64 Y113.709 E5.28251
G1 X107.94 Y113.459 E5.2955
G1 X108.151 Y113.161 E5.30765
G1 X108.251 Y113.341 E5.30971
G1 X108.64 Y113.609 E5.32543
G1 X109.134 Y113.694 E5.3421
G1 X109.527 Y113.555 E5.35596
G1 X109.825 Y113.283 E5.36938
G1 X109.908 Y113.177 E5.37386
G1 X110.07 Y112.943 E5.38333
G1 X110.119 Y112.863 E5.38645
G1 X110.271 Y113.126 E5.39261
G1 X110.486 Y113.408 E5.4044
G1 X110.842 Y113.643 E5.41859
G1 X111.305 Y113.706 E5.43413
G1 X111.747 Y113.586 E5.44936
G1 X112.096 Y113.3 E5.46437
G1 X112.282 Y112.865 E5.48011
G1 X112.282 Y112.434 E5.49444
G1 X112.173 Y112.076 E5.50689
G1 X112.063 Y111.869 E5.51469
G1 X111.905 Y111.625 E5.52435
G1 X111.854 Y111.541 E5.52762
G1 X111.648 Y111.17 E5.54174
G1 X111.472 Y110.89 E5.55274
G1 X111.397 Y110.721 E5.55889
G1 X111.514 Y110.443 E5.56892
G1 X111.705 Y110.141 E5.5808
G1 X112.034 Y109.581 E5.6024
G1 X112.16 Y109.304 E5.61253
G1 X112.218 Y109.556 E5.6143
G1 X112.346 Y109.894 E5.62632
G1 X112.502 Y110.26 E5.63956
G1 X112.56 Y110.408 E5.64484
G1 X112.765 Y110.962 E5.66449
G1 X112.985 Y111.541 E5.68509
G1 X113.087 Y111.831 E5.69532
G1 X113.193 Y112.113 E5.70534
G1 X113.275 Y112.301 E5.71216
G1 X113.399 Y112.564 E5.72183
G1 X113.437 Y112.701 E5.72656
G1 X113.41 Y112.82 E5.73062
G1 X113.237 Y113.182 E5.74396
G1 X113.185 Y113.306 E5.74843
G1 X113.054 Y113.665 E5.76114
G1 X112.871 Y113.952 E5.77246
G1 X112.728 Y114.029 E5.77787
G1 X112.406 Y114.113 E5.78893
G1 X112.001 Y114.31 E5.80391
G1 X111.784 Y114.567 E5.8151
G1 X111.677 Y114.984 E5.82942
G1 X111.745 Y115.425 E5.84426
G1 X111.96 Y115.826 E5.85939
G1 X112.31 Y116.115 E5.87449
G1 X112.793 Y116.225 E5.89097
G1 X113.176 Y116.189 E5.90376
G1 X113.553 Y116.085 E5.91677
G1 X113.896 Y115.938 E5.92918
G1 X114.193 Y115.742 E5.94102
G1 X114.441 Y115.497 E5.95261
G1 X114.683 Y115.137 E5.96704
G1 X114.779 Y114.958 E5.97379
G1 X114.923 Y114.641 E5.98537
G1 X115.06 Y114.302 E5.99754
G1 X115.247 Y113.824 E6.01461
G1 X115.424 Y113.357 E6.03122
G1 X115.7 Y112.591 E6.0583
G1 X116.342 Y110.788 E6.12196
G1 X116.552 Y110.151 E6.14426
G1 X116.629 Y109.952 E6.15136
G1 X116.801 Y109.589 E6.16472
G1 X116.805 Y109.599
G1 X117.169 Y109.917 E6.1808
G1 X117.59 Y110.04 E6.19538
G1 X118 Y110.077 E6.20908
G1 X117.377 Y110.948 E6.24469
G1 X116.977 Y111.493 E6.26718
G1 X116.775 Y111.823 E6.28005
G1 X116.623 Y112.232 E6.29456
G1 X116.599 Y112.683 E6.30958
G1 X116.706 Y113.086 E6.32345
G1 X116.984 Y113.475 E6.33935
G1 X117.409 Y113.681 E6.35506
G1 X117.833 Y113.701 E6.36918
G1 X118.134 Y113.678 E6.37922
G1 X118.486 Y113.677 E6.39093
G1 X118.67 Y113.682 E6.39705
G1 X119.773 Y113.683 E6.43374
G1 X119.451 Y113.975 E6.44819
G1 X119.175 Y114.206 E6.46016
G1 X118.906 Y114.426 E6.47172
G1 X118.801 Y114.509 E6.47617
G1 X118.542 Y114.705 E6.48698
G1 X118.338 Y114.853 E6.49536
G1 X117.997 Y115.088 E6.50913
G1 X117.763 Y115.24 E6.51841
G1 X117.537 Y115.382 E6.52729
G1 X117.334 Y115.505 E6.53519
G1 X117.02 Y115.685 E6.54722
G1 X116.788 Y115.812 E6.55602
G1 X116.568 Y115.928 E6.56429
G1 X116.246 Y116.088 E6.57625
G1 X115.809 Y116.29 E6.59226
G1 X115.481 Y116.429 E6.60411
G1 X115.239 Y116.526 E6.61278
G1 X114.988 Y116.62 E6.6217
G1 X114.758 Y116.703 E6.62983
G1 X114.49 Y116.794 E6.63924
G1 X114.263 Y116.865 E6.64716
G1 X114.012 Y116.939 E6.65586
G1 X113.722 Y117.02 E6.66587
G1 X113.425 Y117.096 E6.67607
G1 X112.966 Y117.199 E6.69172
G1 X112.492 Y117.29 E6.70777
G1 X112.193 Y117.338 E6.71784
G1 X111.862 Y117.385 E6.72896
G1 X111.559 Y117.42 E6.73911
G1 X111.377 Y117.438 E6.74519
G1 X110.915 Y117.475 E6.7606
G1 X110.662 Y117.487 E6.76903
G1 X110.292 Y117.498 E6.78134
G1 X109.844 Y117.498 E6.79624
G1 X109.508 Y117.489 E6.80742
G1 X108.759 Y117.447 E6.83237
G1 X105.187 Y117.228 E6.9514
G1 X104.669 Y117.198 E6.96866
G1 X104.482 Y117.185 E6.97489
G1 X92.468 Y116.458 E7.37521
G1 X91.659 Y116.407 E7.40217
G1 X89.986 Y116.307 E7.45791
G1 X85.783 Y116.049 E7.59797
G1 X85.558 Y116.011 E7.60556
G1 X85.307 Y115.912 E7.61453
G1 X84.971 Y115.625 E7.62923
G1 X84.771 Y115.202 E7.64479
G1 X84.727 Y114.848 E7.65666
G1 X84.727 Y112.417 E7.73751
G1 X84.727 Y111.672 E7.76229
G1 X84.75 Y111.743 E7.76477
G1 X84.89 Y112.055 E7.76886
G1 X85.108 Y112.417 E7.77694
G1 X85.344 Y112.709 E7.78943
G1 X85.646 Y112.994 E7.80324
G1 X85.916 Y113.19 E7.81433
G1 X86.283 Y113.389 E7.82822
G1 X86.681 Y113.536 E7.84233
G1 X87.009 Y113.609 E7.85351
G1 X87.313 Y113.646 E7.86369
G1 X87.633 Y113.656 E7.87434
G1 X87.937 Y113.642 E7.88446
G1 X88.338 Y113.581 E7.89795
G1 X88.715 Y113.47 E7.91103
G1 X89.057 Y113.303 E7.92368
G1 X89.357 Y113.09 E7.93592
G1 X89.616 Y112.822 E7.94832
G1 X89.813 Y112.517 E7.96039
G1 X89.981 Y112.099 E7.97538
G0 F6000 X89.568 Y112.055
;TYPE:WALL-OUTER
G1 F1200 X89.518 Y111.764 E7.9852
