;FLAVOR:Marlin
;TIME:23257
;Filament used: 26.3493m
;Layer height: 0.28
;MINX:41.21
;MINY:41.487
;MINZ:0.28
;MAXX:178.79
;MAXY:178.79
;MAXZ:40.6
;Generated with Cura_SteamEngine 4.12.1
M140 S60
M105
M190 S60
M104 S200
M105
M109 S200
M82 ;absolute extrusion mode
; Ender 3 Custom Start G-code
G92 E0 ; Reset Extruder
G28 ; Home all axes
G29 ; ABL
G1 Z2.0 F3000 ; Move Z Axis up little to prevent scratching of Heat Bed
G1 X0.1 Y20 Z0.3 F5000.0 ; Move to start position
G1 X0.1 Y200.0 Z0.3 F1500.0 E15 ; Draw the first line
G1 X0.4 Y200.0 Z0.3 F5000.0 ; Move to side a little
G1 X0.4 Y20 Z0.3 F1500.0 E30 ; Draw the second line
G92 E0 ; Reset Extruder
G1 Z2.0 F3000 ; Move Z Axis up little to prevent scratching of Heat Bed
G1 X5 Y20 Z0.3 F5000.0 ; Move over to prevent blob squish
G92 E0
G92 E0
G1 F1500 E-6.5
;LAYER_COUNT:145
;LAYER:0
M107
G0 F6000 X63.032 Y63.009 Z0.28
;TYPE:SKIRT
G1 F1500 E0
G1 F1200 X63.696 Y62.399 E0.04199
G1 X64.319 Y61.873 E0.07995
G1 X71.673 Y55.837 E0.52296
G1 X72.347 Y55.299 E0.56312
G1 X73.104 Y54.746 E0.60677
G1 X73.88 Y54.274 E0.64906
G1 X74.602 Y53.876 E0.68745
G1 X83.105 Y49.333 E1.13635
G1 X83.749 Y49.001 E1.17009
G1 X84.306 Y48.733 E1.19887
G1 X85.318 Y48.281 E1.25048
G1 X87.731 Y47.163 E1.37432
G1 X89.935 Y46.064 E1.489
G1 X92.716 Y44.569 E1.63602
G1 X93.814 Y43.955 E1.69459
G1 X94.652 Y43.532 E1.7383
G1 X95.522 Y43.183 E1.78195
G1 X96.419 Y42.909 E1.82563
G1 X97.336 Y42.712 E1.8693
G1 X97.916 Y42.629 E1.89658
G1 X98.855 Y42.522 E1.94059
G1 X108.378 Y41.585 E2.38616
G1 X109.077 Y41.526 E2.41883
G1 X110.014 Y41.487 E2.46249
G1 X110.646 Y41.506 E2.49194
G1 X110.989 Y41.529 E2.50794
G1 X111.702 Y41.591 E2.54127
G1 X121.371 Y42.545 E2.99368
G1 X122.058 Y42.623 E3.02588
G1 X122.984 Y42.769 E3.06953
G1 X123.895 Y42.992 E3.1132
G1 X124.784 Y43.293 E3.15691
G1 X125.643 Y43.668 E3.20055
G1 X126.182 Y43.95 E3.22888
G1 X127.404 Y44.633 E3.29406
G1 X127.537 Y44.709 E3.3012
G1 X129.717 Y45.884 E3.41651
G1 X131.998 Y47.031 E3.5354
G1 X134.297 Y48.107 E3.65359
G1 X134.474 Y48.184 E3.66258
G1 X135.742 Y48.755 E3.72733
G1 X136.279 Y49.015 E3.75512
G1 X137.019 Y49.399 E3.79394
G1 X145.454 Y53.909 E4.23932
G1 X146.127 Y54.281 E4.27513
G1 X146.928 Y54.769 E4.3188
G1 X147.662 Y55.306 E4.36115
G1 X148.316 Y55.829 E4.40015
G1 X155.788 Y61.962 E4.85027
G1 X156.293 Y62.389 E4.88106
G1 X157.088 Y63.131 E4.9317
G1 X157.12 Y63.164 E4.93384
G1 X157.632 Y63.731 E4.96941
G1 X158.125 Y64.316 E5.00503
G1 X164.253 Y71.786 E5.45494
G1 X164.693 Y72.337 E5.48777
G1 X165.246 Y73.094 E5.53142
G1 X165.729 Y73.889 E5.57474
G1 X166.13 Y74.617 E5.61344
G1 X170.665 Y83.102 E6.06143
G1 X170.99 Y83.731 E6.09439
G1 X171.126 Y84.004 E6.1086
G1 X171.522 Y84.828 E6.15117
G1 X172 Y85.861 E6.20417
G1 X173.099 Y88.065 E6.31885
G1 X174.294 Y90.304 E6.43702
G1 X175.868 Y93.041 E6.58404
G1 X176.175 Y93.557 E6.612
G1 X176.62 Y94.383 E6.65569
G1 X176.993 Y95.243 E6.69934
G1 X177.291 Y96.132 E6.743
G1 X177.513 Y97.044 E6.7867
G1 X177.651 Y97.925 E6.82823
G1 X177.753 Y98.826 E6.87045
G1 X178.693 Y108.386 E7.31775
G1 X178.751 Y109.075 E7.34994
G1 X178.79 Y110.012 E7.39361
G1 X178.773 Y110.608 E7.42138
G1 X178.746 Y111.005 E7.43991
G1 X178.686 Y111.699 E7.47234
G1 X177.731 Y121.384 E7.9255
G1 X177.653 Y122.066 E7.95747
G1 X177.507 Y122.992 E8.00112
G1 X177.282 Y123.903 E8.04481
G1 X176.981 Y124.791 E8.08847
G1 X176.605 Y125.65 E8.13213
G1 X176.176 Y126.442 E8.17408
G1 X175.753 Y127.153 E8.2126
G1 X174.463 Y129.392 E8.33292
G1 X173.241 Y131.658 E8.4528
G1 X172.127 Y133.876 E8.56838
G1 X171.435 Y135.358 E8.64454
G1 X171.108 Y136.033 E8.67946
G1 X170.98 Y136.288 E8.69275
G1 X170.604 Y137.013 E8.73078
G1 X166.088 Y145.458 E9.17671
G1 X165.722 Y146.121 E9.21197
G1 X165.234 Y146.922 E9.25564
G1 X164.697 Y147.658 E9.29807
G1 X164.197 Y148.284 E9.33537
G1 X158.146 Y155.658 E9.77954
G1 X157.597 Y156.308 E9.81916
G1 X156.961 Y156.997 E9.86282
G1 X156.304 Y157.6 E9.90435
G1 X155.681 Y158.126 E9.94232
G1 X148.327 Y164.162 E10.38532
G1 X147.652 Y164.701 E10.42554
G1 X146.895 Y165.253 E10.46917
G1 X146.114 Y165.728 E10.51173
G1 X145.399 Y166.122 E10.54975
G1 X136.9 Y170.664 E10.99847
G1 X136.247 Y171.001 E11.03268
G1 X135.968 Y171.14 E11.0472
G1 X135.128 Y171.542 E11.09056
G1 X134.124 Y172.008 E11.1421
G1 X131.884 Y173.125 E11.25865
G1 X129.651 Y174.319 E11.37656
G1 X127.02 Y175.831 E11.51786
G1 X126.445 Y176.174 E11.54904
G1 X125.619 Y176.619 E11.59273
G1 X124.758 Y176.992 E11.63642
G1 X123.869 Y177.29 E11.68008
G1 X122.958 Y177.512 E11.72374
G1 X122.076 Y177.65 E11.76531
G1 X121.15 Y177.755 E11.8087
G1 X111.6 Y178.695 E12.25554
G1 X110.917 Y178.752 E12.28745
G1 X109.98 Y178.79 E12.33112
G1 X109.085 Y178.752 E12.37283
G1 X108.243 Y178.68 E12.41218
G1 X98.623 Y177.732 E12.8623
G1 X97.954 Y177.656 E12.89365
G1 X96.71 Y177.441 E12.95244
G1 X95.806 Y177.192 E12.9961
G1 X94.926 Y176.866 E13.0398
G1 X94.078 Y176.466 E13.08346
G1 X93.56 Y176.177 E13.11108
G1 X92.838 Y175.747 E13.15021
G1 X90.566 Y174.439 E13.27228
G1 X88.372 Y173.256 E13.38835
G1 X86.123 Y172.126 E13.50554
G1 X84.643 Y171.435 E13.5816
G1 X83.97 Y171.109 E13.61642
G1 X83.709 Y170.978 E13.63002
G1 X82.981 Y170.6 E13.66822
G1 X74.546 Y166.09 E14.1136
G1 X73.873 Y165.718 E14.14941
G1 X73.072 Y165.23 E14.19308
G1 X72.338 Y164.693 E14.23543
G1 X71.684 Y164.17 E14.27442
G1 X64.209 Y158.035 E14.72471
G1 X63.703 Y157.607 E14.75557
G1 X62.902 Y156.858 E14.80664
G1 X62.872 Y156.827 E14.80864
G1 X62.368 Y156.268 E14.84369
G1 X61.875 Y155.683 E14.87931
G1 X55.839 Y148.327 E15.32239
G1 X55.302 Y147.654 E15.36249
G1 X54.749 Y146.897 E15.40614
G1 X54.27 Y146.109 E15.44908
G1 X53.87 Y145.382 E15.48772
G1 X49.328 Y136.884 E15.93639
G1 X49.003 Y136.255 E15.96936
G1 X48.863 Y135.973 E15.98402
G1 X48.478 Y135.171 E16.02544
G1 X48 Y134.138 E16.07845
G1 X46.901 Y131.934 E16.19312
G1 X45.706 Y129.695 E16.3113
G1 X44.139 Y126.971 E16.45763
G1 X43.829 Y126.45 E16.48586
G1 X43.383 Y125.624 E16.52957
G1 X43.01 Y124.764 E16.57322
G1 X42.711 Y123.875 E16.6169
G1 X42.489 Y122.964 E16.66056
G1 X42.348 Y122.062 E16.70307
G1 X42.245 Y121.15 E16.7458
G1 X41.305 Y111.6 E17.19264
G1 X41.248 Y110.917 E17.22456
G1 X41.21 Y109.98 E17.26822
G1 X41.227 Y109.383 E17.29603
G1 X41.254 Y108.988 E17.31447
G1 X41.315 Y108.296 E17.34682
G1 X42.265 Y98.648 E17.79824
G1 X42.342 Y97.961 E17.83043
G1 X42.487 Y97.034 E17.87412
G1 X42.709 Y96.123 E17.91778
G1 X43.008 Y95.234 E17.96145
G1 X43.382 Y94.374 E18.00512
G1 X43.82 Y93.562 E18.04808
G1 X44.29 Y92.772 E18.09089
G1 X45.566 Y90.555 E18.21
G1 X46.763 Y88.334 E18.32748
G1 X47.879 Y86.111 E18.4433
G1 X48.521 Y84.735 E18.51401
G1 X48.894 Y83.964 E18.55389
G1 X49.02 Y83.711 E18.56705
G1 X49.396 Y82.986 E18.60508
G1 X53.912 Y74.541 E19.05101
G1 X54.278 Y73.878 E19.08627
G1 X54.766 Y73.077 E19.12995
G1 X55.302 Y72.343 E19.17227
G1 X55.803 Y71.715 E19.20967
G1 X61.955 Y64.221 E19.66115
G1 X62.396 Y63.699 E19.69297
G1 X63.032 Y63.009 E19.73666
G0 F6000 X63.326 Y63.28
G1 F1200 X63.954 Y62.704 E19.77634
G1 X64.573 Y62.182 E19.81405
G1 X71.927 Y56.146 E20.25705
G1 X72.596 Y55.612 E20.29691
G1 X73.34 Y55.069 E20.3398
G1 X74.073 Y54.624 E20.37973
G1 X74.791 Y54.228 E20.41791
G1 X83.288 Y49.688 E20.8665
G1 X83.932 Y49.356 E20.90024
G1 X84.469 Y49.098 E20.92798
G1 X85.5 Y48.638 E20.98055
G1 X87.899 Y47.526 E21.10368
G1 X90.136 Y46.411 E21.22006
G1 X92.881 Y44.935 E21.36519
G1 X94.01 Y44.304 E21.42541
G1 X94.832 Y43.89 E21.46827
G1 X95.687 Y43.549 E21.51113
G1 X96.569 Y43.283 E21.55403
G1 X97.47 Y43.095 E21.59688
G1 X97.962 Y43.026 E21.62002
G1 X98.713 Y42.939 E21.65522
G1 X108.264 Y41.997 E22.10211
G1 X109.11 Y41.925 E22.14165
G1 X110.03 Y41.887 E22.18453
G1 X110.625 Y41.905 E22.21224
G1 X110.955 Y41.928 E22.22765
G1 X111.663 Y41.989 E22.26074
G1 X121.17 Y42.926 E22.70557
G1 X122.013 Y43.021 E22.74507
G1 X122.922 Y43.164 E22.78792
G1 X123.816 Y43.386 E22.83081
G1 X124.687 Y43.685 E22.87369
G1 X125.528 Y44.058 E22.91653
G1 X125.987 Y44.299 E22.94067
G1 X127.205 Y44.98 E23.00565
G1 X127.342 Y45.059 E23.01301
G1 X129.554 Y46.251 E23.13002
G1 X131.798 Y47.379 E23.24696
G1 X134.102 Y48.457 E23.36541
G1 X135.577 Y49.12 E23.44071
G1 X136.095 Y49.37 E23.46749
G1 X136.831 Y49.752 E23.50611
G1 X145.261 Y54.259 E23.95122
G1 X145.934 Y54.631 E23.98703
G1 X146.72 Y55.111 E24.02991
G1 X147.413 Y55.619 E24.06992
G1 X148.062 Y56.138 E24.10862
G1 X155.53 Y62.268 E24.55851
G1 X156.035 Y62.695 E24.5893
G1 X156.801 Y63.41 E24.63809
G1 X156.833 Y63.443 E24.64023
G1 X157.327 Y63.989 E24.67452
G1 X157.815 Y64.57 E24.70985
G1 X163.94 Y72.036 E25.15952
G1 X164.38 Y72.587 E25.19235
G1 X164.923 Y73.33 E25.2352
G1 X165.379 Y74.082 E25.27615
G1 X165.777 Y74.805 E25.31458
G1 X170.309 Y83.285 E25.7623
G1 X170.634 Y83.914 E25.79527
G1 X170.766 Y84.178 E25.80901
G1 X171.159 Y84.996 E25.85127
G1 X171.643 Y86.042 E25.90494
G1 X172.746 Y88.254 E26.02003
G1 X173.938 Y90.487 E26.1379
G1 X175.509 Y93.219 E26.28464
G1 X175.832 Y93.762 E26.31406
G1 X176.268 Y94.572 E26.3569
G1 X176.632 Y95.418 E26.39978
G1 X176.921 Y96.292 E26.44265
G1 X177.134 Y97.188 E26.48553
G1 X177.253 Y97.971 E26.52241
G1 X177.355 Y98.865 E26.56431
G1 X178.295 Y108.42 E27.01138
G1 X178.353 Y109.109 E27.04357
G1 X178.39 Y110.029 E27.08645
G1 X178.374 Y110.586 E27.11239
G1 X178.348 Y110.971 E27.13036
G1 X178.288 Y111.66 E27.16256
G1 X177.351 Y121.173 E27.60767
G1 X177.255 Y122.02 E27.64737
G1 X177.111 Y122.93 E27.69027
G1 X176.889 Y123.823 E27.73311
G1 X176.589 Y124.694 E27.77601
G1 X176.216 Y125.535 E27.81885
G1 X175.833 Y126.238 E27.85613
G1 X175.388 Y126.985 E27.89661
G1 X174.1 Y129.221 E28.01677
G1 X172.896 Y131.454 E28.1349
G1 X171.765 Y133.706 E28.25224
G1 X171.075 Y135.183 E28.32815
G1 X170.748 Y135.858 E28.36308
G1 X170.624 Y136.105 E28.37595
G1 X170.251 Y136.824 E28.41366
G1 X165.738 Y145.265 E28.85936
G1 X165.372 Y145.928 E28.89463
G1 X164.892 Y146.714 E28.93751
G1 X164.384 Y147.409 E28.9776
G1 X163.985 Y147.91 E29.00742
G1 X157.733 Y155.528 E29.46631
G1 X157.292 Y156.049 E29.4981
G1 X156.667 Y156.726 E29.541
G1 X156.046 Y157.295 E29.58022
G1 X155.427 Y157.817 E29.61792
G1 X147.955 Y163.948 E30.06798
G1 X147.403 Y164.388 E30.10085
G1 X146.659 Y164.93 E30.14372
G1 X145.921 Y165.378 E30.18392
G1 X145.21 Y165.769 E30.2217
G1 X136.716 Y170.309 E30.67017
G1 X136.063 Y170.646 E30.70438
G1 X135.795 Y170.779 E30.71831
G1 X134.96 Y171.18 E30.76145
G1 X133.928 Y171.659 E30.81443
G1 X131.696 Y172.772 E30.93056
G1 X129.465 Y173.965 E31.04837
G1 X126.773 Y175.513 E31.19296
G1 X126.24 Y175.83 E31.22184
G1 X125.429 Y176.266 E31.26472
G1 X124.584 Y176.631 E31.30758
G1 X123.71 Y176.92 E31.35044
G1 X122.814 Y177.132 E31.39331
G1 X122.03 Y177.252 E31.43025
G1 X121.111 Y177.357 E31.47332
G1 X111.725 Y178.282 E31.91249
G1 X110.884 Y178.353 E31.95178
G1 X109.964 Y178.39 E31.99466
G1 X109.118 Y178.353 E32.03409
G1 X108.282 Y178.282 E32.07316
G1 X98.826 Y177.351 E32.5156
G1 X98 Y177.258 E32.5543
G1 X96.799 Y177.052 E32.61104
G1 X95.912 Y176.806 E32.6539
G1 X95.05 Y176.484 E32.69675
G1 X94.218 Y176.088 E32.73966
G1 X93.765 Y175.834 E32.76384
G1 X93.036 Y175.401 E32.80332
G1 X90.764 Y174.092 E32.92542
G1 X88.548 Y172.897 E33.04265
G1 X86.307 Y171.771 E33.15943
G1 X84.817 Y171.075 E33.23601
G1 X84.144 Y170.749 E33.27083
G1 X83.893 Y170.623 E33.28391
G1 X83.169 Y170.247 E33.3219
G1 X74.739 Y165.74 E33.76701
G1 X74.066 Y165.368 E33.80282
G1 X73.28 Y164.888 E33.8457
G1 X72.587 Y164.38 E33.88571
G1 X71.938 Y163.861 E33.92441
G1 X64.467 Y157.729 E34.37446
G1 X63.961 Y157.301 E34.40532
G1 X63.19 Y156.579 E34.45451
G1 X62.673 Y156.01 E34.49031
G1 X62.185 Y155.429 E34.52564
G1 X56.056 Y147.958 E34.9756
G1 X55.615 Y147.405 E35.00854
G1 X55.072 Y146.661 E35.05143
G1 X54.621 Y145.916 E35.09198
G1 X54.223 Y145.194 E35.13037
G1 X49.684 Y136.701 E35.57877
G1 X49.359 Y136.072 E35.61174
G1 X49.223 Y135.8 E35.6259
G1 X48.841 Y135.003 E35.66706
G1 X48.357 Y133.957 E35.72072
G1 X47.254 Y131.745 E35.83582
G1 X46.062 Y129.512 E35.95368
G1 X44.498 Y126.792 E36.09978
G1 X44.172 Y126.245 E36.12943
G1 X43.736 Y125.434 E36.17231
G1 X43.371 Y124.589 E36.21517
G1 X43.081 Y123.715 E36.25805
G1 X42.868 Y122.82 E36.30089
G1 X42.745 Y122.017 E36.33871
G1 X42.643 Y121.111 E36.38117
G1 X41.718 Y111.725 E36.82034
G1 X41.647 Y110.884 E36.85964
G1 X41.61 Y109.964 E36.90251
G1 X41.627 Y109.406 E36.92851
G1 X41.653 Y109.023 E36.94638
G1 X41.713 Y108.335 E36.97854
G1 X42.663 Y98.692 E37.42973
G1 X42.74 Y98.005 E37.46192
G1 X42.882 Y97.096 E37.50476
G1 X43.103 Y96.202 E37.54764
G1 X43.4 Y95.331 E37.59049
G1 X43.772 Y94.488 E37.6334
G1 X44.164 Y93.766 E37.67165
G1 X44.638 Y92.969 E37.71483
G1 X45.915 Y90.75 E37.83405
G1 X47.107 Y88.538 E37.95105
G1 X48.255 Y86.252 E38.07016
G1 X48.952 Y84.761 E38.1468
G1 X49.254 Y84.138 E38.17904
G1 X49.376 Y83.894 E38.19174
G1 X49.749 Y83.175 E38.22946
G1 X54.262 Y74.734 E38.67516
G1 X54.628 Y74.071 E38.71042
G1 X55.108 Y73.285 E38.75331
G1 X55.615 Y72.592 E38.79329
G1 X56.112 Y71.969 E38.8304
G1 X62.261 Y64.479 E39.28164
G1 X62.702 Y63.957 E39.31346
G1 X63.326 Y63.28 E39.35633
G0 F6000 X63.62 Y63.552
G1 F1200 X64.212 Y63.01 E39.39371
G1 X64.827 Y62.492 E39.43115
G1 X72.292 Y56.365 E39.88084
G1 X72.845 Y55.924 E39.91377
G1 X73.576 Y55.393 E39.95585
G1 X74.267 Y54.974 E39.99347
G1 X74.979 Y54.581 E40.03134
G1 X83.471 Y50.044 E40.47966
G1 X84.115 Y49.712 E40.5134
G1 X84.632 Y49.464 E40.5401
G1 X85.65 Y49.01 E40.592
G1 X88.068 Y47.889 E40.71611
G1 X90.299 Y46.777 E40.83218
G1 X93.086 Y45.279 E40.97951
G1 X94.205 Y44.653 E41.03922
G1 X95.012 Y44.247 E41.08128
G1 X95.851 Y43.915 E41.1233
G1 X96.717 Y43.658 E41.16536
G1 X98.008 Y43.424 E41.22645
G1 X98.933 Y43.318 E41.26981
G1 X108.445 Y42.382 E41.71487
G1 X109.144 Y42.323 E41.74753
G1 X110.046 Y42.287 E41.78956
G1 X110.604 Y42.305 E41.81556
G1 X110.921 Y42.327 E41.83036
G1 X111.623 Y42.387 E41.86316
G1 X121.281 Y43.34 E42.31507
G1 X121.968 Y43.418 E42.34726
G1 X122.86 Y43.56 E42.38932
G1 X123.736 Y43.779 E42.43136
G1 X124.589 Y44.076 E42.47342
G1 X125.792 Y44.648 E42.53545
G1 X126.9 Y45.267 E42.59455
G1 X127.131 Y45.399 E42.60694
G1 X129.363 Y46.602 E42.725
G1 X131.656 Y47.755 E42.84451
G1 X133.921 Y48.815 E42.96096
G1 X134.145 Y48.913 E42.97234
G1 X135.413 Y49.484 E43.0371
G1 X135.911 Y49.725 E43.06286
G1 X136.642 Y50.104 E43.1012
G1 X144.941 Y54.54 E43.53938
G1 X145.74 Y54.981 E43.58187
G1 X146.511 Y55.452 E43.62394
G1 X147.163 Y55.931 E43.66162
G1 X147.809 Y56.447 E43.70011
G1 X155.272 Y62.573 E44.1497
G1 X155.777 Y63 E44.1805
G1 X156.514 Y63.688 E44.22745
G1 X156.546 Y63.721 E44.22959
G1 X157.021 Y64.247 E44.26259
G1 X157.506 Y64.824 E44.29769
G1 X163.628 Y72.285 E44.74708
G1 X164.068 Y72.836 E44.77992
G1 X164.599 Y73.566 E44.82195
G1 X165.029 Y74.275 E44.86056
G1 X165.424 Y74.994 E44.89876
G1 X169.954 Y83.469 E45.34623
G1 X170.279 Y84.098 E45.3792
G1 X170.405 Y84.351 E45.39236
G1 X170.796 Y85.164 E45.43437
G1 X171.28 Y86.21 E45.48803
G1 X172.393 Y88.441 E45.60413
G1 X173.597 Y90.697 E45.7232
G1 X175.144 Y93.389 E45.86778
G1 X175.488 Y93.966 E45.89906
G1 X175.915 Y94.762 E45.94112
G1 X176.27 Y95.592 E45.98315
G1 X176.55 Y96.451 E46.02522
G1 X176.753 Y97.331 E46.06727
G1 X176.856 Y98.017 E46.09958
G1 X176.957 Y98.905 E46.14119
G1 X177.896 Y108.453 E46.58793
G1 X177.954 Y109.142 E46.62013
G1 X177.99 Y110.045 E46.66221
G1 X177.974 Y110.564 E46.68639
G1 X177.949 Y110.937 E46.70379
G1 X177.89 Y111.621 E46.73576
G1 X176.936 Y121.293 E47.18832
G1 X176.858 Y121.975 E47.22028
G1 X176.716 Y122.867 E47.26234
G1 X176.495 Y123.743 E47.30441
G1 X176.198 Y124.595 E47.34642
G1 X175.827 Y125.419 E47.3885
G1 X175.489 Y126.033 E47.42114
G1 X175.058 Y126.757 E47.46037
G1 X173.735 Y129.054 E47.5838
G1 X172.543 Y131.264 E47.70072
G1 X171.409 Y133.523 E47.81842
G1 X170.715 Y135.009 E47.89479
G1 X170.388 Y135.684 E47.92971
G1 X170.269 Y135.921 E47.94206
G1 X169.898 Y136.636 E47.97957
G1 X165.388 Y145.072 E48.425
G1 X165.022 Y145.735 E48.46026
G1 X164.551 Y146.505 E48.50229
G1 X164.071 Y147.159 E48.54007
G1 X163.578 Y147.776 E48.57684
G1 X157.427 Y155.27 E49.02829
G1 X156.986 Y155.791 E49.06007
G1 X156.373 Y156.454 E49.10212
G1 X155.788 Y156.989 E49.13903
